;Generated with Cura_SteamEngine 13.12
M140 S100.000000
M109 T0 S255.000000
T0
M190 S100.000000
;Sliced at: Thu 06-03-2014 23:03:00
;Basic settings: Layer height: 0.24 Walls: 1 Fill: 20
;Print time: #P_TIME#
;Filament used: #F_AMNT#m #F_WGHT#g
;Filament cost: #F_COST#
;M190 S100 ;Uncomment to add your own bed temperature line
;M109 S255 ;Uncomment to add your own temperature line
G21        ;metric values
G90        ;absolute positioning
M107       ;start with the fan off
G28 X0 Y0  ;move X/Y to min endstops
G28 Z0     ;move Z to min endstops
G1 Z15.0 F9000 ;move the platform down 15mm
G92 E0                  ;zero the extruded length
G1 F200 E3              ;extrude 3mm of feed stock
G92 E0                  ;zero the extruded length again
G1 F9000
;Put printing message on LCD screen
M117 Printing...

;Layer count: 675
;LAYER:0
M107
G0 F9000 X69.81 Y2.02 Z0.20
;TYPE:SKIRT
G1 F1200 E0.00000
G1 F3000 X197.81 Y2.02 E5.32158
G1 X197.81 Y49.88 E7.31166
G1 X190.31 Y49.89 E7.62347
G1 X190.31 Y38.53 E8.09560
G1 X77.31 Y38.53 E12.79355
G1 X77.31 Y49.88 E13.26556
G1 X69.81 Y49.89 E13.57737
G1 X69.81 Y2.02 E15.56757
G0 F9000 X70.31 Y2.52
G1 F3000 X197.31 Y2.52 E20.84758
G1 X197.31 Y49.38 E22.79608
G1 X190.81 Y49.39 E23.06632
G1 X190.81 Y38.03 E23.53845
G1 X76.81 Y38.03 E28.27797
G1 X76.81 Y49.38 E28.74998
G1 X70.31 Y49.39 E29.02022
G1 X70.31 Y2.52 E30.96884
G0 F9000 X70.81 Y3.02
G1 F3000 X196.81 Y3.02 E36.20727
G1 X196.81 Y48.89 E38.11424
G1 X191.31 Y48.89 E38.34291
G1 X191.31 Y37.53 E38.81499
G1 X76.31 Y37.53 E43.59610
G1 X76.31 Y48.89 E44.06814
G1 X70.81 Y48.89 E44.29680
G1 X70.81 Y3.02 E46.20382
G0 F9000 X71.31 Y3.52
G1 F3000 X196.31 Y3.52 E51.40067
G1 X196.31 Y48.39 E53.26606
G1 X191.81 Y48.39 E53.45315
G1 X191.81 Y37.03 E53.92524
G1 X75.81 Y37.03 E58.74792
G1 X75.81 Y48.39 E59.21996
G1 X71.31 Y48.39 E59.40705
G1 X71.31 Y3.52 E61.27249
G0 F9000 X71.81 Y4.02
G1 F3000 X195.81 Y4.02 E66.42777
G1 X195.81 Y47.89 E68.25158
G1 X192.31 Y47.89 E68.39710
G1 X192.31 Y36.53 E68.86918
G1 X75.31 Y36.53 E73.73344
G1 X75.31 Y47.89 E74.20548
G1 X71.81 Y47.89 E74.35099
G1 X71.81 Y4.02 E76.17486
G0 F9000 X80.41 Y12.96
G1 F3000 X79.79 Y13.71 E76.21543
G1 X79.27 Y14.54 E76.25598
G1 X78.85 Y15.41 E76.29615
G1 X78.55 Y16.34 E76.33668
G1 X78.37 Y17.30 E76.37722
G1 X78.31 Y18.28 E76.41838
G1 X78.31 Y22.30 E76.58539
G1 X78.37 Y23.27 E76.62572
G1 X78.56 Y24.22 E76.66604
G1 X78.85 Y25.12 E76.70540
G1 X79.28 Y26.03 E76.74728
G1 X79.81 Y26.84 E76.78750
G1 X80.43 Y27.60 E76.82812
G1 X81.12 Y28.24 E76.86718
G1 X81.91 Y28.81 E76.90766
G1 X82.75 Y29.28 E76.94795
G1 X83.70 Y29.65 E76.99005
G1 X84.60 Y29.88 E77.02898
G1 X85.57 Y30.00 E77.06946
G1 X182.07 Y30.00 E81.08163
G1 X183.04 Y29.87 E81.12209
G1 X183.99 Y29.63 E81.16274
G1 X184.85 Y29.28 E81.20161
G1 X185.70 Y28.81 E81.24188
G1 X186.52 Y28.22 E81.28388
G1 X187.23 Y27.54 E81.32467
G1 X187.84 Y26.80 E81.36465
G1 X188.34 Y26.00 E81.40374
G1 X188.77 Y25.09 E81.44595
G1 X189.07 Y24.17 E81.48598
G1 X189.24 Y23.24 E81.52530
G1 X189.31 Y22.25 E81.56642
G1 X189.31 Y18.28 E81.73139
G1 X189.24 Y17.30 E81.77254
G1 X189.06 Y16.34 E81.81309
G1 X188.76 Y15.41 E81.85362
G1 X188.35 Y14.54 E81.89379
G1 X187.83 Y13.71 E81.93434
G1 X187.20 Y12.96 E81.97491
G1 X186.50 Y12.30 E82.01527
G1 X185.71 Y11.72 E82.05581
G1 X184.85 Y11.26 E82.09628
G1 X183.95 Y10.90 E82.13661
G1 X183.01 Y10.65 E82.17710
G1 X182.04 Y10.53 E82.21757
G1 X85.57 Y10.53 E86.22845
G1 X84.60 Y10.65 E86.26893
G1 X83.66 Y10.90 E86.30942
G1 X82.76 Y11.26 E86.34975
G1 X81.91 Y11.72 E86.39025
G1 X81.12 Y12.30 E86.43076
G1 X80.41 Y12.96 E86.47112
G0 F9000 X80.77 Y13.31
G1 F3000 X80.19 Y14.01 E86.50892
G1 X79.71 Y14.78 E86.54682
G1 X79.32 Y15.60 E86.58483
G1 X79.04 Y16.46 E86.62238
G1 X78.87 Y17.36 E86.66026
G1 X78.81 Y18.30 E86.69950
G1 X78.81 Y22.28 E86.86506
G1 X78.87 Y23.20 E86.90352
G1 X79.05 Y24.10 E86.94142
G1 X79.32 Y24.94 E86.97801
G1 X79.72 Y25.79 E87.01708
G1 X80.21 Y26.55 E87.05493
G1 X80.80 Y27.25 E87.09278
G1 X81.44 Y27.85 E87.12928
G1 X82.18 Y28.39 E87.16741
G1 X82.97 Y28.83 E87.20503
G1 X83.85 Y29.17 E87.24414
G1 X84.70 Y29.39 E87.28068
G1 X85.60 Y29.50 E87.31860
G1 X182.04 Y29.50 E91.32802
G1 X182.94 Y29.38 E91.36584
G1 X183.83 Y29.15 E91.40404
G1 X184.64 Y28.83 E91.44032
G1 X185.44 Y28.39 E91.47804
G1 X186.19 Y27.84 E91.51701
G1 X186.86 Y27.20 E91.55533
G1 X187.44 Y26.50 E91.59288
G1 X187.91 Y25.76 E91.62929
G1 X188.31 Y24.91 E91.66869
G1 X188.58 Y24.04 E91.70637
G1 X188.75 Y23.18 E91.74294
G1 X188.81 Y22.24 E91.78214
G1 X188.81 Y18.30 E91.94586
G1 X188.75 Y17.36 E91.98511
G1 X188.58 Y16.46 E92.02299
G1 X188.30 Y15.60 E92.06054
G1 X187.91 Y14.78 E92.09855
G1 X187.42 Y14.01 E92.13645
G1 X186.84 Y13.31 E92.17425
G1 X186.18 Y12.69 E92.21196
G1 X185.44 Y12.15 E92.25015
G1 X184.64 Y11.71 E92.28777
G1 X183.80 Y11.37 E92.32562
G1 X182.91 Y11.15 E92.36343
G1 X182.01 Y11.03 E92.40122
G1 X85.60 Y11.03 E96.40961
G1 X84.70 Y11.15 E96.44740
G1 X83.82 Y11.37 E96.48522
G1 X82.97 Y11.71 E96.52306
G1 X82.17 Y12.15 E96.56100
G1 X81.44 Y12.68 E96.59861
G1 X80.77 Y13.31 E96.63659
G0 F9000 X81.14 Y13.65
G1 F3000 X80.60 Y14.30 E96.67170
G1 X80.14 Y15.02 E96.70708
G1 X79.78 Y15.78 E96.74210
G1 X79.52 Y16.59 E96.77755
G1 X79.36 Y17.42 E96.81256
G1 X79.31 Y18.31 E96.84984
G1 X79.31 Y22.26 E97.01402
G1 X79.37 Y23.14 E97.05048
G1 X79.53 Y23.97 E97.08576
G1 X79.78 Y24.75 E97.12000
G1 X80.16 Y25.54 E97.15621
G1 X80.61 Y26.25 E97.19133
G1 X81.16 Y26.91 E97.22686
G1 X81.76 Y27.47 E97.26083
G1 X82.44 Y27.96 E97.29581
G1 X83.19 Y28.37 E97.33135
G1 X84.00 Y28.69 E97.36755
G1 X84.80 Y28.90 E97.40181
G1 X85.63 Y29.00 E97.43688
G1 X182.01 Y29.00 E101.44390
G1 X182.85 Y28.89 E101.47887
G1 X183.66 Y28.68 E101.51402
G1 X184.43 Y28.37 E101.54832
G1 X185.17 Y27.97 E101.58313
G1 X185.88 Y27.45 E101.61981
G1 X186.49 Y26.87 E101.65496
G1 X187.03 Y26.21 E101.69035
G1 X187.47 Y25.52 E101.72411
G1 X187.84 Y24.72 E101.76070
G1 X188.10 Y23.92 E101.79590
G1 X188.25 Y23.12 E101.82984
G1 X188.31 Y22.22 E101.86725
G1 X188.31 Y18.31 E102.02956
G1 X188.25 Y17.42 E102.06684
G1 X188.09 Y16.59 E102.10185
G1 X187.83 Y15.78 E102.13730
G1 X187.47 Y15.02 E102.17232
G1 X187.01 Y14.30 E102.20770
G1 X186.48 Y13.65 E102.24281
G1 X185.86 Y13.07 E102.27814
G1 X185.17 Y12.57 E102.31347
G1 X184.43 Y12.16 E102.34851
G1 X183.65 Y11.85 E102.38362
G1 X182.82 Y11.64 E102.41915
G1 X181.98 Y11.53 E102.45414
G1 X85.63 Y11.53 E106.45995
G1 X84.80 Y11.64 E106.49494
G1 X83.97 Y11.85 E106.53047
G1 X83.19 Y12.16 E106.56531
G1 X82.44 Y12.57 E106.60074
G1 X81.75 Y13.07 E106.63612
G1 X81.14 Y13.65 E106.67127
G0 F9000 X81.50 Y13.99
G1 F3000 X81.00 Y14.60 E106.70381
G1 X80.58 Y15.26 E106.73654
G1 X80.25 Y15.97 E106.76890
G1 X80.01 Y16.72 E106.80173
G1 X79.86 Y17.48 E106.83402
G1 X79.81 Y18.33 E106.86947
G1 X79.81 Y22.24 E107.03216
G1 X79.86 Y23.07 E107.06674
G1 X80.02 Y23.85 E107.09961
G1 X80.25 Y24.56 E107.13078
G1 X80.60 Y25.30 E107.16474
G1 X81.02 Y25.96 E107.19724
G1 X81.52 Y26.56 E107.22998
G1 X82.08 Y27.08 E107.26139
G1 X82.71 Y27.54 E107.29401
G1 X83.39 Y27.92 E107.32647
G1 X84.16 Y28.22 E107.36057
G1 X84.89 Y28.40 E107.39200
G1 X85.66 Y28.50 E107.42439
G1 X181.98 Y28.50 E111.42879
G1 X182.75 Y28.40 E111.46111
G1 X183.51 Y28.20 E111.49373
G1 X184.22 Y27.92 E111.52549
G1 X184.90 Y27.55 E111.55751
G1 X185.56 Y27.06 E111.59166
G1 X186.13 Y26.52 E111.62428
G1 X186.62 Y25.92 E111.65683
G1 X187.03 Y25.28 E111.68816
G1 X187.37 Y24.54 E111.72196
G1 X187.61 Y23.79 E111.75467
G1 X187.75 Y23.05 E111.78599
G1 X187.81 Y22.21 E111.82131
G1 X187.81 Y18.33 E111.98246
G1 X187.75 Y17.48 E112.01791
G1 X187.61 Y16.72 E112.05020
G1 X187.36 Y15.97 E112.08303
G1 X187.03 Y15.26 E112.11539
G1 X186.61 Y14.60 E112.14812
G1 X186.11 Y13.99 E112.18066
G1 X185.54 Y13.46 E112.21331
G1 X184.90 Y12.99 E112.24631
G1 X184.22 Y12.62 E112.27837
G1 X183.48 Y12.33 E112.31129
G1 X182.72 Y12.13 E112.34387
G1 X181.95 Y12.03 E112.37626
G1 X85.66 Y12.03 E116.37958
G1 X84.89 Y12.13 E116.41197
G1 X84.13 Y12.33 E116.44455
G1 X83.40 Y12.62 E116.47719
G1 X82.71 Y12.99 E116.50992
G1 X82.08 Y13.46 E116.54247
G1 X81.50 Y13.99 E116.57518
G0 F9000 X81.87 Y14.34
G1 F3000 X81.41 Y14.89 E116.60495
G1 X81.02 Y15.50 E116.63502
G1 X80.71 Y16.16 E116.66522
G1 X80.49 Y16.84 E116.69504
G1 X80.36 Y17.54 E116.72479
G1 X80.31 Y18.34 E116.75824
G1 X80.31 Y22.23 E116.91955
G1 X80.36 Y23.01 E116.95214
G1 X80.50 Y23.72 E116.98251
G1 X80.72 Y24.39 E117.01141
G1 X81.03 Y25.05 E117.04206
G1 X81.42 Y25.66 E117.07229
G1 X81.89 Y26.22 E117.10255
G1 X82.39 Y26.69 E117.13117
G1 X82.98 Y27.12 E117.16129
G1 X83.61 Y27.46 E117.19108
G1 X84.31 Y27.74 E117.22243
G1 X84.98 Y27.91 E117.25127
G1 X85.69 Y28.00 E117.28119
G1 X181.95 Y28.00 E121.28285
G1 X182.65 Y27.91 E121.31249
G1 X183.36 Y27.72 E121.34270
G1 X184.01 Y27.46 E121.37185
G1 X184.63 Y27.12 E121.40133
G1 X185.23 Y26.68 E121.43248
G1 X185.76 Y26.18 E121.46262
G1 X186.22 Y25.62 E121.49261
G1 X186.59 Y25.04 E121.52158
G1 X186.91 Y24.36 E121.55253
G1 X187.13 Y23.67 E121.58261
G1 X187.26 Y22.99 E121.61131
G1 X187.31 Y22.19 E121.64472
G1 X187.31 Y18.34 E121.80462
G1 X187.26 Y17.54 E121.83807
G1 X187.12 Y16.84 E121.86782
G1 X186.90 Y16.16 E121.89764
G1 X186.59 Y15.50 E121.92784
G1 X186.20 Y14.89 E121.95791
G1 X185.75 Y14.34 E121.98768
G1 X185.22 Y13.84 E122.01792
G1 X184.63 Y13.41 E122.04810
G1 X184.01 Y13.07 E122.07757
G1 X183.33 Y12.80 E122.10801
G1 X182.64 Y12.63 E122.13755
G1 X181.91 Y12.53 E122.16793
G1 X85.70 Y12.53 E126.16808
G1 X84.97 Y12.63 E126.19846
G1 X84.29 Y12.80 E126.22800
G1 X83.61 Y13.07 E126.25831
G1 X82.98 Y13.42 E126.28815
G1 X82.40 Y13.84 E126.31797
G1 X81.87 Y14.34 E126.34833
G1 F1200 E123.84833
G0 F9000 X79.68 Y12.28
;TYPE:WALL-INNER
G1 F1200 E126.34833
G1 F3000 X78.98 Y13.12 E126.39404
G1 X78.39 Y14.05 E126.43974
G1 X77.92 Y15.05 E126.48542
G1 X77.58 Y16.09 E126.53111
G1 X77.37 Y17.17 E126.57682
G1 X77.31 Y18.25 E126.62155
G1 X77.31 Y22.33 E126.79122
G1 X77.38 Y23.40 E126.83593
G1 X77.59 Y24.48 E126.88155
G1 X77.92 Y25.49 E126.92593
G1 X78.41 Y26.52 E126.97305
G1 X79.00 Y27.44 E127.01870
G1 X79.70 Y28.28 E127.06427
G1 X80.48 Y29.01 E127.10860
G1 X81.37 Y29.66 E127.15425
G1 X82.33 Y30.19 E127.20003
G1 X83.39 Y30.60 E127.24707
G1 X84.42 Y30.86 E127.29133
G1 X85.51 Y31.00 E127.33705
G1 X182.14 Y31.00 E131.35454
G1 X183.23 Y30.86 E131.40028
G1 X184.29 Y30.58 E131.44593
G1 X185.28 Y30.19 E131.49016
G1 X186.25 Y29.66 E131.53589
G1 X187.16 Y28.99 E131.58298
G1 X187.96 Y28.23 E131.62871
G1 X188.65 Y27.38 E131.67433
G1 X189.22 Y26.48 E131.71861
G1 X189.70 Y25.46 E131.76572
G1 X190.04 Y24.41 E131.81138
G1 X190.24 Y23.36 E131.85566
G1 X190.31 Y22.29 E131.90032
G1 X190.31 Y18.24 E132.06861
G1 X190.24 Y17.17 E132.11331
G1 X190.03 Y16.09 E132.15902
G1 X189.69 Y15.05 E132.20471
G1 X189.22 Y14.05 E132.25038
G1 X188.64 Y13.12 E132.29608
G1 X187.94 Y12.28 E132.34180
G1 X187.13 Y11.53 E132.38748
G1 X186.25 Y10.88 E132.43317
G1 X185.28 Y10.35 E132.47887
G1 X184.26 Y9.94 E132.52457
G1 X183.20 Y9.67 E132.57024
G1 X182.10 Y9.53 E132.61595
G1 X85.51 Y9.53 E136.63199
G1 X84.42 Y9.67 E136.67770
G1 X83.35 Y9.94 E136.72337
G1 X82.33 Y10.35 E136.76908
G1 X81.37 Y10.88 E136.81481
G1 X80.48 Y11.53 E136.86047
G1 X79.68 Y12.28 E136.90615
G0 F9000 X72.81 Y5.02
G1 F3000 X194.81 Y5.02 E141.97828
G1 X194.81 Y46.89 E143.71895
G1 X193.31 Y46.89 E143.78131
G1 X193.31 Y35.53 E144.25340
G1 X74.31 Y35.53 E149.20080
G1 X74.31 Y46.89 E149.67284
G1 X72.81 Y46.89 E149.73521
G1 X72.81 Y5.02 E151.47592
G0 F9000 X72.31 Y4.52
;TYPE:WALL-OUTER
G1 F3000 X195.31 Y4.52 E156.58962
G1 X195.31 Y47.39 E158.37187
G1 X192.81 Y47.39 E158.47580
G1 X192.81 Y36.03 E158.94789
G1 X74.81 Y36.03 E163.85372
G1 X74.81 Y47.39 E164.32576
G1 X72.31 Y47.39 E164.42970
G1 X72.31 Y4.52 E166.21199
G0 F9000 X72.66 Y4.78
G0 X79.77 Y12.40
G0 X80.04 Y12.62
G1 F3000 X79.38 Y13.42 E166.25507
G1 X78.83 Y14.29 E166.29815
G1 X78.39 Y15.23 E166.34124
G1 X78.06 Y16.22 E166.38431
G1 X77.87 Y17.23 E166.42740
G1 X77.81 Y18.26 E166.47014
G1 X77.81 Y22.31 E166.63848
G1 X77.88 Y23.33 E166.68119
G1 X78.08 Y24.35 E166.72426
G1 X78.39 Y25.31 E166.76601
G1 X78.84 Y26.27 E166.81047
G1 X79.40 Y27.14 E166.85350
G1 X80.07 Y27.94 E166.89654
G1 X80.80 Y28.63 E166.93824
G1 X81.64 Y29.23 E166.98131
G1 X82.55 Y29.73 E167.02443
G1 X83.54 Y30.12 E167.06884
G1 X84.51 Y30.37 E167.11053
G1 X85.54 Y30.50 E167.15361
G1 X182.11 Y30.50 E171.16844
G1 X183.13 Y30.36 E171.21154
G1 X184.14 Y30.10 E171.25460
G1 X185.07 Y29.73 E171.29627
G1 X185.98 Y29.23 E171.33937
G1 X186.84 Y28.60 E171.38378
G1 X187.59 Y27.89 E171.42687
G1 X188.25 Y27.09 E171.46991
G1 X188.79 Y26.24 E171.51163
G1 X189.24 Y25.27 E171.55606
G1 X189.55 Y24.29 E171.59912
G1 X189.74 Y23.30 E171.64086
G1 X189.81 Y22.28 E171.68355
G1 X189.81 Y18.26 E171.85052
G1 X189.74 Y17.23 E171.89326
G1 X189.55 Y16.22 E171.93634
G1 X189.23 Y15.23 E171.97941
G1 X188.79 Y14.29 E172.02251
G1 X188.23 Y13.42 E172.06559
G1 X187.57 Y12.62 E172.10867
G1 X186.82 Y11.91 E172.15173
G1 X185.98 Y11.30 E172.19484
G1 X185.07 Y10.80 E172.23789
G1 X184.10 Y10.42 E172.28099
G1 X183.10 Y10.16 E172.32405
G1 X182.07 Y10.03 E172.36712
G1 X85.54 Y10.03 E176.38058
G1 X84.51 Y10.16 E176.42366
G1 X83.51 Y10.42 E176.46671
G1 X82.54 Y10.80 E176.50981
G1 X81.64 Y11.30 E176.55290
G1 X80.80 Y11.91 E176.59597
G1 X80.04 Y12.62 E176.63903
G0 F9000 X79.63 Y12.10
;TYPE:FILL
G1 F4200 X72.97 Y5.44 E177.03026
G0 F9000 X73.42 Y5.18
G1 F4200 X79.99 Y11.75 E177.41667
G0 F9000 X80.36 Y11.41
G1 F4200 X74.13 Y5.18 E177.78297
G0 F9000 X74.83 Y5.18
G1 F4200 X80.76 Y11.11 E178.13163
G0 F9000 X81.17 Y10.82
G1 F4200 X75.54 Y5.18 E178.46283
G0 F9000 X76.25 Y5.18
G1 F4200 X81.62 Y10.55 E178.77857
G0 F9000 X82.07 Y10.30
G1 F4200 X76.95 Y5.18 E179.07954
G0 F9000 X77.66 Y5.18
G1 F4200 X82.56 Y10.08 E179.36750
G0 F9000 X83.06 Y9.88
G1 F4200 X78.37 Y5.18 E179.64369
G0 F9000 X79.08 Y5.18
G1 F4200 X83.60 Y9.71 E179.90981
G0 F9000 X84.16 Y9.56
G1 F4200 X79.78 Y5.18 E180.16745
G0 F9000 X80.49 Y5.18
G1 F4200 X84.77 Y9.46 E180.41892
G0 F9000 X85.39 Y9.38
G1 F4200 X81.20 Y5.18 E180.66575
G0 F9000 X81.90 Y5.18
G1 F4200 X86.09 Y9.37 E180.91187
G0 F9000 X86.80 Y9.37
G1 F4200 X82.61 Y5.18 E181.15799
G0 F9000 X83.32 Y5.18
G1 F4200 X87.50 Y9.37 E181.40411
G0 F9000 X88.21 Y9.37
G1 F4200 X84.02 Y5.18 E181.65023
G0 F9000 X84.73 Y5.18
G1 F4200 X88.92 Y9.37 E181.89635
G0 F9000 X89.63 Y9.37
G1 F4200 X85.44 Y5.18 E182.14247
G0 F9000 X86.15 Y5.18
G1 F4200 X90.33 Y9.37 E182.38859
G0 F9000 X91.04 Y9.37
G1 F4200 X86.85 Y5.18 E182.63471
G0 F9000 X87.56 Y5.18
G1 F4200 X91.75 Y9.37 E182.88083
G0 F9000 X92.45 Y9.37
G1 F4200 X88.27 Y5.18 E183.12696
G0 F9000 X88.97 Y5.18
G1 F4200 X93.16 Y9.37 E183.37308
G0 F9000 X93.87 Y9.37
G1 F4200 X89.68 Y5.18 E183.61920
G0 F9000 X90.39 Y5.18
G1 F4200 X94.57 Y9.37 E183.86532
G0 F9000 X95.28 Y9.37
G1 F4200 X91.09 Y5.18 E184.11144
G0 F9000 X91.80 Y5.18
G1 F4200 X95.99 Y9.37 E184.35759
G0 F9000 X96.70 Y9.37
G1 F4200 X92.51 Y5.18 E184.60371
G0 F9000 X93.22 Y5.18
G1 F4200 X97.40 Y9.37 E184.84983
G0 F9000 X98.11 Y9.37
G1 F4200 X93.92 Y5.18 E185.09595
G0 F9000 X94.63 Y5.18
G1 F4200 X98.82 Y9.37 E185.34207
G0 F9000 X99.52 Y9.37
G1 F4200 X95.34 Y5.18 E185.58819
G0 F9000 X96.05 Y5.18
G1 F4200 X100.23 Y9.37 E185.83431
G0 F9000 X100.94 Y9.37
G1 F4200 X96.75 Y5.18 E186.08043
G0 F9000 X97.46 Y5.18
G1 F4200 X101.65 Y9.37 E186.32655
G0 F9000 X102.35 Y9.37
G1 F4200 X98.17 Y5.18 E186.57268
G0 F9000 X98.87 Y5.18
G1 F4200 X103.06 Y9.37 E186.81880
G0 F9000 X103.77 Y9.37
G1 F4200 X99.58 Y5.18 E187.06492
G0 F9000 X100.29 Y5.18
G1 F4200 X104.47 Y9.37 E187.31104
G0 F9000 X105.18 Y9.37
G1 F4200 X101.00 Y5.18 E187.55716
G0 F9000 X101.70 Y5.18
G1 F4200 X105.89 Y9.37 E187.80328
G0 F9000 X106.60 Y9.37
G1 F4200 X102.41 Y5.18 E188.04940
G0 F9000 X103.12 Y5.18
G1 F4200 X107.30 Y9.37 E188.29552
G0 F9000 X108.01 Y9.37
G1 F4200 X103.82 Y5.18 E188.54164
G0 F9000 X104.53 Y5.18
G1 F4200 X108.72 Y9.37 E188.78776
G0 F9000 X109.42 Y9.37
G1 F4200 X105.24 Y5.18 E189.03391
G0 F9000 X105.94 Y5.18
G1 F4200 X110.13 Y9.37 E189.28003
G0 F9000 X110.84 Y9.37
G1 F4200 X106.65 Y5.18 E189.52615
G0 F9000 X107.36 Y5.18
G1 F4200 X111.55 Y9.37 E189.77227
G0 F9000 X112.25 Y9.37
