;Generated with Cura_SteamEngine 13.12
M140 S100.000000
M109 T0 S255.000000
T0
M190 S100.000000
;Sliced at: Tue 04-03-2014 00:13:56
;Basic settings: Layer height: 0.2 Walls: 1 Fill: 20
;Print time: #P_TIME#
;Filament used: #F_AMNT#m #F_WGHT#g
;Filament cost: #F_COST#
;M190 S100 ;Uncomment to add your own bed temperature line
;M109 S255 ;Uncomment to add your own temperature line
G21        ;metric values
G90        ;absolute positioning
M107       ;start with the fan off
G28 X0 Y0  ;move X/Y to min endstops
G28 Z0     ;move Z to min endstops
G1 Z15.0 F9000 ;move the platform down 15mm
G92 E0                  ;zero the extruded length
G1 F200 E3              ;extrude 3mm of feed stock
G92 E0                  ;zero the extruded length again
G1 F9000
;Put printing message on LCD screen
M117 Printing...

;Layer count: 200
;LAYER:0
M107
G0 F9000 X123.66 Y54.64 Z0.20
;TYPE:SKIRT
G1 F1200 E0.00000
G1 F3000 X137.77 Y40.53 E0.82958
G1 X137.77 Y40.51 E0.83062
G1 X137.82 Y39.48 E0.87320
G1 X137.85 Y39.16 E0.88679
G1 X137.96 Y38.14 E0.92944
G1 X138.14 Y37.12 E0.97233
G1 X138.19 Y36.80 E0.98604
G1 X138.27 Y36.48 E0.99955
G1 X138.50 Y35.48 E1.04212
G1 X138.80 Y34.49 E1.08508
G1 X138.90 Y34.18 E1.09881
G1 X139.01 Y33.87 E1.11243
G1 X139.37 Y32.91 E1.15505
G1 X139.79 Y31.97 E1.19797
G1 X139.92 Y31.67 E1.21152
G1 X140.07 Y31.38 E1.22513
G1 X140.55 Y30.46 E1.26814
G1 X141.25 Y29.29 E1.32481
G1 X142.02 Y28.17 E1.38142
G1 X142.86 Y27.09 E1.43814
G1 X143.07 Y26.85 E1.45175
G1 X143.76 Y26.07 E1.49472
G1 X144.72 Y25.11 E1.55155
G1 X145.50 Y24.42 E1.59464
G1 X145.75 Y24.20 E1.60819
G1 X146.82 Y23.37 E1.66473
G1 X147.94 Y22.59 E1.72145
G1 X148.22 Y22.43 E1.73512
G1 X149.11 Y21.90 E1.77797
G1 X150.03 Y21.42 E1.82093
G1 X150.31 Y21.27 E1.83447
G1 X150.61 Y21.14 E1.84803
G1 X151.56 Y20.72 E1.89109
G1 X152.53 Y20.36 E1.93406
G1 X152.83 Y20.24 E1.94759
G1 X153.14 Y20.15 E1.96109
G1 X153.14 Y20.15 E1.96114
G1 X154.13 Y19.85 E2.00402
G1 X155.13 Y19.61 E2.04686
G1 X155.45 Y19.54 E2.06054
G1 X155.51 Y19.53 E2.06277
G1 X155.74 Y18.68 E2.09946
G1 X156.03 Y17.82 E2.13719
G1 X156.37 Y16.98 E2.17502
G1 X156.76 Y16.16 E2.21284
G1 X157.21 Y15.36 E2.25060
G1 X157.72 Y14.56 E2.29008
G1 X158.80 Y13.18 E2.36292
G1 X159.47 Y12.47 E2.40377
G1 X160.78 Y11.30 E2.47667
G1 X161.55 Y10.74 E2.51602
G1 X162.31 Y10.25 E2.55382
G1 X163.11 Y9.81 E2.59169
G1 X163.93 Y9.41 E2.62959
G1 X164.77 Y9.07 E2.66730
G1 X165.63 Y8.78 E2.70512
G1 X166.51 Y8.55 E2.74291
G1 X167.40 Y8.37 E2.78059
G1 X168.29 Y8.24 E2.81828
G1 X169.20 Y8.17 E2.85598
G1 X170.11 Y8.16 E2.89373
G1 X171.05 Y8.21 E2.93295
G1 X172.76 Y8.46 E3.00488
G1 X173.67 Y8.68 E3.04390
G1 X174.53 Y8.95 E3.08143
G1 X175.37 Y9.28 E3.11877
G1 X176.19 Y9.65 E3.15603
G1 X176.98 Y10.08 E3.19359
G1 X177.74 Y10.56 E3.23095
G1 X178.47 Y11.08 E3.26834
G1 X179.17 Y11.65 E3.30576
G1 X179.82 Y12.27 E3.34314
G1 X180.44 Y12.92 E3.38047
G1 X181.01 Y13.62 E3.41795
G1 X181.54 Y14.35 E3.45533
G1 X182.01 Y15.11 E3.49267
G1 X182.44 Y15.90 E3.53005
G1 X182.82 Y16.72 E3.56746
G1 X183.14 Y17.56 E3.60498
G1 X183.41 Y18.42 E3.64243
G1 X183.63 Y19.30 E3.67998
G1 X183.78 Y20.19 E3.71752
G1 X183.89 Y21.08 E3.75509
G1 X183.93 Y21.99 E3.79277
G1 X183.92 Y22.90 E3.83060
G1 X183.85 Y23.80 E3.86826
G1 X183.72 Y24.70 E3.90587
G1 X183.54 Y25.59 E3.94359
G1 X183.31 Y26.46 E3.98130
G1 X183.02 Y27.33 E4.01915
G1 X182.67 Y28.17 E4.05699
G1 X182.28 Y28.98 E4.09459
G1 X182.19 Y29.14 E4.10207
G1 X182.22 Y29.15 E4.10321
G1 X182.61 Y29.24 E4.11970
G1 X182.98 Y29.36 E4.13599
G1 X183.35 Y29.50 E4.15248
G1 X183.71 Y29.67 E4.16902
G1 X184.06 Y29.86 E4.18563
G1 X184.39 Y30.06 E4.20179
G1 X184.71 Y30.29 E4.21825
G1 X185.03 Y30.55 E4.23505
G1 X185.29 Y30.80 E4.24993
G1 X186.04 Y31.55 E4.29444
G1 X186.29 Y31.81 E4.30933
G1 X186.55 Y32.13 E4.32613
G1 X186.78 Y32.45 E4.34258
G1 X186.98 Y32.78 E4.35874
G1 X187.17 Y33.13 E4.37521
G1 X187.34 Y33.49 E4.39193
G1 X187.48 Y33.86 E4.40856
G1 X187.60 Y34.23 E4.42472
G1 X187.69 Y34.62 E4.44121
G1 X187.76 Y35.01 E4.45772
G1 X187.81 Y35.40 E4.47408
G1 X187.83 Y35.84 E4.49219
G1 X187.79 Y36.60 E4.52378
G1 X187.66 Y37.37 E4.55660
G1 X187.43 Y38.13 E4.58953
G1 X187.41 Y38.18 E4.59158
G1 X187.72 Y38.55 E4.61181
G1 X188.31 Y39.37 E4.65378
G1 X188.50 Y39.64 E4.66738
G1 X188.68 Y39.91 E4.68102
G1 X189.22 Y40.77 E4.72321
G1 X189.70 Y41.66 E4.76527
G1 X189.85 Y41.95 E4.77898
G1 X189.99 Y42.25 E4.79234
G1 X190.41 Y43.17 E4.83464
G1 X190.78 Y44.13 E4.87719
G1 X190.90 Y44.43 E4.89059
G1 X190.99 Y44.73 E4.90397
G1 X191.30 Y45.71 E4.94641
G1 X191.54 Y46.69 E4.98848
G1 X191.62 Y47.01 E5.00218
G1 X191.80 Y48.02 E5.04457
G1 X191.85 Y48.34 E5.05817
G1 X191.97 Y49.36 E5.10094
G1 X192.01 Y49.68 E5.11420
G1 X192.02 Y50.00 E5.12765
G1 X192.07 Y51.03 E5.17048
G1 X192.05 Y52.42 E5.22823
G1 X191.77 Y55.05 E5.33816
G1 X191.43 Y56.66 E5.40671
G1 X191.14 Y57.72 E5.45244
G1 X190.61 Y59.24 E5.51953
G1 X190.20 Y60.25 E5.56471
G1 X189.61 Y61.48 E5.62128
G1 X189.45 Y61.76 E5.63470
G1 X188.95 Y62.66 E5.67781
G1 X188.21 Y63.81 E5.73455
G1 X187.40 Y64.91 E5.79124
G1 X186.53 Y65.96 E5.84790
G1 X185.59 Y66.96 E5.90487
G1 X184.40 Y68.06 E5.97222
G1 X183.56 Y68.75 E6.01768
G1 X182.46 Y69.56 E6.07438
G1 X181.30 Y70.30 E6.13149
G1 X179.88 Y71.08 E6.19869
G1 X178.87 Y71.56 E6.24551
G1 X176.39 Y72.48 E6.35554
G1 X175.05 Y72.85 E6.41336
G1 X173.71 Y73.12 E6.47020
G1 X172.11 Y73.32 E6.53710
G1 X171.03 Y73.41 E6.58222
G1 X169.68 Y73.42 E6.63843
G1 X169.44 Y73.41 E6.64817
G1 X169.44 Y74.17 E6.67969
G1 X169.39 Y74.93 E6.71155
G1 X169.30 Y75.70 E6.74361
G1 X169.15 Y76.45 E6.77557
G1 X168.96 Y77.20 E6.80758
G1 X168.72 Y77.93 E6.83962
G1 X168.43 Y78.68 E6.87301
G1 X167.76 Y79.99 E6.93393
G1 X167.31 Y80.70 E6.96893
G1 X166.41 Y81.86 E7.03024
G1 X165.89 Y82.42 E7.06203
G1 X74.11 Y174.17 E12.45749
G1 X73.49 Y174.68 E12.49098
G1 X72.86 Y175.13 E12.52292
G1 X72.22 Y175.55 E12.55491
G1 X71.54 Y175.92 E12.58700
G1 X70.84 Y176.25 E12.61884
G1 X70.13 Y176.53 E12.65087
G1 X69.39 Y176.77 E12.68299
G1 X68.65 Y176.96 E12.71475
G1 X67.90 Y177.10 E12.74679
G1 X67.14 Y177.20 E12.77872
G1 X66.37 Y177.25 E12.81067
G1 X65.59 Y177.25 E12.84298
G1 X64.83 Y177.20 E12.87476
G1 X64.06 Y177.10 E12.90673
G1 X63.27 Y176.95 E12.94043
G1 X61.86 Y176.54 E13.00143
G1 X61.11 Y176.24 E13.03494
G1 X60.38 Y175.90 E13.06836
G1 X59.12 Y175.15 E13.12935
G1 X58.44 Y174.66 E13.16437
G1 X57.34 Y173.69 E13.22537
G1 X56.79 Y173.10 E13.25885
G1 X56.30 Y172.51 E13.29083
G1 X55.83 Y171.85 E13.32428
G1 X55.06 Y170.56 E13.38678
G1 X54.45 Y169.15 E13.45077
G1 X54.03 Y167.71 E13.51317
G1 X53.88 Y166.92 E13.54663
G1 X53.78 Y166.16 E13.57853
G1 X53.74 Y165.39 E13.61052
G1 X53.74 Y164.61 E13.64278
G1 X53.78 Y163.85 E13.67465
G1 X53.88 Y163.08 E13.70659
G1 X54.03 Y162.29 E13.74023
G1 X54.44 Y160.88 E13.80124
G1 X54.74 Y160.13 E13.83473
G1 X55.08 Y159.40 E13.86824
G1 X55.83 Y158.14 E13.92923
G1 X56.32 Y157.46 E13.96412
G1 X57.27 Y156.39 E14.02353
G1 X156.02 Y57.64 E19.82959
G1 X156.28 Y57.39 E19.84462
G1 X156.59 Y57.14 E19.86116
G1 X156.91 Y56.90 E19.87770
G1 X157.24 Y56.69 E19.89406
G1 X157.59 Y56.50 E19.91057
G1 X157.94 Y56.33 E19.92699
G1 X158.31 Y56.18 E19.94334
G1 X158.69 Y56.05 E19.96000
G1 X159.07 Y55.95 E19.97639
G1 X159.45 Y55.87 E19.99282
G1 X159.84 Y55.81 E20.00914
G1 X160.24 Y55.78 E20.02562
G1 X160.64 Y55.78 E20.04233
G1 X161.03 Y55.80 E20.05857
G1 X161.43 Y55.84 E20.07509
G1 X161.82 Y55.91 E20.09165
G1 X162.20 Y56.01 E20.10792
G1 X162.58 Y56.13 E20.12450
G1 X162.95 Y56.27 E20.14099
G1 X163.31 Y56.43 E20.15738
G1 X163.66 Y56.62 E20.17401
G1 X163.99 Y56.83 E20.19051
G1 X164.32 Y57.06 E20.20695
G1 X164.62 Y57.32 E20.22340
G1 X165.27 Y57.92 E20.26022
G1 X165.63 Y58.22 E20.27972
G1 X166.03 Y58.51 E20.30027
G1 X166.44 Y58.77 E20.32048
G1 X166.86 Y58.99 E20.34023
G1 X167.30 Y59.20 E20.36053
G1 X167.76 Y59.37 E20.38104
G1 X168.23 Y59.52 E20.40127
G1 X168.67 Y59.63 E20.42027
G1 X169.71 Y59.78 E20.46380
G1 X170.16 Y59.80 E20.48266
G1 X170.66 Y59.80 E20.50332
G1 X171.16 Y59.76 E20.52409
G1 X171.66 Y59.69 E20.54529
G1 X172.14 Y59.59 E20.56544
G1 X172.62 Y59.46 E20.58636
G1 X173.10 Y59.30 E20.60733
G1 X173.57 Y59.11 E20.62838
G1 X174.02 Y58.89 E20.64932
G1 X174.46 Y58.65 E20.67000
G1 X174.89 Y58.37 E20.69118
G1 X175.29 Y58.08 E20.71191
G1 X175.69 Y57.74 E20.73385
G1 X176.05 Y57.40 E20.75441
G1 X176.40 Y57.04 E20.77526
G1 X176.73 Y56.64 E20.79684
G1 X177.01 Y56.25 E20.81689
G1 X177.30 Y55.80 E20.83913
G1 X177.54 Y55.37 E20.85964
G1 X177.76 Y54.92 E20.88030
G1 X177.95 Y54.44 E20.90172
G1 X178.11 Y53.98 E20.92215
G1 X178.24 Y53.49 E20.94321
G1 X178.34 Y53.00 E20.96387
G1 X178.41 Y52.51 E20.98448
G1 X178.45 Y52.01 E21.00537
G1 X178.45 Y51.55 E21.02467
G1 X178.37 Y50.54 E21.06655
G1 X178.17 Y49.57 E21.10780
G1 X177.84 Y48.62 E21.14957
G1 X177.65 Y48.22 E21.16789
G1 X177.42 Y47.79 E21.18817
G1 X177.16 Y47.38 E21.20838
G1 X176.88 Y46.98 E21.22863
G1 X176.56 Y46.60 E21.24916
G1 X176.02 Y46.02 E21.28246
G1 X175.78 Y45.76 E21.29713
G1 X175.55 Y45.49 E21.31173
G1 X175.34 Y45.24 E21.32537
G1 X175.13 Y44.95 E21.34026
G1 X174.95 Y44.69 E21.35334
G1 X174.59 Y44.11 E21.38183
G1 X174.41 Y43.80 E21.39675
G1 X174.26 Y43.51 E21.41018
G1 X174.11 Y43.19 E21.42508
G1 X173.98 Y42.90 E21.43814
G1 X173.85 Y42.56 E21.45325
G1 X173.73 Y42.26 E21.46664
G1 X173.64 Y41.95 E21.47998
G1 X173.53 Y41.61 E21.49480
G1 X173.45 Y41.27 E21.50965
G1 X173.37 Y40.95 E21.52326
G1 X173.31 Y40.63 E21.53690
G1 X173.25 Y40.28 E21.55151
G1 X173.21 Y39.92 E21.56641
G1 X173.17 Y39.61 E21.57971
G1 X173.16 Y39.28 E21.59333
G1 X173.14 Y38.92 E21.60827
G1 X173.15 Y38.24 E21.63659
G1 X173.18 Y37.88 E21.65135
G1 X173.17 Y37.88 E21.65139
G1 X173.20 Y37.56 E21.66490
G1 X173.24 Y37.23 E21.67858
G1 X173.29 Y36.88 E21.69344
G1 X173.36 Y36.53 E21.70825
G1 X173.43 Y36.21 E21.72195
G1 X173.51 Y35.89 E21.73560
G1 X173.52 Y35.89 E21.73564
G1 X173.61 Y35.55 E21.75031
G1 X173.72 Y35.21 E21.76545
G1 X173.82 Y34.91 E21.77849
G1 X173.94 Y34.61 E21.79200
G1 X174.08 Y34.27 E21.80722
G1 X174.22 Y33.97 E21.82083
G1 X174.38 Y33.65 E21.83565
G1 X174.54 Y33.37 E21.84920
G1 X174.71 Y33.05 E21.86411
G1 X174.91 Y32.75 E21.87913
G1 X175.09 Y32.47 E21.89281
G1 X175.28 Y32.22 E21.90616
G1 X175.28 Y32.21 E21.90622
G1 X175.49 Y31.92 E21.92124
G1 X175.58 Y31.81 E21.92729
G1 X170.82 Y27.05 E22.20739
G1 X171.97 Y25.44 E22.28970
G1 X172.02 Y25.36 E22.29375
G1 X172.09 Y25.23 E22.29959
G1 X172.13 Y25.14 E22.30368
G1 X172.18 Y25.02 E22.30925
G1 X172.21 Y24.91 E22.31398
G1 X172.24 Y24.79 E22.31928
G1 X172.26 Y24.68 E22.32362
G1 X172.27 Y24.54 E22.32980
G1 X172.28 Y24.42 E22.33471
G1 X172.27 Y24.29 E22.33983
G1 X172.26 Y24.16 E22.34550
G1 X172.24 Y24.03 E22.35097
G1 X172.22 Y23.91 E22.35620
G1 X172.18 Y23.77 E22.36220
G1 X172.13 Y23.65 E22.36753
G1 X172.08 Y23.51 E22.37342
G1 X172.02 Y23.40 E22.37894
G1 X171.94 Y23.26 E22.38544
G1 X171.88 Y23.16 E22.39049
G1 X171.78 Y23.03 E22.39729
G1 X171.70 Y22.93 E22.40275
G1 X171.59 Y22.81 E22.40925
G1 X170.70 Y21.93 E22.46132
G1 X170.62 Y21.87 E22.46545
G1 X170.49 Y21.77 E22.47225
G1 X170.39 Y21.70 E22.47736
G1 X170.26 Y21.63 E22.48341
G1 X170.13 Y21.56 E22.48977
G1 X170.01 Y21.51 E22.49516
G1 X169.88 Y21.47 E22.50050
G1 X169.74 Y21.43 E22.50689
G1 X169.62 Y21.41 E22.51178
G1 X169.49 Y21.39 E22.51725
G1 X169.35 Y21.37 E22.52292
G1 X169.27 Y21.37 E22.52646
G1 X169.01 Y21.39 E22.53717
G1 X168.59 Y21.49 E22.55519
G1 X168.40 Y21.57 E22.56360
G1 X168.20 Y21.68 E22.57325
G1 X168.03 Y21.81 E22.58214
G1 X167.66 Y22.19 E22.60434
G1 X167.13 Y22.88 E22.64034
G1 X166.96 Y23.16 E22.65411
G1 X166.56 Y23.97 E22.69167
G1 X166.44 Y24.31 E22.70645
G1 X166.21 Y25.15 E22.74269
G1 X166.09 Y26.03 E22.77961
G1 X166.08 Y26.42 E22.79575
G1 X166.09 Y26.84 E22.81355
G1 X166.11 Y27.08 E22.82336
G1 X166.13 Y27.27 E22.83141
G1 X166.16 Y27.49 E22.84041
G1 X166.16 Y27.49 E22.84045
G1 X166.19 Y27.71 E22.84992
G1 X166.24 Y27.95 E22.85994
G1 X166.28 Y28.14 E22.86815
G1 X166.35 Y28.36 E22.87757
G1 X166.78 Y30.01 E22.94838
G1 X164.64 Y31.33 E23.05302
G1 X163.43 Y31.91 E23.10873
G1 X162.47 Y32.25 E23.15124
G1 X161.44 Y32.52 E23.19507
G1 X160.14 Y32.70 E23.24986
G1 X158.93 Y32.75 E23.30030
G1 X158.43 Y32.80 E23.32115
G1 X157.94 Y32.89 E23.34183
G1 X157.44 Y33.01 E23.36297
G1 X156.98 Y33.14 E23.38299
G1 X156.49 Y33.33 E23.40477
G1 X156.05 Y33.52 E23.42495
G1 X155.59 Y33.76 E23.44641
G1 X155.19 Y34.00 E23.46573
G1 X154.32 Y34.64 E23.51086
G1 X153.96 Y34.95 E23.53045
G1 X153.60 Y35.31 E23.55153
G1 X153.27 Y35.69 E23.57256
G1 X152.96 Y36.09 E23.59376
G1 X152.67 Y36.51 E23.61469
G1 X152.41 Y36.94 E23.63548
G1 X152.17 Y37.40 E23.65722
G1 X151.97 Y37.85 E23.67755
G1 X151.79 Y38.33 E23.69889
G1 X151.66 Y38.77 E23.71813
G1 X151.46 Y39.78 E23.76089
G1 X151.38 Y40.80 E23.80321
G1 X151.39 Y41.27 E23.82271
G1 X151.39 Y41.28 E23.82342
G1 X151.42 Y41.61 E23.83710
G1 X151.43 Y42.04 E23.85502
G1 X151.37 Y42.80 E23.88650
G1 X151.20 Y43.61 E23.92090
G1 X150.81 Y44.65 E23.96737
G1 X150.43 Y45.35 E24.00031
G1 X150.14 Y45.76 E24.02106
G1 X149.48 Y46.51 E24.06285
G1 X149.37 Y46.61 E24.06906
G1 X132.50 Y63.48 E25.06074
G1 X123.66 Y54.64 E25.58038
G0 F9000 X124.37 Y54.64
G1 F3000 X138.26 Y40.75 E26.39724
G1 X138.27 Y40.53 E26.40639
G1 X138.32 Y39.52 E26.44834
G1 X138.35 Y39.21 E26.46126
G1 X138.46 Y38.21 E26.50329
G1 X138.63 Y37.21 E26.54546
G1 X138.68 Y36.90 E26.55850
G1 X138.76 Y36.60 E26.57136
G1 X138.99 Y35.61 E26.61334
G1 X139.28 Y34.64 E26.65564
G1 X139.37 Y34.34 E26.66871
G1 X139.48 Y34.05 E26.68155
G1 X139.48 Y34.05 E26.68160
G1 X139.83 Y33.10 E26.72373
G1 X140.24 Y32.17 E26.76606
G1 X140.37 Y31.88 E26.77897
G1 X140.51 Y31.61 E26.79193
G1 X140.98 Y30.70 E26.83429
G1 X141.67 Y29.56 E26.88970
G1 X142.42 Y28.46 E26.94505
G1 X143.24 Y27.41 E27.00044
G1 X143.45 Y27.18 E27.01343
G1 X144.12 Y26.41 E27.05575
G1 X145.07 Y25.47 E27.11131
G1 X145.83 Y24.79 E27.15375
G1 X146.07 Y24.59 E27.16666
G1 X147.11 Y23.77 E27.22195
G1 X148.21 Y23.02 E27.27739
G1 X148.48 Y22.86 E27.29022
G1 X149.35 Y22.33 E27.33264
G1 X150.26 Y21.86 E27.37494
G1 X150.53 Y21.72 E27.38787
G1 X150.82 Y21.59 E27.40080
G1 X151.75 Y21.18 E27.44318
G1 X152.70 Y20.83 E27.48549
G1 X152.99 Y20.72 E27.49839
G1 X153.29 Y20.63 E27.51124
G1 X154.26 Y20.33 E27.55352
G1 X155.55 Y20.03 E27.60870
G1 X155.85 Y19.98 E27.62143
G1 X155.93 Y19.97 E27.62447
G1 X155.99 Y19.67 E27.63702
G1 X156.22 Y18.82 E27.67353
G1 X156.50 Y17.99 E27.71000
G1 X156.83 Y17.18 E27.74652
G1 X157.21 Y16.39 E27.78309
G1 X157.63 Y15.62 E27.81958
G1 X158.13 Y14.85 E27.85743
G1 X159.18 Y13.51 E27.92837
G1 X159.82 Y12.82 E27.96734
G1 X161.10 Y11.69 E28.03829
G1 X161.83 Y11.16 E28.07607
G1 X162.57 Y10.68 E28.11260
G1 X163.34 Y10.25 E28.14916
G1 X164.13 Y9.87 E28.18577
G1 X164.94 Y9.54 E28.22221
G1 X165.78 Y9.26 E28.25872
G1 X166.62 Y9.03 E28.29526
G1 X167.48 Y8.86 E28.33163
G1 X168.35 Y8.74 E28.36802
G1 X169.22 Y8.67 E28.40442
G1 X170.10 Y8.66 E28.44084
G1 X171.00 Y8.71 E28.47844
G1 X172.67 Y8.95 E28.54844
G1 X173.54 Y9.16 E28.58580
G1 X174.37 Y9.43 E28.62197
G1 X175.18 Y9.74 E28.65802
G1 X175.96 Y10.10 E28.69396
G1 X176.73 Y10.51 E28.73014
G1 X177.46 Y10.97 E28.76618
G1 X178.17 Y11.48 E28.80225
G1 X178.84 Y12.03 E28.83831
G1 X179.47 Y12.62 E28.87434
G1 X180.06 Y13.25 E28.91031
G1 X180.61 Y13.92 E28.94644
G1 X181.12 Y14.63 E28.98248
G1 X181.58 Y15.36 E29.01852
G1 X181.99 Y16.12 E29.05453
G1 X182.36 Y16.91 E29.09066
G1 X182.67 Y17.73 E29.12682
G1 X182.93 Y18.55 E29.16295
G1 X183.14 Y19.40 E29.19916
G1 X183.29 Y20.26 E29.23539
G1 X183.39 Y21.13 E29.27167
G1 X183.43 Y22.00 E29.30801
G1 X183.42 Y22.88 E29.34451
G1 X183.35 Y23.75 E29.38087
G1 X183.23 Y24.61 E29.41723
G1 X183.06 Y25.47 E29.45363
G1 X182.83 Y26.32 E29.49009
G1 X182.55 Y27.15 E29.52663
G1 X182.22 Y27.97 E29.56318
G1 X181.84 Y28.75 E29.59951
G1 X181.41 Y29.52 E29.63610
G1 X181.40 Y29.53 E29.63655
G1 X181.76 Y29.57 E29.65137
G1 X182.12 Y29.64 E29.66665
G1 X182.47 Y29.72 E29.68177
G1 X182.82 Y29.83 E29.69675
G1 X183.16 Y29.96 E29.71195
G1 X183.49 Y30.11 E29.72714
G1 X183.81 Y30.29 E29.74237
G1 X184.11 Y30.48 E29.75724
G1 X184.41 Y30.69 E29.77241
G1 X184.69 Y30.93 E29.78777
G1 X184.94 Y31.16 E29.80168
G1 X185.69 Y31.90 E29.84554
G1 X185.91 Y32.15 E29.85946
