;Generated with Cura_SteamEngine 13.12
M140 S100.000000
M109 T0 S255.000000
T0
M190 S100.000000
;Sliced at: Mon 03-03-2014 22:29:18
;Basic settings: Layer height: 0.2 Walls: 1 Fill: 20
;Print time: #P_TIME#
;Filament used: #F_AMNT#m #F_WGHT#g
;Filament cost: #F_COST#
;M190 S100 ;Uncomment to add your own bed temperature line
;M109 S255 ;Uncomment to add your own temperature line
G21        ;metric values
G90        ;absolute positioning
M107       ;start with the fan off
G28 X0 Y0  ;move X/Y to min endstops
G28 Z0     ;move Z to min endstops
G1 Z15.0 F9000 ;move the platform down 15mm
G92 E0                  ;zero the extruded length
G1 F200 E3              ;extrude 3mm of feed stock
G92 E0                  ;zero the extruded length again
G1 F9000
;Put printing message on LCD screen
M117 Printing...

;Layer count: 50
;LAYER:0
M107
G0 F9000 X83.98 Y82.98 Z0.20
;TYPE:SKIRT
G1 F1200 E0.00000
G1 F3000 X86.52 Y80.43 E0.14946
G1 X89.22 Y78.06 E0.29889
G1 X92.06 Y75.85 E0.44838
G1 X95.03 Y73.83 E0.59787
G1 X98.13 Y72.00 E0.74729
G1 X101.33 Y70.37 E0.89671
G1 X104.63 Y68.94 E1.04620
G1 X108.01 Y67.72 E1.19565
G1 X111.46 Y66.72 E1.34509
G1 X114.97 Y65.94 E1.49458
G1 X115.52 Y65.85 E1.51785
G1 X115.53 Y65.83 E1.51877
G1 X115.76 Y64.60 E1.57083
G1 X116.15 Y63.41 E1.62290
G1 X116.43 Y62.75 E1.65266
G1 X117.02 Y61.69 E1.70319
G1 X117.40 Y61.12 E1.73148
G1 X117.82 Y60.59 E1.75975
G1 X118.67 Y59.67 E1.81178
G1 X119.64 Y58.88 E1.86381
G1 X120.20 Y58.49 E1.89206
G1 X120.78 Y58.15 E1.92028
G1 X121.92 Y57.61 E1.97239
G1 X123.14 Y57.22 E2.02598
G1 X124.37 Y56.98 E2.07795
G1 X125.05 Y56.92 E2.10627
G1 X125.69 Y56.90 E2.13302
G1 X126.37 Y56.92 E2.16122
G1 X127.58 Y57.07 E2.21188
G1 X128.28 Y57.23 E2.24162
G1 X129.47 Y57.61 E2.29364
G1 X130.60 Y58.15 E2.34570
G1 X131.22 Y58.51 E2.37545
G1 X132.23 Y59.25 E2.42753
G1 X133.14 Y60.10 E2.47959
G1 X133.62 Y60.64 E2.50934
G1 X134.33 Y61.62 E2.55988
G1 X134.69 Y62.24 E2.58962
G1 X135.23 Y63.37 E2.64168
G1 X135.63 Y64.60 E2.69527
G1 X135.86 Y65.83 E2.74724
G1 X135.86 Y65.85 E2.74820
G1 X136.41 Y65.94 E2.77152
G1 X139.92 Y66.72 E2.92101
G1 X143.38 Y67.72 E3.07045
G1 X146.76 Y68.94 E3.21990
G1 X150.06 Y70.37 E3.36939
G1 X153.26 Y72.00 E3.51885
G1 X156.35 Y73.83 E3.66826
G1 X159.33 Y75.85 E3.81775
G1 X162.17 Y78.06 E3.96721
G1 X164.87 Y80.43 E4.11667
G1 X167.41 Y82.98 E4.26613
G1 X169.79 Y85.67 E4.41559
G1 X171.99 Y88.51 E4.56503
G1 X174.01 Y91.49 E4.71451
G1 X175.84 Y94.58 E4.86400
G1 X177.47 Y97.78 E5.01340
G1 X178.90 Y101.08 E5.16281
G1 X180.12 Y104.47 E5.31234
G1 X181.12 Y107.92 E5.46174
G1 X181.90 Y111.42 E5.61119
G1 X182.47 Y114.97 E5.76066
G1 X182.80 Y118.55 E5.91013
G1 X182.92 Y122.15 E6.05975
G1 X182.79 Y125.95 E6.21766
G1 X182.43 Y129.52 E6.36709
G1 X181.86 Y133.07 E6.51656
G1 X181.06 Y136.58 E6.66601
G1 X180.05 Y140.02 E6.81535
G1 X179.52 Y141.48 E6.87960
G1 X179.52 Y141.48 E6.87975
G1 X180.50 Y142.32 E6.93331
G1 X181.34 Y143.25 E6.98532
G1 X181.74 Y143.79 E7.01352
G1 X182.09 Y144.34 E7.04043
G1 X182.41 Y144.90 E7.06717
G1 X182.69 Y145.48 E7.09388
G1 X182.93 Y146.07 E7.12073
G1 X183.15 Y146.72 E7.14893
G1 X183.43 Y147.90 E7.19950
G1 X183.52 Y148.58 E7.22778
G1 X183.57 Y149.22 E7.25455
G1 X183.57 Y149.91 E7.28332
G1 X183.47 Y151.12 E7.33393
G1 X183.34 Y151.82 E7.36360
G1 X183.00 Y153.03 E7.41563
G1 X182.52 Y154.19 E7.46774
G1 X182.19 Y154.78 E7.49598
G1 X181.84 Y155.36 E7.52417
G1 X181.08 Y156.36 E7.57624
G1 X180.20 Y157.25 E7.62837
G1 X179.65 Y157.71 E7.65812
G1 X178.63 Y158.42 E7.71013
G1 X177.51 Y159.00 E7.76216
G1 X176.85 Y159.27 E7.79179
G1 X175.67 Y159.63 E7.84344
G1 X174.43 Y159.84 E7.89555
G1 X173.75 Y159.89 E7.92377
G1 X173.06 Y159.90 E7.95254
G1 X171.85 Y159.79 E8.00315
G1 X171.15 Y159.66 E8.03282
G1 X169.93 Y159.32 E8.08524
G1 X169.38 Y159.09 E8.11041
G1 X167.26 Y161.47 E8.24288
G1 X164.71 Y164.00 E8.39234
G1 X162.01 Y166.37 E8.54172
G1 X159.16 Y168.56 E8.69119
G1 X156.18 Y170.57 E8.84065
G1 X153.08 Y172.38 E8.98987
G1 X150.05 Y173.93 E9.13105
G1 X146.56 Y175.42 E9.28899
G1 X143.18 Y176.63 E9.43840
G1 X139.72 Y177.62 E9.58784
G1 X136.21 Y178.39 E9.73729
G1 X132.66 Y178.94 E9.88660
G1 X129.29 Y179.26 E10.02759
G1 X125.69 Y179.37 E10.17720
G1 X121.89 Y179.24 E10.33508
G1 X118.31 Y178.89 E10.48459
G1 X114.77 Y178.31 E10.63398
G1 X111.26 Y177.52 E10.78347
G1 X107.82 Y176.50 E10.93274
G1 X104.62 Y175.35 E11.07382
G1 X101.14 Y173.83 E11.23180
G1 X97.95 Y172.19 E11.38122
G1 X94.86 Y170.35 E11.53062
G1 X91.90 Y168.32 E11.67989
G1 X89.21 Y166.24 E11.82109
G1 X86.37 Y163.72 E11.97894
G1 X83.84 Y161.17 E12.12831
G1 X82.02 Y159.09 E12.24344
G1 X81.42 Y159.34 E12.27014
G1 X80.19 Y159.68 E12.32322
G1 X78.95 Y159.86 E12.37534
G1 X78.27 Y159.90 E12.40393
G1 X77.59 Y159.89 E12.43217
G1 X76.38 Y159.76 E12.48280
G1 X75.67 Y159.62 E12.51257
G1 X74.47 Y159.25 E12.56467
G1 X73.30 Y158.73 E12.61812
G1 X72.20 Y158.06 E12.67172
G1 X71.19 Y157.26 E12.72527
G1 X70.31 Y156.36 E12.77740
G1 X69.89 Y155.83 E12.80558
G1 X69.50 Y155.28 E12.83373
G1 X68.87 Y154.19 E12.88588
G1 X68.37 Y153.01 E12.93939
G1 X68.03 Y151.78 E12.99247
G1 X67.85 Y150.54 E13.04450
G1 X67.81 Y149.86 E13.07273
G1 X67.82 Y149.22 E13.09950
G1 X67.87 Y148.54 E13.12773
G1 X68.07 Y147.34 E13.17832
G1 X68.26 Y146.65 E13.20810
G1 X68.69 Y145.48 E13.26016
G1 X69.27 Y144.37 E13.31217
G1 X69.66 Y143.77 E13.34195
G1 X70.44 Y142.79 E13.39401
G1 X71.36 Y141.88 E13.44755
G1 X71.88 Y141.49 E13.47446
G1 X71.21 Y139.63 E13.55662
G1 X70.22 Y136.18 E13.70613
G1 X69.45 Y132.66 E13.85555
G1 X68.90 Y129.12 E14.00485
G1 X68.58 Y125.74 E14.14584
G1 X68.47 Y122.15 E14.29529
G1 X68.58 Y118.55 E14.44474
G1 X68.92 Y114.97 E14.59421
G1 X69.48 Y111.42 E14.74368
G1 X70.27 Y107.92 E14.89313
G1 X71.27 Y104.47 E15.04253
G1 X72.49 Y101.08 E15.19206
G1 X73.92 Y97.78 E15.34147
G1 X75.55 Y94.58 E15.49087
G1 X77.38 Y91.49 E15.64036
G1 X79.40 Y88.51 E15.78982
G1 X81.60 Y85.67 E15.93931
G1 X83.98 Y82.98 E16.08874
G0 F9000 X84.34 Y83.32
G1 F3000 X86.86 Y80.80 E16.23685
G1 X89.54 Y78.44 E16.38501
G1 X92.35 Y76.26 E16.53319
G1 X95.30 Y74.25 E16.68135
G1 X98.37 Y72.44 E16.82946
G1 X101.54 Y70.82 E16.97757
G1 X104.81 Y69.41 E17.12576
G1 X108.16 Y68.20 E17.27392
G1 X111.59 Y67.21 E17.42207
G1 X115.06 Y66.43 E17.57024
G1 X115.99 Y66.28 E17.60901
G1 X116.02 Y65.90 E17.62501
G1 X116.25 Y64.72 E17.67478
G1 X116.61 Y63.58 E17.72456
G1 X116.88 Y62.97 E17.75238
G1 X117.44 Y61.95 E17.80096
G1 X117.80 Y61.42 E17.82760
G1 X118.20 Y60.91 E17.85418
G1 X119.02 Y60.04 E17.90398
G1 X119.94 Y59.27 E17.95373
G1 X120.47 Y58.91 E17.98033
G1 X121.02 Y58.59 E18.00692
G1 X122.10 Y58.08 E18.05676
G1 X123.27 Y57.70 E18.10773
G1 X124.44 Y57.48 E18.15742
G1 X125.08 Y57.42 E18.18406
G1 X125.69 Y57.40 E18.20952
G1 X126.33 Y57.42 E18.23610
G1 X127.49 Y57.56 E18.28479
G1 X128.14 Y57.71 E18.31253
G1 X129.28 Y58.08 E18.36228
G1 X130.37 Y58.59 E18.41209
G1 X130.94 Y58.93 E18.43986
G1 X131.91 Y59.63 E18.48965
G1 X132.78 Y60.45 E18.53939
G1 X133.22 Y60.95 E18.56720
G1 X133.91 Y61.90 E18.61577
G1 X134.25 Y62.47 E18.64354
G1 X134.76 Y63.56 E18.69335
G1 X135.14 Y64.72 E18.74432
G1 X135.36 Y65.90 E18.79401
G1 X135.40 Y66.28 E18.81004
G1 X136.32 Y66.43 E18.84881
G1 X139.80 Y67.21 E18.99698
G1 X143.22 Y68.20 E19.14514
G1 X146.57 Y69.41 E19.29329
G1 X149.85 Y70.82 E19.44148
G1 X153.02 Y72.44 E19.58964
G1 X156.09 Y74.25 E19.73774
G1 X159.03 Y76.26 E19.88592
G1 X161.85 Y78.44 E20.03405
G1 X164.52 Y80.80 E20.18224
G1 X167.04 Y83.32 E20.33035
G1 X169.40 Y85.99 E20.47852
G1 X171.58 Y88.81 E20.62665
G1 X173.59 Y91.75 E20.77482
G1 X175.40 Y94.82 E20.92300
G1 X177.02 Y98.00 E21.07109
G1 X178.43 Y101.27 E21.21921
G1 X179.64 Y104.62 E21.36740
G1 X180.63 Y108.04 E21.51551
G1 X181.41 Y111.52 E21.66369
G1 X181.97 Y115.04 E21.81185
G1 X182.30 Y118.58 E21.95997
G1 X182.42 Y122.15 E22.10826
G1 X182.29 Y125.91 E22.26485
G1 X181.94 Y129.46 E22.41298
G1 X181.37 Y132.98 E22.56110
G1 X180.58 Y136.45 E22.70927
G1 X179.57 Y139.87 E22.85731
G1 X178.92 Y141.68 E22.93729
G1 X179.22 Y141.88 E22.95240
G1 X180.15 Y142.68 E23.00331
G1 X180.95 Y143.57 E23.05306
G1 X181.33 Y144.08 E23.07966
G1 X181.66 Y144.60 E23.10523
G1 X181.97 Y145.13 E23.13066
G1 X182.23 Y145.68 E23.15606
G1 X182.46 Y146.25 E23.18161
G1 X182.67 Y146.85 E23.20819
G1 X182.94 Y147.99 E23.25684
G1 X183.02 Y148.63 E23.28344
G1 X183.07 Y149.24 E23.30891
G1 X183.07 Y149.89 E23.33602
G1 X182.97 Y151.06 E23.38463
G1 X182.85 Y151.71 E23.41240
G1 X182.53 Y152.87 E23.46214
G1 X182.07 Y153.97 E23.51194
G1 X181.76 Y154.53 E23.53858
G1 X181.43 Y155.08 E23.56515
G1 X180.70 Y156.03 E23.61490
G1 X179.86 Y156.88 E23.66473
G1 X179.35 Y157.31 E23.69252
G1 X178.37 Y158.00 E23.74224
G1 X177.31 Y158.55 E23.79199
G1 X176.69 Y158.80 E23.81968
G1 X175.55 Y159.14 E23.86907
G1 X174.37 Y159.34 E23.91886
G1 X173.73 Y159.39 E23.94546
G1 X173.08 Y159.40 E23.97256
G1 X171.91 Y159.30 E24.02117
G1 X171.26 Y159.18 E24.04894
G1 X170.10 Y158.85 E24.09897
G1 X169.24 Y158.48 E24.13782
G1 X166.90 Y161.12 E24.28460
G1 X164.37 Y163.63 E24.43277
G1 X161.69 Y165.98 E24.58085
G1 X158.86 Y168.15 E24.72899
G1 X155.91 Y170.15 E24.87715
G1 X152.84 Y171.95 E25.02513
G1 X149.84 Y173.47 E25.16499
G1 X146.38 Y174.96 E25.32157
G1 X143.02 Y176.15 E25.46970
G1 X139.60 Y177.13 E25.61784
G1 X136.12 Y177.90 E25.76597
G1 X132.60 Y178.44 E25.91397
G1 X129.25 Y178.76 E26.05370
G1 X125.69 Y178.87 E26.20199
G1 X121.93 Y178.74 E26.35853
G1 X118.38 Y178.39 E26.50671
G1 X114.86 Y177.82 E26.65480
G1 X111.39 Y177.03 E26.80300
G1 X107.97 Y176.03 E26.95097
G1 X104.81 Y174.89 E27.09078
G1 X101.36 Y173.38 E27.24738
G1 X98.19 Y171.75 E27.39550
G1 X95.13 Y169.93 E27.54363
G1 X92.19 Y167.91 E27.69165
G1 X89.53 Y165.85 E27.83150
G1 X86.72 Y163.35 E27.98803
G1 X84.21 Y160.82 E28.13611
G1 X82.15 Y158.49 E28.26549
G1 X81.26 Y158.86 E28.30582
G1 X80.09 Y159.19 E28.35632
G1 X78.90 Y159.36 E28.40612
G1 X78.26 Y159.40 E28.43309
G1 X77.62 Y159.39 E28.45970
G1 X76.45 Y159.26 E28.50837
G1 X75.80 Y159.13 E28.53615
G1 X74.65 Y158.79 E28.58594
G1 X73.53 Y158.29 E28.63680
G1 X72.48 Y157.65 E28.68781
G1 X71.53 Y156.89 E28.73872
G1 X70.69 Y156.03 E28.78853
G1 X70.29 Y155.53 E28.81511
G1 X69.92 Y155.01 E28.84168
G1 X69.32 Y153.97 E28.89148
G1 X68.85 Y152.84 E28.94237
G1 X68.52 Y151.67 E28.99287
G1 X68.35 Y150.49 E29.04259
G1 X68.31 Y149.85 E29.06919
G1 X68.32 Y149.24 E29.09468
G1 X68.37 Y148.60 E29.12127
G1 X68.56 Y147.45 E29.16992
G1 X68.73 Y146.80 E29.19769
G1 X69.15 Y145.68 E29.24747
G1 X69.71 Y144.62 E29.29723
G1 X70.07 Y144.06 E29.32500
G1 X70.81 Y143.12 E29.37477
G1 X71.69 Y142.26 E29.42572
G1 X72.47 Y141.67 E29.46656
G1 X71.69 Y139.48 E29.56329
G1 X70.71 Y136.05 E29.71149
G1 X69.94 Y132.57 E29.85960
G1 X69.40 Y129.05 E30.00763
G1 X69.08 Y125.71 E30.14732
G1 X68.97 Y122.15 E30.29549
G1 X69.08 Y118.58 E30.44365
G1 X69.42 Y115.04 E30.59177
G1 X69.97 Y111.52 E30.73994
G1 X70.75 Y108.04 E30.88811
G1 X71.75 Y104.62 E31.03622
G1 X72.95 Y101.27 E31.18442
G1 X74.37 Y98.00 E31.33253
G1 X75.99 Y94.82 E31.48063
G1 X77.80 Y91.75 E31.62881
G1 X79.80 Y88.81 E31.77695
G1 X81.99 Y85.99 E31.92511
G1 X84.34 Y83.32 E32.07328
G0 F9000 X84.71 Y83.66
G1 F3000 X87.21 Y81.16 E32.22015
G1 X89.86 Y78.83 E32.36699
G1 X92.65 Y76.66 E32.51384
G1 X95.57 Y74.68 E32.66070
G1 X98.61 Y72.88 E32.80751
G1 X101.75 Y71.28 E32.95432
G1 X105.00 Y69.87 E33.10123
G1 X108.32 Y68.68 E33.24806
G1 X111.71 Y67.69 E33.39487
G1 X115.16 Y66.92 E33.54176
G1 X116.46 Y66.71 E33.59636
G1 X116.46 Y66.57 E33.60243
G1 X116.52 Y65.97 E33.62740
G1 X116.73 Y64.85 E33.67494
G1 X117.08 Y63.76 E33.72240
G1 X117.33 Y63.19 E33.74827
G1 X117.87 Y62.21 E33.79488
G1 X118.21 Y61.71 E33.81988
G1 X118.58 Y61.24 E33.84485
G1 X119.36 Y60.40 E33.89235
G1 X120.24 Y59.67 E33.93984
G1 X120.74 Y59.34 E33.96477
G1 X121.25 Y59.03 E33.98977
G1 X122.29 Y58.54 E34.03728
G1 X123.39 Y58.19 E34.08562
G1 X124.51 Y57.97 E34.13306
G1 X125.11 Y57.91 E34.15808
G1 X125.69 Y57.90 E34.18220
G1 X126.29 Y57.91 E34.20716
G1 X127.41 Y58.06 E34.25389
G1 X128.01 Y58.19 E34.27967
G1 X129.10 Y58.54 E34.32713
G1 X130.13 Y59.03 E34.37465
G1 X130.67 Y59.35 E34.40045
G1 X131.59 Y60.02 E34.44795
G1 X132.42 Y60.80 E34.49542
G1 X132.83 Y61.27 E34.52128
G1 X133.49 Y62.17 E34.56789
G1 X133.81 Y62.71 E34.59369
G1 X134.30 Y63.74 E34.64121
G1 X134.65 Y64.85 E34.68954
G1 X134.87 Y65.97 E34.73699
G1 X134.93 Y66.57 E34.76200
G1 X134.93 Y66.71 E34.76808
G1 X136.23 Y66.92 E34.82271
G1 X139.68 Y67.69 E34.96961
G1 X143.07 Y68.68 E35.11642
G1 X146.39 Y69.87 E35.26325
G1 X149.63 Y71.28 E35.41015
G1 X152.78 Y72.88 E35.55701
G1 X155.82 Y74.68 E35.70381
G1 X158.74 Y76.66 E35.85067
G1 X161.53 Y78.83 E35.99749
G1 X164.18 Y81.16 E36.14436
G1 X166.68 Y83.66 E36.29124
G1 X169.01 Y86.31 E36.43807
G1 X171.18 Y89.10 E36.58490
G1 X173.16 Y92.02 E36.73175
G1 X174.96 Y95.06 E36.87863
G1 X176.57 Y98.21 E37.02543
G1 X177.97 Y101.45 E37.17222
G1 X179.16 Y104.77 E37.31913
G1 X180.15 Y108.17 E37.46593
G1 X180.92 Y111.61 E37.61278
G1 X181.47 Y115.10 E37.75961
G1 X181.81 Y118.62 E37.90648
G1 X181.92 Y122.15 E38.05340
G1 X181.79 Y125.88 E38.20865
G1 X181.44 Y129.40 E38.35545
G1 X180.88 Y132.88 E38.50231
G1 X180.09 Y136.32 E38.64911
G1 X179.10 Y139.71 E38.79590
G1 X178.31 Y141.88 E38.89153
G1 X178.92 Y142.28 E38.92169
G1 X179.80 Y143.04 E38.97001
G1 X180.56 Y143.88 E39.01746
G1 X180.92 Y144.37 E39.04245
G1 X181.24 Y144.86 E39.06668
G1 X181.52 Y145.36 E39.09080
G1 X181.77 Y145.88 E39.11492
G1 X181.99 Y146.42 E39.13912
G1 X182.19 Y146.99 E39.16408
G1 X182.44 Y148.09 E39.21076
G1 X182.52 Y148.68 E39.23573
G1 X182.57 Y149.26 E39.25991
G1 X182.57 Y149.87 E39.28535
G1 X182.48 Y150.99 E39.33200
G1 X182.37 Y151.60 E39.35778
G1 X182.06 Y152.70 E39.40527
G1 X181.62 Y153.75 E39.45277
G1 X181.33 Y154.28 E39.47777
G1 X181.01 Y154.79 E39.50271
G1 X180.32 Y155.70 E39.55021
G1 X179.52 Y156.52 E39.59772
G1 X179.04 Y156.92 E39.62354
G1 X178.11 Y157.57 E39.67098
G1 X177.10 Y158.09 E39.71844
G1 X176.52 Y158.33 E39.74421
G1 X175.44 Y158.66 E39.79128
G1 X174.31 Y158.85 E39.83880
G1 X173.71 Y158.89 E39.86377
G1 X173.10 Y158.90 E39.88922
G1 X171.98 Y158.80 E39.93587
G1 X171.37 Y158.69 E39.96165
G1 X170.27 Y158.38 E40.00935
G1 X169.10 Y157.88 E40.06196
G1 X169.09 Y157.87 E40.06263
G1 X168.88 Y158.14 E40.07693
G1 X166.53 Y160.78 E40.22362
G1 X164.03 Y163.27 E40.37049
G1 X161.37 Y165.59 E40.51728
G1 X158.57 Y167.75 E40.66412
G1 X155.64 Y169.72 E40.81096
G1 X152.60 Y171.51 E40.95766
G1 X149.63 Y173.02 E41.09622
G1 X146.20 Y174.49 E41.25148
G1 X142.87 Y175.68 E41.39830
G1 X139.48 Y176.65 E41.54509
G1 X136.03 Y177.41 E41.69194
G1 X132.54 Y177.95 E41.83868
G1 X129.22 Y178.26 E41.97712
G1 X125.69 Y178.37 E42.12408
G1 X121.96 Y178.24 E42.27929
G1 X118.44 Y177.90 E42.42613
G1 X114.96 Y177.33 E42.57296
G1 X111.51 Y176.55 E42.71979
G1 X108.13 Y175.55 E42.86654
G1 X104.99 Y174.42 E43.00504
G1 X101.57 Y172.93 E43.16031
G1 X98.43 Y171.31 E43.30711
G1 X95.40 Y169.50 E43.45392
G1 X92.49 Y167.51 E43.60069
G1 X89.85 Y165.47 E43.73924
G1 X87.06 Y162.99 E43.89439
G1 X84.57 Y160.48 E44.04120
G1 X82.33 Y157.93 E44.18252
G1 X82.28 Y157.87 E44.18563
G1 X82.17 Y157.94 E44.19103
G1 X81.09 Y158.39 E44.23958
G1 X79.98 Y158.70 E44.28748
G1 X78.85 Y158.86 E44.33501
G1 X78.25 Y158.90 E44.36032
G1 X77.64 Y158.89 E44.38531
G1 X76.53 Y158.77 E44.43201
G1 X75.92 Y158.65 E44.45780
G1 X74.83 Y158.32 E44.50534
G1 X73.77 Y157.84 E44.55356
G1 X72.77 Y157.24 E44.60193
G1 X71.86 Y156.51 E44.65024
G1 X71.06 Y155.70 E44.69775
G1 X70.69 Y155.23 E44.72268
G1 X70.34 Y154.74 E44.74766
G1 X69.77 Y153.75 E44.79516
G1 X69.32 Y152.68 E44.84344
G1 X69.01 Y151.57 E44.89134
G1 X68.84 Y150.44 E44.93879
G1 X68.81 Y149.84 E44.96377
G1 X68.82 Y149.26 E44.98793
G1 X68.86 Y148.66 E45.01290
G1 X69.05 Y147.55 E45.05957
G1 X69.21 Y146.95 E45.08540
G1 X69.61 Y145.88 E45.13291
G1 X70.14 Y144.87 E45.18033
G1 X70.48 Y144.35 E45.20618
G1 X71.19 Y143.46 E45.25365
G1 X72.02 Y142.64 E45.30198
G1 X72.95 Y141.94 E45.35049
G1 X73.07 Y141.87 E45.35656
G1 X72.17 Y139.33 E45.46867
G1 X71.19 Y135.93 E45.61553
G1 X70.43 Y132.48 E45.76235
G1 X69.89 Y128.99 E45.90913
G1 X69.58 Y125.68 E46.04752
G1 X69.47 Y122.15 E46.19440
G1 X69.58 Y118.62 E46.34123
G1 X69.91 Y115.10 E46.48810
