;Generated with Cura_SteamEngine 13.12
M140 S100.000000
M109 T0 S255.000000
T0
M190 S100.000000
;Sliced at: Sat 01-03-2014 23:08:05
;Basic settings: Layer height: 0.2 Walls: 0.5 Fill: 20
;Print time: #P_TIME#
;Filament used: #F_AMNT#m #F_WGHT#g
;Filament cost: #F_COST#
;M190 S100 ;Uncomment to add your own bed temperature line
;M109 S255 ;Uncomment to add your own temperature line
G21        ;metric values
G90        ;absolute positioning
M107       ;start with the fan off
G28 X0 Y0  ;move X/Y to min endstops
G28 Z0     ;move Z to min endstops
G1 Z15.0 F9000 ;move the platform down 15mm
G92 E0                  ;zero the extruded length
G1 F200 E3              ;extrude 3mm of feed stock
G92 E0                  ;zero the extruded length again
G1 F9000
;Put printing message on LCD screen
M117 Printing...

;Layer count: 700
;LAYER:0
M107
G0 F1800 X61.40 Y63.76 Z0.20
;TYPE:SKIRT
G1 F1200 E0.00000
G1 F1800 X66.25 Y59.20 E0.27665
G1 X71.62 Y55.29 E0.55295
G1 X77.45 Y52.09 E0.82943
G1 X83.64 Y49.64 E1.10607
G1 X90.08 Y47.98 E1.38258
G1 X96.67 Y47.15 E1.65903
G1 X103.33 Y47.15 E1.93551
G1 X109.92 Y47.98 E2.21196
G1 X116.36 Y49.64 E2.48847
G1 X122.55 Y52.09 E2.76491
G1 X128.37 Y55.29 E3.04118
G1 X133.75 Y59.20 E3.31769
G1 X137.17 Y62.41 E3.51273
G1 X136.04 Y65.25 E3.63995
G1 X132.60 Y65.25 E3.78301
G1 X130.43 Y63.21 E3.90693
G1 X125.58 Y59.69 E4.15602
G1 X120.33 Y56.80 E4.40541
G1 X114.75 Y54.59 E4.65474
G1 X108.95 Y53.10 E4.90383
G1 X103.00 Y52.35 E5.15304
G1 X97.00 Y52.35 E5.40258
G1 X91.05 Y53.10 E5.65180
G1 X85.25 Y54.59 E5.90093
G1 X79.67 Y56.80 E6.15032
G1 X74.41 Y59.69 E6.39970
G1 X69.56 Y63.22 E6.64906
G1 X65.20 Y67.32 E6.89804
G1 X61.37 Y71.94 E7.14732
G1 X58.16 Y77.00 E7.39668
G1 X55.61 Y82.43 E7.64594
G1 X53.75 Y88.13 E7.89535
G1 X52.63 Y94.01 E8.14420
G1 X52.26 Y100.00 E8.39369
G1 X52.63 Y105.99 E8.64318
G1 X53.75 Y111.87 E8.89213
G1 X55.61 Y117.58 E9.14149
G1 X58.16 Y123.00 E9.39070
G1 X61.37 Y128.06 E9.64001
G1 X65.19 Y132.68 E9.88929
G1 X69.56 Y136.79 E10.13850
G1 X74.41 Y140.31 E10.38760
G1 X79.67 Y143.20 E10.63701
G1 X85.25 Y145.41 E10.88662
G1 X91.05 Y146.90 E11.13576
G1 X97.00 Y147.65 E11.38497
G1 X103.00 Y147.65 E11.63434
G1 X108.95 Y146.90 E11.88355
G1 X114.75 Y145.41 E12.13282
G1 X120.33 Y143.20 E12.38197
G1 X125.58 Y140.31 E12.63130
G1 X130.43 Y136.79 E12.88038
G1 X132.60 Y134.75 E13.00447
G1 X136.04 Y134.75 E13.14753
G1 X137.17 Y137.59 E13.27470
G1 X133.75 Y140.80 E13.46968
G1 X128.37 Y144.71 E13.74618
G1 X122.55 Y147.91 E14.02252
G1 X116.36 Y150.36 E14.29912
G1 X109.92 Y152.02 E14.57546
G1 X103.33 Y152.85 E14.85191
G1 X96.67 Y152.85 E15.12856
G1 X90.07 Y152.01 E15.40506
G1 X83.63 Y150.36 E15.68152
G1 X77.45 Y147.91 E15.95793
G1 X71.62 Y144.71 E16.23443
G1 X66.24 Y140.80 E16.51094
G1 X61.40 Y136.25 E16.78736
G1 X57.16 Y131.12 E17.06387
G1 X53.60 Y125.51 E17.34019
G1 X50.76 Y119.49 E17.61682
G1 X48.71 Y113.17 E17.89312
G1 X47.46 Y106.64 E18.16959
G1 X47.05 Y100.00 E18.44606
G1 X47.46 Y93.36 E18.72254
G1 X48.71 Y86.83 E18.99901
G1 X50.77 Y80.51 E19.27548
G1 X53.60 Y74.49 E19.55194
G1 X57.16 Y68.88 E19.82821
G1 X61.40 Y63.76 E20.10472
G0 X61.76 Y64.10
G1 X66.56 Y59.59 E20.37875
G1 X71.89 Y55.72 E20.65243
G1 X77.66 Y52.54 E20.92629
G1 X83.79 Y50.11 E21.20035
G1 X90.17 Y48.48 E21.47419
G1 X96.71 Y47.65 E21.74808
G1 X103.29 Y47.65 E22.02190
G1 X109.83 Y48.48 E22.29580
G1 X116.21 Y50.11 E22.56964
G1 X122.33 Y52.54 E22.84344
G1 X128.10 Y55.71 E23.11711
G1 X133.43 Y59.58 E23.39100
G1 X136.58 Y62.54 E23.57062
G1 X135.70 Y64.75 E23.66959
G1 X132.80 Y64.75 E23.79028
G1 X130.75 Y62.83 E23.90714
G1 X125.85 Y59.26 E24.15910
G1 X120.54 Y56.34 E24.41102
G1 X114.91 Y54.12 E24.66288
G1 X109.04 Y52.61 E24.91468
G1 X103.03 Y51.85 E25.16645
G1 X96.97 Y51.85 E25.41860
G1 X90.96 Y52.61 E25.67046
G1 X85.09 Y54.12 E25.92239
G1 X79.46 Y56.35 E26.17402
G1 X74.15 Y59.27 E26.42613
G1 X69.24 Y62.83 E26.67811
G1 X64.82 Y66.98 E26.93021
G1 X60.97 Y71.64 E27.18141
G1 X57.72 Y76.76 E27.43358
G1 X55.14 Y82.25 E27.68586
G1 X53.27 Y88.00 E27.93727
G1 X52.13 Y93.95 E28.18910
G1 X51.75 Y100.00 E28.44113
G1 X52.13 Y106.05 E28.69316
G1 X53.27 Y112.00 E28.94499
G1 X55.14 Y117.76 E29.19689
G1 X57.72 Y123.24 E29.44835
G1 X60.97 Y128.36 E29.70080
G1 X64.82 Y133.02 E29.95200
G1 X69.25 Y137.17 E30.20433
G1 X74.14 Y140.73 E30.45608
G1 X79.46 Y143.65 E30.70819
G1 X85.09 Y145.88 E30.96004
G1 X90.96 Y147.39 E31.21201
G1 X96.97 Y148.15 E31.46378
G1 X103.03 Y148.15 E31.71581
G1 X109.04 Y147.39 E31.96758
G1 X114.91 Y145.88 E32.21955
G1 X120.54 Y143.66 E32.47124
G1 X125.85 Y140.74 E32.72311
G1 X130.75 Y137.18 E32.97507
G1 X132.80 Y135.25 E33.09207
G1 X135.71 Y135.25 E33.21281
G1 X136.58 Y137.46 E33.31170
G1 X133.43 Y140.42 E33.49127
G1 X128.10 Y144.29 E33.76512
G1 X122.33 Y147.46 E34.03889
G1 X116.21 Y149.89 E34.31286
G1 X109.83 Y151.52 E34.58653
G1 X103.29 Y152.35 E34.86043
G1 X96.70 Y152.35 E35.13441
G1 X90.17 Y151.52 E35.40831
G1 X83.79 Y149.88 E35.68215
G1 X77.66 Y147.46 E35.95598
G1 X71.89 Y144.29 E36.22986
G1 X66.56 Y140.41 E36.50375
G1 X61.76 Y135.90 E36.77755
G1 X57.56 Y130.83 E37.05143
G1 X54.03 Y125.27 E37.32514
G1 X51.23 Y119.31 E37.59914
G1 X49.20 Y113.04 E37.87285
G1 X47.96 Y106.57 E38.14670
G1 X47.55 Y100.00 E38.42055
G1 X47.96 Y93.43 E38.69441
G1 X49.20 Y86.96 E38.96826
G1 X51.23 Y80.69 E39.24213
G1 X54.03 Y74.73 E39.51597
G1 X57.56 Y69.17 E39.78963
G1 X61.76 Y64.10 E40.06350
G0 X62.13 Y64.44
G1 X66.89 Y59.97 E40.33495
G1 X72.16 Y56.14 E40.60601
G1 X77.88 Y53.00 E40.87726
G1 X83.95 Y50.59 E41.14867
G1 X90.27 Y48.97 E41.41990
G1 X96.74 Y48.15 E41.69116
G1 X103.26 Y48.15 E41.96240
G1 X109.74 Y48.97 E42.23365
G1 X116.05 Y50.59 E42.50488
G1 X122.12 Y52.99 E42.77609
G1 X127.83 Y56.13 E43.04714
G1 X133.11 Y59.97 E43.31840
G1 X135.99 Y62.67 E43.48259
G1 X135.37 Y64.25 E43.55328
G1 X133.00 Y64.25 E43.65165
G1 X131.07 Y62.44 E43.76148
G1 X126.11 Y58.84 E44.01629
G1 X120.76 Y55.89 E44.27052
G1 X115.06 Y53.64 E44.52506
G1 X109.13 Y52.12 E44.77970
G1 X103.06 Y51.35 E45.03406
G1 X96.94 Y51.35 E45.28875
G1 X90.86 Y52.12 E45.54313
G1 X84.93 Y53.64 E45.79793
G1 X79.24 Y55.89 E46.05227
G1 X73.88 Y58.84 E46.30663
G1 X68.92 Y62.44 E46.56127
G1 X64.46 Y66.63 E46.81580
G1 X60.56 Y71.35 E47.07037
G1 X57.28 Y76.52 E47.32461
G1 X54.68 Y82.06 E47.57924
G1 X52.78 Y87.88 E47.83367
G1 X51.64 Y93.89 E48.08808
G1 X51.25 Y100.00 E48.34269
G1 X51.64 Y106.11 E48.59731
G1 X52.78 Y112.12 E48.85172
G1 X54.68 Y117.95 E49.10628
G1 X57.28 Y123.48 E49.36074
G1 X60.56 Y128.65 E49.61496
G1 X64.46 Y133.37 E49.86953
G1 X68.93 Y137.56 E50.12430
G1 X73.88 Y141.16 E50.37867
G1 X79.24 Y144.10 E50.63306
G1 X84.93 Y146.36 E50.88763
G1 X90.87 Y147.88 E51.14243
G1 X96.94 Y148.65 E51.39680
G1 X103.06 Y148.65 E51.65132
G1 X109.13 Y147.88 E51.90569
G1 X115.07 Y146.36 E52.16050
G1 X120.76 Y144.11 E52.41487
G1 X126.11 Y141.16 E52.66905
G1 X131.07 Y137.56 E52.92386
G1 X133.00 Y135.75 E53.03380
G1 X135.37 Y135.75 E53.13217
G1 X135.99 Y137.33 E53.20281
G1 X133.11 Y140.03 E53.36693
G1 X127.83 Y143.87 E53.63820
G1 X122.12 Y147.01 E53.90930
G1 X116.05 Y149.41 E54.18068
G1 X109.74 Y151.03 E54.45174
G1 X103.26 Y151.85 E54.72300
G1 X96.73 Y151.85 E54.99440
G1 X90.26 Y151.03 E55.26566
G1 X83.94 Y149.41 E55.53689
G1 X77.88 Y147.01 E55.80808
G1 X72.16 Y143.86 E56.07935
G1 X66.88 Y140.03 E56.35062
G1 X62.13 Y135.56 E56.62183
G1 X57.97 Y130.53 E56.89308
G1 X54.47 Y125.03 E57.16420
G1 X51.70 Y119.12 E57.43560
G1 X49.68 Y112.92 E57.70664
G1 X48.46 Y106.51 E57.97790
G1 X48.05 Y100.00 E58.24913
G1 X48.46 Y93.49 E58.52036
G1 X49.68 Y87.08 E58.79163
G1 X51.70 Y80.88 E59.06285
G1 X54.47 Y74.97 E59.33407
G1 X57.97 Y69.47 E59.60512
G1 X62.13 Y64.44 E59.87638
G0 X62.49 Y64.78
G1 X67.20 Y60.36 E60.14521
G1 X72.43 Y56.56 E60.41365
G1 X78.09 Y53.45 E60.68229
G1 X84.10 Y51.07 E60.95111
G1 X90.36 Y49.46 E61.21972
G1 X96.77 Y48.65 E61.48837
G1 X103.23 Y48.65 E61.75695
G1 X109.64 Y49.46 E62.02561
G1 X115.90 Y51.07 E62.29422
G1 X121.91 Y53.45 E62.56283
G1 X127.57 Y56.56 E62.83127
G1 X132.79 Y60.35 E63.09992
G1 X135.40 Y62.80 E63.24866
G1 X135.03 Y63.75 E63.29106
G1 X133.20 Y63.75 E63.36706
G1 X131.39 Y62.05 E63.47004
G1 X126.38 Y58.41 E63.72750
G1 X120.97 Y55.44 E63.98429
G1 X115.21 Y53.16 E64.24158
G1 X109.23 Y51.62 E64.49844
G1 X103.09 Y50.85 E64.75566
G1 X96.90 Y50.85 E65.01293
G1 X90.77 Y51.63 E65.27015
G1 X84.78 Y53.16 E65.52718
G1 X79.03 Y55.44 E65.78427
G1 X73.61 Y58.42 E66.04122
G1 X68.60 Y62.06 E66.29871
G1 X64.10 Y66.29 E66.55562
G1 X60.16 Y71.06 E66.81285
G1 X56.84 Y76.27 E67.06969
G1 X54.21 Y81.88 E67.32720
G1 X52.30 Y87.75 E67.58391
G1 X51.14 Y93.83 E67.84107
G1 X50.75 Y100.00 E68.09827
G1 X51.14 Y106.17 E68.35546
G1 X52.30 Y112.25 E68.61262
G1 X54.21 Y118.13 E68.86950
G1 X56.84 Y123.73 E69.12685
G1 X60.15 Y128.94 E69.38362
G1 X64.10 Y133.71 E69.64085
G1 X68.61 Y137.94 E69.89800
G1 X73.61 Y141.58 E70.15526
G1 X79.03 Y144.56 E70.41220
G1 X84.78 Y146.84 E70.66952
G1 X90.77 Y148.38 E70.92656
G1 X96.91 Y149.15 E71.18377
G1 X103.09 Y149.15 E71.44087
G1 X109.23 Y148.38 E71.69809
G1 X115.22 Y146.84 E71.95512
G1 X120.97 Y144.56 E72.21224
G1 X126.38 Y141.59 E72.46898
G1 X131.39 Y137.95 E72.72644
G1 X133.20 Y136.25 E72.82953
G1 X135.03 Y136.25 E72.90553
G1 X135.40 Y137.20 E72.94792
G1 X132.79 Y139.65 E73.09660
G1 X127.57 Y143.44 E73.36525
G1 X121.91 Y146.55 E73.63375
G1 X115.90 Y148.93 E73.90253
G1 X109.64 Y150.54 E74.17097
G1 X103.23 Y151.35 E74.43962
G1 X96.77 Y151.35 E74.70837
G1 X90.36 Y150.54 E74.97703
G1 X84.10 Y148.93 E75.24564
G1 X78.09 Y146.55 E75.51423
G1 X72.43 Y143.44 E75.78290
G1 X67.20 Y139.64 E76.05154
G1 X62.49 Y135.22 E76.32014
G1 X58.37 Y130.24 E76.58876
G1 X54.91 Y124.79 E76.85726
G1 X52.16 Y118.94 E77.12604
G1 X50.16 Y112.80 E77.39450
G1 X48.95 Y106.45 E77.66314
G1 X48.55 Y100.00 E77.93174
G1 X48.95 Y93.55 E78.20035
G1 X50.16 Y87.20 E78.46899
G1 X52.16 Y81.06 E78.73762
G1 X54.91 Y75.21 E79.00623
G1 X58.37 Y69.76 E79.27467
G1 X62.49 Y64.78 E79.54330
G0 X62.86 Y65.13
G1 X67.52 Y60.74 E79.80951
G1 X72.70 Y56.98 E80.07536
G1 X78.30 Y53.90 E80.34137
G1 X84.26 Y51.54 E80.60757
G1 X90.45 Y49.95 E80.87357
G1 X96.80 Y49.15 E81.13959
G1 X103.20 Y49.15 E81.40559
G1 X109.55 Y49.95 E81.67160
G1 X115.74 Y51.54 E81.93760
G1 X121.69 Y53.90 E82.20361
G1 X127.30 Y56.98 E82.46941
G1 X132.47 Y60.74 E82.73547
G1 X134.81 Y62.93 E82.86877
G1 X134.69 Y63.25 E82.88290
G1 X133.40 Y63.25 E82.93657
G1 X131.71 Y61.67 E83.03272
G1 X126.65 Y57.99 E83.29254
G1 X121.18 Y54.98 E83.55218
G1 X115.37 Y52.69 E83.81192
G1 X109.32 Y51.13 E84.07153
G1 X103.12 Y50.35 E84.33130
G1 X96.87 Y50.35 E84.59123
G1 X90.67 Y51.13 E84.85101
G1 X84.62 Y52.69 E85.11075
G1 X78.82 Y54.99 E85.37033
G1 X73.34 Y58.00 E85.63013
G1 X68.28 Y61.67 E85.88997
G1 X63.73 Y65.94 E86.14953
G1 X59.75 Y70.76 E86.40942
G1 X56.40 Y76.04 E86.66912
G1 X53.74 Y81.69 E86.92871
G1 X51.81 Y87.63 E87.18838
G1 X50.64 Y93.77 E87.44821
G1 X50.25 Y100.00 E87.70795
G1 X50.64 Y106.24 E87.96768
G1 X51.81 Y112.37 E88.22751
G1 X53.75 Y118.32 E88.48735
G1 X56.40 Y123.96 E88.74678
G1 X59.75 Y129.24 E89.00641
G1 X63.73 Y134.05 E89.26630
G1 X68.29 Y138.33 E89.52610
G1 X73.34 Y142.00 E89.78571
G1 X78.82 Y145.01 E90.04550
G1 X84.63 Y147.31 E90.30531
G1 X90.68 Y148.87 E90.56506
G1 X96.88 Y149.65 E90.82483
G1 X103.12 Y149.65 E91.08459
G1 X109.32 Y148.87 E91.34436
G1 X115.38 Y147.31 E91.60415
G1 X121.18 Y145.01 E91.86371
G1 X126.65 Y142.01 E92.12330
G1 X131.71 Y138.34 E92.38312
G1 X133.40 Y136.75 E92.47938
G1 X134.69 Y136.75 E92.53302
G1 X134.81 Y137.07 E92.54714
G1 X132.47 Y139.26 E92.68038
G1 X127.30 Y143.02 E92.94645
G1 X121.69 Y146.10 E93.21230
G1 X115.74 Y148.46 E93.47848
G1 X109.55 Y150.05 E93.74430
G1 X103.20 Y150.85 E94.01032
G1 X96.80 Y150.85 E94.27649
G1 X90.45 Y150.05 E94.54251
G1 X84.25 Y148.46 E94.80851
G1 X78.30 Y146.10 E95.07449
G1 X72.70 Y143.02 E95.34051
G1 X67.52 Y139.25 E95.60658
G1 X62.86 Y134.87 E95.87255
G1 X58.78 Y129.94 E96.13858
G1 X55.35 Y124.55 E96.40442
G1 X52.63 Y118.75 E96.67062
G1 X50.65 Y112.67 E96.93646
G1 X49.45 Y106.39 E97.20248
G1 X49.05 Y100.00 E97.46846
G1 X49.45 Y93.61 E97.73444
G1 X50.65 Y87.33 E98.00045
G1 X52.63 Y81.25 E98.26646
G1 X55.35 Y75.45 E98.53249
G1 X58.78 Y70.06 E98.79828
G1 X62.86 Y65.13 E99.06431
G0 X63.22 Y65.47
;TYPE:WALL-OUTER
G1 X67.84 Y61.13 E99.32775
G1 X72.97 Y57.41 E99.59102
G1 X78.52 Y54.35 E99.85446
G1 X84.41 Y52.02 E100.11790
G1 X90.55 Y50.45 E100.38133
G1 X96.83 Y49.65 E100.64475
G1 X103.17 Y49.65 E100.90817
G1 X109.45 Y50.45 E101.17158
G1 X115.59 Y52.02 E101.43505
G1 X121.48 Y54.35 E101.69825
G1 X127.03 Y57.40 E101.96149
G1 X132.15 Y61.13 E102.22496
G1 X133.88 Y62.75 E102.32358
G1 X133.59 Y62.75 E102.33568
G1 X132.03 Y61.28 E102.42492
G1 X126.92 Y57.57 E102.68732
G1 X121.40 Y54.53 E102.94953
G1 X115.52 Y52.21 E103.21207
G1 X109.42 Y50.64 E103.47422
G1 X103.16 Y49.85 E103.73659
G1 X96.84 Y49.85 E103.99910
G1 X90.58 Y50.64 E104.26147
G1 X84.47 Y52.21 E104.52379
G1 X78.60 Y54.53 E104.78613
G1 X73.07 Y57.58 E105.04851
G1 X67.97 Y61.28 E105.31092
G1 X63.37 Y65.61 E105.57325
G1 X59.34 Y70.47 E105.83558
G1 X55.97 Y75.79 E106.09780
G1 X53.28 Y81.51 E106.36032
G1 X51.33 Y87.50 E106.62254
G1 X50.15 Y93.70 E106.88490
G1 X49.75 Y100.00 E107.14722
G1 X50.15 Y106.30 E107.40954
G1 X51.33 Y112.50 E107.67190
G1 X53.28 Y118.50 E107.93429
G1 X55.97 Y124.21 E108.19664
G1 X59.34 Y129.53 E108.45880
G1 X63.37 Y134.39 E108.72114
G1 X67.97 Y138.72 E108.98370
G1 X73.07 Y142.43 E109.24590
G1 X78.60 Y145.47 E109.50826
G1 X84.47 Y147.79 E109.77083
G1 X90.58 Y149.36 E110.03314
G1 X96.84 Y150.15 E110.29552
G1 X103.16 Y150.15 E110.55786
G1 X109.42 Y149.36 E110.82023
G1 X115.53 Y147.79 E111.08254
G1 X121.40 Y145.47 E111.34491
G1 X126.92 Y142.43 E111.60707
G1 X132.03 Y138.72 E111.86947
G1 X133.59 Y137.25 E111.95883
G1 X133.88 Y137.25 E111.97092
G1 X132.16 Y138.87 E112.06955
G1 X127.03 Y142.60 E112.33302
G1 X121.48 Y145.65 E112.59631
G1 X115.59 Y147.98 E112.85968
G1 X109.45 Y149.56 E113.12298
G1 X103.17 Y150.35 E113.38640
G1 X96.83 Y150.35 E113.64998
G1 X90.54 Y149.55 E113.91341
G1 X84.41 Y147.98 E114.17683
G1 X78.52 Y145.65 E114.44005
G1 X72.97 Y142.59 E114.70349
G1 X67.84 Y138.87 E114.96699
G1 X63.22 Y134.53 E115.23020
G1 X59.18 Y129.65 E115.49378
G1 X55.79 Y124.30 E115.75710
G1 X53.09 Y118.57 E116.02037
G1 X51.14 Y112.55 E116.28367
G1 X49.95 Y106.32 E116.54714
G1 X49.55 Y100.00 E116.81054
G1 X49.95 Y93.68 E117.07394
G1 X51.14 Y87.45 E117.33742
G1 X53.09 Y81.42 E117.60088
G1 X55.79 Y75.70 E117.86399
G1 X59.18 Y70.35 E118.12725
G1 X63.22 Y65.47 E118.39083
;LAYER:1
M106 S127
G0 F9000 X63.23 Y65.46 Z0.40
;TYPE:WALL-OUTER
G1 F3600 X67.84 Y61.13 E118.65408
G1 X72.97 Y57.40 E118.91761
G1 X78.52 Y54.35 E119.18099
G1 X84.41 Y52.02 E119.44419
G1 X90.55 Y50.45 E119.70766
G1 X96.83 Y49.65 E119.97108
G1 X103.17 Y49.65 E120.23450
G1 X109.45 Y50.45 E120.49792
G1 X115.59 Y52.02 E120.76138
G1 X121.48 Y54.35 E121.02458
G1 X127.03 Y57.40 E121.28797
G1 X132.16 Y61.13 E121.55150
G1 X133.88 Y62.75 E121.64997
G1 X133.59 Y62.75 E121.66207
G1 X132.02 Y61.27 E121.75172
G1 X126.91 Y57.57 E122.01414
G1 X121.38 Y54.53 E122.27649
G1 X115.51 Y52.21 E122.53889
G1 X109.42 Y50.64 E122.80065
G1 X103.16 Y49.85 E123.06302
G1 X96.83 Y49.85 E123.32590
G1 X90.57 Y50.64 E123.58828
G1 X84.46 Y52.21 E123.85057
G1 X78.59 Y54.54 E124.11293
G1 X73.06 Y57.58 E124.37529
G1 X67.96 Y61.29 E124.63769
G1 X63.36 Y65.61 E124.90004
G1 X59.35 Y70.46 E125.16185
G1 X55.96 Y75.80 E125.42446
G1 X53.27 Y81.51 E125.68709
G1 X51.33 Y87.50 E125.94895
G1 X50.15 Y93.71 E126.21161
G1 X50.15 Y93.73 E126.21249
G1 X49.75 Y100.00 E126.47364
G1 X50.15 Y106.30 E126.73595
G1 X51.33 Y112.50 E126.99832
G1 X53.28 Y118.50 E127.26071
G1 X55.97 Y124.21 E127.52306
G1 X59.35 Y129.54 E127.78543
G1 X63.37 Y134.40 E128.04776
G1 X67.97 Y138.72 E128.31012
G1 X73.08 Y142.43 E128.57253
G1 X78.61 Y145.47 E128.83489
G1 X84.47 Y147.79 E129.09725
G1 X90.58 Y149.36 E129.35957
G1 X96.84 Y150.15 E129.62194
G1 X103.16 Y150.15 E129.88428
G1 X109.42 Y149.36 E130.14665
G1 X115.53 Y147.79 E130.40897
G1 X121.40 Y145.47 E130.67134
G1 X126.93 Y142.43 E130.93370
G1 X132.03 Y138.72 E131.19610
G1 X133.59 Y137.25 E131.28525
