;Generated with Cura_SteamEngine 13.12
M140 S100.000000
M109 T0 S255.000000
T0
M190 S100.000000
;Sliced at: Tue 04-03-2014 22:10:19
;Basic settings: Layer height: 0.24 Walls: 1 Fill: 20
;Print time: #P_TIME#
;Filament used: #F_AMNT#m #F_WGHT#g
;Filament cost: #F_COST#
;M190 S100 ;Uncomment to add your own bed temperature line
;M109 S255 ;Uncomment to add your own temperature line
G21        ;metric values
G90        ;absolute positioning
M107       ;start with the fan off
G28 X0 Y0  ;move X/Y to min endstops
G28 Z0     ;move Z to min endstops
G1 Z15.0 F9000 ;move the platform down 15mm
G92 E0                  ;zero the extruded length
G1 F200 E3              ;extrude 3mm of feed stock
G92 E0                  ;zero the extruded length again
G1 F9000
;Put printing message on LCD screen
M117 Printing...

;Layer count: 21
;LAYER:0
M107
G0 F9000 X73.58 Y85.96 Z0.20
;TYPE:SKIRT
G1 F1200 E0.00000
G1 F3000 X74.12 Y85.55 E0.02823
G1 X74.68 Y85.16 E0.05649
G1 X75.78 Y84.56 E0.10862
G1 X76.94 Y84.10 E0.16062
G1 X77.63 Y83.90 E0.19033
G1 X78.83 Y83.67 E0.24103
G1 X79.50 Y83.61 E0.26922
G1 X80.14 Y83.59 E0.29600
G1 X80.79 Y83.61 E0.32275
G1 X81.43 Y83.67 E0.34952
G1 X82.10 Y83.77 E0.37785
G1 X83.28 Y84.08 E0.42838
G1 X83.92 Y84.31 E0.45656
G1 X84.54 Y84.58 E0.48482
G1 X85.03 Y84.85 E0.50821
G1 X85.45 Y84.43 E0.53261
G1 X88.15 Y82.05 E0.68213
G1 X90.99 Y79.85 E0.83168
G1 X93.96 Y77.83 E0.98123
G1 X97.06 Y76.00 E1.13078
G1 X100.26 Y74.36 E1.28023
G1 X103.56 Y72.94 E1.42978
G1 X106.95 Y71.72 E1.57930
G1 X110.40 Y70.71 E1.72884
G1 X112.43 Y70.26 E1.81507
G1 X112.60 Y68.90 E1.87194
G1 X112.77 Y68.12 E1.90534
G1 X112.99 Y67.38 E1.93733
G1 X113.24 Y66.67 E1.96873
G1 X113.55 Y65.95 E2.00130
G1 X113.92 Y65.23 E2.03479
G1 X114.72 Y63.96 E2.09736
G1 X115.68 Y62.81 E2.15980
G1 X116.28 Y62.21 E2.19476
G1 X117.41 Y61.27 E2.25583
G1 X118.10 Y60.80 E2.29073
G1 X119.42 Y60.08 E2.35330
G1 X120.69 Y59.58 E2.40991
G1 X120.80 Y59.53 E2.41487
G1 X121.59 Y59.30 E2.44920
G1 X122.38 Y59.12 E2.48273
G1 X123.83 Y58.94 E2.54375
G1 X124.64 Y58.91 E2.57723
G1 X125.44 Y58.94 E2.61067
G1 X126.90 Y59.12 E2.67169
G1 X127.69 Y59.30 E2.70522
G1 X128.46 Y59.52 E2.73869
G1 X129.73 Y60.03 E2.79556
G1 X129.84 Y60.07 E2.80048
G1 X130.54 Y60.43 E2.83313
G1 X131.24 Y60.84 E2.86664
G1 X132.45 Y61.72 E2.92914
G1 X133.55 Y62.75 E2.99161
G1 X134.10 Y63.38 E3.02655
G1 X134.97 Y64.57 E3.08762
G1 X135.38 Y65.26 E3.12107
G1 X135.55 Y65.61 E3.13721
G1 X135.61 Y65.56 E3.14026
G1 X136.17 Y65.18 E3.16852
G1 X137.24 Y64.60 E3.21918
G1 X137.89 Y64.31 E3.24885
G1 X139.09 Y63.92 E3.30093
G1 X140.32 Y63.69 E3.35306
G1 X140.99 Y63.63 E3.38125
G1 X141.63 Y63.61 E3.40800
G1 X142.28 Y63.63 E3.43478
G1 X142.92 Y63.69 E3.46155
G1 X143.59 Y63.79 E3.48988
G1 X144.80 Y64.11 E3.54187
G1 X146.00 Y64.58 E3.59538
G1 X147.13 Y65.20 E3.64895
G1 X148.14 Y65.94 E3.70101
G1 X148.68 Y66.41 E3.73070
G1 X149.54 Y67.32 E3.78282
G1 X150.27 Y68.33 E3.83485
G1 X150.64 Y68.95 E3.86459
G1 X151.17 Y70.08 E3.91665
G1 X151.57 Y71.31 E3.97024
G1 X151.80 Y72.54 E4.02217
G1 X151.87 Y73.22 E4.05057
G1 X151.89 Y73.87 E4.07773
G1 X151.87 Y74.51 E4.10452
G1 X151.80 Y75.19 E4.13288
G1 X151.70 Y75.73 E4.15566
G1 X152.22 Y76.00 E4.18005
G1 X153.78 Y76.92 E4.25521
G1 X185.10 Y76.93 E5.55738
G1 X186.00 Y77.04 E5.59519
G1 X186.88 Y77.27 E5.63304
G1 X187.73 Y77.60 E5.67091
G1 X188.53 Y78.04 E5.70883
G1 X189.26 Y78.58 E5.74669
G1 X189.93 Y79.20 E5.78449
G1 X190.51 Y79.90 E5.82243
G1 X191.00 Y80.67 E5.86033
G1 X191.38 Y81.50 E5.89822
G1 X191.66 Y82.36 E5.93599
G1 X191.83 Y83.22 E5.97232
G1 X191.88 Y83.74 E5.99424
G1 X191.89 Y168.21 E9.50581
G1 X191.88 Y168.63 E9.52340
G1 X191.83 Y169.11 E9.54358
G1 X191.66 Y169.98 E9.58019
G1 X191.39 Y170.81 E9.61645
G1 X191.19 Y171.29 E9.63835
G1 X190.78 Y172.03 E9.67332
G1 X190.49 Y172.46 E9.69493
G1 X189.92 Y173.14 E9.73160
G1 X189.26 Y173.76 E9.76919
G1 X188.52 Y174.30 E9.80747
G1 X187.72 Y174.73 E9.84531
G1 X186.88 Y175.06 E9.88275
G1 X186.03 Y175.28 E9.91920
G1 X185.55 Y175.36 E9.93974
G1 X185.06 Y175.41 E9.96007
G1 X153.77 Y175.41 E11.26075
G1 X152.18 Y176.36 E11.33782
G1 X151.71 Y176.59 E11.35952
G1 X151.81 Y177.19 E11.38459
G1 X151.87 Y177.83 E11.41137
G1 X151.89 Y178.48 E11.43857
G1 X151.87 Y179.13 E11.46544
G1 X151.80 Y179.81 E11.49372
G1 X151.57 Y181.00 E11.54426
G1 X151.37 Y181.69 E11.57398
G1 X150.92 Y182.82 E11.62453
G1 X150.61 Y183.42 E11.65274
G1 X150.29 Y183.98 E11.67954
G1 X149.90 Y184.54 E11.70784
G1 X149.12 Y185.47 E11.75845
G1 X148.64 Y185.95 E11.78661
G1 X148.13 Y186.40 E11.81483
G1 X147.12 Y187.14 E11.86699
G1 X146.02 Y187.74 E11.91909
G1 X145.37 Y188.02 E11.94873
G1 X144.18 Y188.41 E12.00071
G1 X142.95 Y188.64 E12.05242
G1 X142.28 Y188.70 E12.08065
G1 X141.62 Y188.72 E12.10785
G1 X140.98 Y188.70 E12.13468
G1 X140.30 Y188.64 E12.16287
G1 X139.11 Y188.41 E12.21346
G1 X138.42 Y188.21 E12.24326
G1 X137.29 Y187.76 E12.29381
G1 X136.69 Y187.45 E12.32208
G1 X136.10 Y187.10 E12.35030
G1 X135.56 Y186.71 E12.37824
G1 X135.37 Y187.08 E12.39566
G1 X134.97 Y187.74 E12.42763
G1 X134.54 Y188.38 E12.45956
G1 X134.07 Y188.99 E12.49159
G1 X133.54 Y189.59 E12.52505
G1 X132.47 Y190.59 E12.58611
G1 X131.83 Y191.09 E12.61960
G1 X131.16 Y191.54 E12.65301
G1 X129.88 Y192.24 E12.71407
G1 X129.10 Y192.57 E12.74899
G1 X127.71 Y193.03 E12.81002
G1 X126.90 Y193.21 E12.84436
G1 X125.44 Y193.39 E12.90546
G1 X124.63 Y193.42 E12.93944
G1 X123.82 Y193.39 E12.97297
G1 X122.36 Y193.21 E13.03395
G1 X121.58 Y193.03 E13.06748
G1 X120.81 Y192.80 E13.10093
G1 X119.41 Y192.25 E13.16348
G1 X118.09 Y191.52 E13.22600
G1 X117.43 Y191.07 E13.25936
G1 X116.79 Y190.57 E13.29284
G1 X115.72 Y189.57 E13.35387
G1 X115.19 Y188.96 E13.38737
G1 X114.72 Y188.35 E13.41940
G1 X114.29 Y187.72 E13.45143
G1 X113.88 Y187.02 E13.48487
G1 X113.24 Y185.66 E13.54736
G1 X112.78 Y184.23 E13.60976
G1 X112.60 Y183.43 E13.64410
G1 X112.42 Y182.06 E13.70164
G1 X110.34 Y181.60 E13.79033
G1 X106.88 Y180.59 E13.94014
G1 X103.50 Y179.37 E14.08964
G1 X100.20 Y177.94 E14.23916
G1 X97.00 Y176.30 E14.38869
G1 X93.90 Y174.46 E14.53823
G1 X90.93 Y172.44 E14.68768
G1 X88.15 Y170.28 E14.83436
G1 X85.42 Y167.87 E14.98584
G1 X85.03 Y167.48 E15.00824
G1 X84.53 Y167.76 E15.03210
G1 X83.88 Y168.04 E15.06180
G1 X82.68 Y168.43 E15.11388
G1 X81.47 Y168.66 E15.16543
G1 X80.79 Y168.72 E15.19370
G1 X80.13 Y168.74 E15.22090
G1 X79.49 Y168.72 E15.24777
G1 X78.81 Y168.66 E15.27606
G1 X77.62 Y168.43 E15.32655
G1 X76.96 Y168.24 E15.35488
G1 X76.33 Y168.01 E15.38314
G1 X75.23 Y167.49 E15.43358
G1 X74.61 Y167.13 E15.46333
G1 X73.63 Y166.41 E15.51400
G1 X73.12 Y165.96 E15.54225
G1 X72.64 Y165.48 E15.57044
G1 X71.84 Y164.51 E15.62251
G1 X71.15 Y163.42 E15.67605
G1 X70.61 Y162.26 E15.72963
G1 X70.21 Y161.03 E15.78308
G1 X69.98 Y159.81 E15.83467
G1 X69.91 Y159.14 E15.86295
G1 X69.89 Y158.49 E15.88973
G1 X69.91 Y157.82 E15.91789
G1 X70.07 Y156.61 E15.96860
G1 X70.22 Y155.91 E15.99830
G1 X70.60 Y154.75 E16.04891
G1 X70.88 Y154.10 E16.07864
G1 X71.49 Y153.00 E16.13065
G1 X72.24 Y151.96 E16.18420
G1 X73.10 Y151.04 E16.23617
G1 X72.81 Y150.47 E16.26274
G1 X71.39 Y147.17 E16.41224
G1 X70.17 Y143.79 E16.56177
G1 X69.17 Y140.33 E16.71125
G1 X68.74 Y138.38 E16.79457
G1 X67.37 Y138.21 E16.85198
G1 X66.58 Y138.03 E16.88552
G1 X65.81 Y137.80 E16.91896
G1 X64.41 Y137.25 E16.98151
G1 X63.09 Y136.52 E17.04403
G1 X62.43 Y136.07 E17.07739
G1 X61.79 Y135.57 E17.11087
G1 X60.72 Y134.57 E17.17190
G1 X60.19 Y133.96 E17.20540
G1 X59.72 Y133.35 E17.23743
G1 X59.29 Y132.72 E17.26946
G1 X58.88 Y132.02 E17.30290
G1 X58.24 Y130.66 E17.36539
G1 X57.78 Y129.23 E17.42779
G1 X57.60 Y128.43 E17.46213
G1 X57.41 Y126.97 E17.52328
G1 X57.39 Y126.17 E17.55672
G1 X57.41 Y125.36 E17.59016
G1 X57.60 Y123.90 E17.65126
G1 X57.77 Y123.12 E17.68467
G1 X57.99 Y122.38 E17.71666
G1 X58.24 Y121.67 E17.74806
G1 X58.56 Y120.95 E17.78063
G1 X58.92 Y120.23 E17.81412
G1 X59.73 Y118.96 E17.87669
G1 X60.69 Y117.81 E17.93913
G1 X61.28 Y117.21 E17.97409
G1 X62.41 Y116.27 E18.03516
G1 X63.10 Y115.80 E18.07005
G1 X64.42 Y115.08 E18.13263
G1 X65.69 Y114.58 E18.18924
G1 X65.80 Y114.53 E18.19419
G1 X66.59 Y114.30 E18.22853
G1 X67.38 Y114.12 E18.26206
G1 X68.74 Y113.95 E18.31888
G1 X69.19 Y111.93 E18.40514
G1 X70.19 Y108.47 E18.55468
G1 X71.41 Y105.09 E18.70422
G1 X72.84 Y101.79 E18.85375
G1 X73.10 Y101.28 E18.87745
G1 X72.64 Y100.82 E18.90447
G1 X71.84 Y99.86 E18.95648
G1 X71.15 Y98.77 E19.00999
G1 X70.61 Y97.60 E19.06357
G1 X70.21 Y96.38 E19.11705
G1 X69.98 Y95.16 E19.16860
G1 X69.91 Y94.48 E19.19692
G1 X69.89 Y93.84 E19.22366
G1 X69.91 Y93.16 E19.25182
G1 X70.07 Y91.95 E19.30253
G1 X70.22 Y91.25 E19.33226
G1 X70.60 Y90.10 E19.38284
G1 X70.87 Y89.47 E19.41107
G1 X71.16 Y88.90 E19.43781
G1 X71.51 Y88.31 E19.46612
G1 X72.22 Y87.33 E19.51669
G1 X72.69 Y86.80 E19.54636
G1 X73.58 Y85.96 E19.59695
G0 F9000 X73.91 Y86.34
G1 F3000 X74.41 Y85.95 E19.62352
G1 X74.94 Y85.59 E19.65016
G1 X75.99 Y85.01 E19.69999
G1 X77.10 Y84.57 E19.74970
G1 X77.75 Y84.39 E19.77746
G1 X78.90 Y84.17 E19.82618
G1 X79.53 Y84.11 E19.85273
G1 X80.14 Y84.09 E19.87823
G1 X80.76 Y84.11 E19.90369
G1 X81.37 Y84.16 E19.92912
G1 X82.00 Y84.27 E19.95581
G1 X83.13 Y84.56 E20.00439
G1 X83.73 Y84.77 E20.03096
G1 X84.32 Y85.03 E20.05757
G1 X85.12 Y85.47 E20.09562
G1 X85.79 Y84.80 E20.13493
G1 X88.47 Y82.44 E20.28318
G1 X91.28 Y80.25 E20.43140
G1 X94.23 Y78.25 E20.57963
G1 X97.30 Y76.44 E20.72787
G1 X100.48 Y74.82 E20.87603
G1 X103.75 Y73.40 E21.02427
G1 X107.10 Y72.19 E21.17250
G1 X110.53 Y71.20 E21.32075
G1 X112.90 Y70.67 E21.42202
G1 X112.91 Y70.40 E21.43304
G1 X113.09 Y68.99 E21.49217
G1 X113.26 Y68.24 E21.52395
G1 X113.46 Y67.54 E21.55461
G1 X113.71 Y66.85 E21.58472
G1 X114.01 Y66.16 E21.61601
G1 X114.35 Y65.48 E21.64784
G1 X115.13 Y64.26 E21.70812
G1 X116.05 Y63.14 E21.76830
G1 X116.61 Y62.58 E21.80125
G1 X117.71 Y61.67 E21.86037
G1 X118.36 Y61.23 E21.89332
G1 X119.64 Y60.53 E21.95360
G1 X120.88 Y60.04 E22.00941
G1 X120.97 Y60.00 E22.01310
G1 X121.72 Y59.78 E22.04562
G1 X122.47 Y59.62 E22.07748
G1 X123.87 Y59.44 E22.13653
G1 X124.64 Y59.41 E22.16839
G1 X125.41 Y59.44 E22.20021
G1 X126.81 Y59.62 E22.25926
G1 X127.56 Y59.78 E22.29112
G1 X128.30 Y60.00 E22.32300
G1 X129.54 Y60.49 E22.37871
G1 X129.63 Y60.53 E22.38262
G1 X130.30 Y60.87 E22.41384
G1 X130.96 Y61.26 E22.44571
G1 X132.13 Y62.11 E22.50593
G1 X133.19 Y63.10 E22.56614
G1 X133.71 Y63.70 E22.59910
G1 X134.55 Y64.85 E22.65818
G1 X134.94 Y65.50 E22.69002
G1 X135.27 Y66.16 E22.72073
G1 X135.37 Y66.39 E22.73092
G1 X135.40 Y66.36 E22.73251
G1 X135.90 Y65.97 E22.75909
G1 X136.43 Y65.61 E22.78572
G1 X137.46 Y65.05 E22.83442
G1 X138.07 Y64.78 E22.86213
G1 X139.21 Y64.41 E22.91192
G1 X140.39 Y64.19 E22.96174
G1 X141.02 Y64.13 E22.98830
G1 X141.63 Y64.11 E23.01375
G1 X142.25 Y64.13 E23.03925
G1 X142.86 Y64.18 E23.06468
G1 X143.49 Y64.28 E23.09137
G1 X144.65 Y64.58 E23.14108
G1 X145.79 Y65.03 E23.19199
G1 X146.86 Y65.62 E23.24296
G1 X147.83 Y66.33 E23.29272
G1 X148.33 Y66.77 E23.32047
G1 X149.15 Y67.64 E23.37027
G1 X149.85 Y68.61 E23.42000
G1 X150.19 Y69.18 E23.44778
G1 X150.70 Y70.27 E23.49758
G1 X151.08 Y71.43 E23.54854
G1 X151.31 Y72.61 E23.59819
G1 X151.37 Y73.25 E23.62492
G1 X151.39 Y73.87 E23.65079
G1 X151.37 Y74.48 E23.67629
G1 X151.31 Y75.12 E23.70294
G1 X151.13 Y76.00 E23.74041
G1 X151.98 Y76.44 E23.77979
G1 X153.64 Y77.42 E23.85996
G1 X185.07 Y77.43 E25.16650
G1 X185.91 Y77.53 E25.20170
G1 X186.73 Y77.74 E25.23697
G1 X187.51 Y78.06 E25.27223
G1 X188.26 Y78.47 E25.30752
G1 X188.94 Y78.96 E25.34277
G1 X189.56 Y79.54 E25.37794
G1 X190.10 Y80.20 E25.41323
G1 X190.56 Y80.91 E25.44854
G1 X190.92 Y81.68 E25.48382
G1 X191.18 Y82.49 E25.51900
G1 X191.33 Y83.29 E25.55304
G1 X191.38 Y83.77 E25.57300
G1 X191.39 Y168.20 E29.08323
G1 X191.38 Y168.60 E29.09983
G1 X191.33 Y169.04 E29.11838
G1 X191.18 Y169.85 E29.15270
G1 X190.93 Y170.63 E29.18669
G1 X190.74 Y171.07 E29.20662
G1 X190.35 Y171.76 E29.23963
G1 X190.09 Y172.16 E29.25930
G1 X189.56 Y172.79 E29.29367
G1 X188.94 Y173.37 E29.32864
G1 X188.25 Y173.87 E29.36427
G1 X187.51 Y174.28 E29.39947
G1 X186.73 Y174.59 E29.43435
G1 X185.93 Y174.79 E29.46853
G1 X185.48 Y174.86 E29.48739
G1 X185.04 Y174.91 E29.50613
G1 X153.64 Y174.91 E30.81143
G1 X151.94 Y175.92 E30.89356
G1 X151.13 Y176.33 E30.93099
G1 X151.21 Y176.62 E30.94357
G1 X151.31 Y177.25 E30.97016
G1 X151.37 Y177.86 E30.99564
G1 X151.39 Y178.48 E31.02147
G1 X151.37 Y179.10 E31.04705
G1 X151.31 Y179.74 E31.07370
G1 X151.09 Y180.88 E31.12226
G1 X150.90 Y181.52 E31.15002
G1 X150.47 Y182.61 E31.19861
G1 X150.18 Y183.18 E31.22518
G1 X149.86 Y183.71 E31.25068
G1 X149.50 Y184.24 E31.27736
G1 X148.75 Y185.14 E31.32602
G1 X148.30 Y185.59 E31.35254
G1 X147.82 Y186.01 E31.37914
G1 X146.85 Y186.72 E31.42900
G1 X145.80 Y187.29 E31.47877
G1 X145.19 Y187.55 E31.50647
G1 X144.05 Y187.92 E31.55622
G1 X142.88 Y188.15 E31.60560
G1 X142.25 Y188.20 E31.63220
G1 X141.62 Y188.22 E31.65812
G1 X141.01 Y188.20 E31.68361
G1 X140.38 Y188.14 E31.71018
G1 X139.23 Y187.92 E31.75882
G1 X138.58 Y187.74 E31.78662
G1 X137.50 Y187.30 E31.83521
G1 X136.93 Y187.01 E31.86183
G1 X136.38 Y186.69 E31.88845
G1 X135.43 Y186.00 E31.93707
G1 X135.37 Y185.94 E31.94052
G1 X135.27 Y186.18 E31.95136
G1 X134.93 Y186.84 E31.98207
G1 X134.55 Y187.47 E32.01274
G1 X134.14 Y188.08 E32.04341
G1 X133.69 Y188.67 E32.07411
G1 X133.18 Y189.24 E32.10595
G1 X132.14 Y190.21 E32.16501
G1 X131.53 Y190.68 E32.19690
G1 X130.90 Y191.11 E32.22866
G1 X129.66 Y191.79 E32.28777
G1 X128.93 Y192.11 E32.32075
G1 X127.58 Y192.54 E32.37981
G1 X126.82 Y192.71 E32.41220
G1 X125.40 Y192.89 E32.47132
G1 X124.63 Y192.92 E32.50369
G1 X123.86 Y192.89 E32.53555
G1 X122.45 Y192.71 E32.59460
G1 X121.70 Y192.54 E32.62648
G1 X120.97 Y192.33 E32.65830
G1 X119.62 Y191.79 E32.71854
G1 X118.35 Y191.09 E32.77879
G1 X117.72 Y190.66 E32.81050
G1 X117.12 Y190.19 E32.84239
G1 X116.08 Y189.22 E32.90145
G1 X115.58 Y188.65 E32.93326
G1 X115.12 Y188.06 E32.96402
G1 X114.71 Y187.45 E32.99471
G1 X114.32 Y186.79 E33.02650
G1 X113.71 Y185.48 E33.08674
G1 X113.26 Y184.10 E33.14687
G1 X113.09 Y183.34 E33.17926
G1 X112.91 Y181.93 E33.23843
G1 X112.90 Y181.65 E33.25012
G1 X110.46 Y181.12 E33.35400
G1 X107.04 Y180.12 E33.50242
G1 X103.68 Y178.90 E33.65061
G1 X100.41 Y177.48 E33.79887
G1 X97.24 Y175.86 E33.94704
G1 X94.17 Y174.04 E34.09527
G1 X91.23 Y172.04 E34.24344
G1 X88.47 Y169.89 E34.38881
G1 X85.76 Y167.50 E34.53897
G1 X85.12 Y166.87 E34.57634
G1 X84.31 Y167.31 E34.61483
G1 X83.70 Y167.57 E34.64260
G1 X82.56 Y167.94 E34.69236
G1 X81.39 Y168.16 E34.74162
G1 X80.76 Y168.23 E34.76831
G1 X80.14 Y168.24 E34.79414
G1 X79.52 Y168.22 E34.81972
G1 X78.88 Y168.16 E34.84637
G1 X77.73 Y167.94 E34.89493
G1 X77.12 Y167.76 E34.92161
G1 X76.52 Y167.54 E34.94819
G1 X75.46 Y167.05 E34.99673
G1 X74.89 Y166.71 E35.02450
G1 X73.94 Y166.02 E35.07318
G1 X73.46 Y165.59 E35.09981
G1 X73.01 Y165.14 E35.12635
G1 X72.25 Y164.22 E35.17617
G1 X71.59 Y163.18 E35.22710
G1 X71.07 Y162.07 E35.27802
G1 X70.69 Y160.91 E35.32889
G1 X70.47 Y159.74 E35.37819
G1 X70.41 Y159.11 E35.40484
G1 X70.39 Y158.49 E35.43034
G1 X70.41 Y157.85 E35.45687
G1 X70.56 Y156.69 E35.50561
G1 X70.71 Y156.04 E35.53335
G1 X71.07 Y154.93 E35.58199
G1 X71.33 Y154.32 E35.60977
G1 X71.91 Y153.27 E35.65951
G1 X72.63 Y152.28 E35.71044
G1 X73.45 Y151.41 E35.76012
G1 X73.72 Y151.16 E35.77520
G1 X73.26 Y150.26 E35.81724
G1 X71.85 Y146.99 E35.96544
G1 X70.65 Y143.63 E36.11367
G1 X69.66 Y140.21 E36.26185
G1 X69.14 Y137.90 E36.36026
G1 X68.86 Y137.89 E36.37191
G1 X67.45 Y137.71 E36.43095
G1 X66.70 Y137.54 E36.46283
G1 X65.97 Y137.33 E36.49466
G1 X64.62 Y136.79 E36.55490
G1 X63.35 Y136.09 E36.61515
G1 X62.72 Y135.66 E36.64686
G1 X62.12 Y135.19 E36.67874
G1 X61.08 Y134.22 E36.73780
G1 X60.58 Y133.65 E36.76962
G1 X60.13 Y133.06 E36.80038
G1 X59.71 Y132.45 E36.83107
G1 X59.32 Y131.79 E36.86286
G1 X58.71 Y130.48 E36.92310
G1 X58.26 Y129.10 E36.98323
G1 X58.09 Y128.34 E37.01561
G1 X57.91 Y126.93 E37.07479
G1 X57.89 Y126.17 E37.10661
G1 X57.91 Y125.40 E37.13843
G1 X58.09 Y123.99 E37.19756
G1 X58.26 Y123.24 E37.22934
G1 X58.47 Y122.54 E37.26000
G1 X58.71 Y121.85 E37.29011
G1 X59.01 Y121.16 E37.32140
