;Generated with Cura_SteamEngine 13.12
M140 S100.000000
M109 T0 S255.000000
T0
M190 S100.000000
;Sliced at: Mon 03-03-2014 15:57:07
;Basic settings: Layer height: 0.24 Walls: 1 Fill: 20
;Print time: #P_TIME#
;Filament used: #F_AMNT#m #F_WGHT#g
;Filament cost: #F_COST#
;M190 S100 ;Uncomment to add your own bed temperature line
;M109 S255 ;Uncomment to add your own temperature line
G21        ;metric values
G90        ;absolute positioning
M107       ;start with the fan off
G28 X0 Y0  ;move X/Y to min endstops
G28 Z0     ;move Z to min endstops
G1 Z15.0 F9000 ;move the platform down 15mm
G92 E0                  ;zero the extruded length
G1 F200 E3              ;extrude 3mm of feed stock
G92 E0                  ;zero the extruded length again
G1 F9000
;Put printing message on LCD screen
M117 Printing...

;Layer count: 21
;LAYER:0
M107
G0 F9000 X73.84 Y88.52 Z0.20
;TYPE:SKIRT
G1 F1200 E0.00000
G1 F3000 X74.85 Y87.78 E0.05198
G1 X75.47 Y87.42 E0.08165
G1 X76.60 Y86.89 E0.13376
G1 X77.79 Y86.50 E0.18582
G1 X78.45 Y86.35 E0.21399
G1 X79.09 Y86.25 E0.24084
G1 X79.73 Y86.19 E0.26765
G1 X80.38 Y86.17 E0.29440
G1 X81.02 Y86.19 E0.32114
G1 X81.70 Y86.25 E0.34942
G1 X82.93 Y86.49 E0.40153
G1 X84.12 Y86.88 E0.45358
G1 X84.74 Y87.15 E0.48181
G1 X85.28 Y87.42 E0.50682
G1 X85.68 Y87.02 E0.53057
G1 X88.38 Y84.64 E0.68012
G1 X91.22 Y82.43 E0.82962
G1 X94.20 Y80.41 E0.97917
G1 X97.29 Y78.58 E1.12865
G1 X100.49 Y76.95 E1.27814
G1 X103.80 Y75.52 E1.42767
G1 X107.18 Y74.30 E1.57721
G1 X110.63 Y73.30 E1.72675
G1 X112.62 Y72.85 E1.81153
G1 X112.62 Y72.75 E1.81577
G1 X112.65 Y71.94 E1.84925
G1 X112.83 Y70.49 E1.91027
G1 X113.01 Y69.70 E1.94379
G1 X113.23 Y68.93 E1.97727
G1 X113.73 Y67.66 E2.03413
G1 X113.78 Y67.55 E2.03905
G1 X114.14 Y66.85 E2.07170
G1 X114.55 Y66.15 E2.10522
G1 X115.43 Y64.94 E2.16772
G1 X116.46 Y63.84 E2.23019
G1 X117.09 Y63.29 E2.26512
G1 X118.28 Y62.42 E2.32620
G1 X118.97 Y62.01 E2.35965
G1 X119.66 Y61.66 E2.39167
G1 X120.36 Y61.36 E2.42374
G1 X120.97 Y61.14 E2.45046
G1 X121.07 Y61.10 E2.45484
G1 X122.57 Y60.71 E2.51960
G1 X124.07 Y60.52 E2.58218
G1 X124.87 Y60.50 E2.61562
G1 X125.68 Y60.52 E2.64906
G1 X127.13 Y60.71 E2.71016
G1 X127.92 Y60.88 E2.74357
G1 X128.66 Y61.10 E2.77555
G1 X129.40 Y61.37 E2.80842
G1 X130.77 Y62.01 E2.87152
G1 X132.07 Y62.84 E2.93554
G1 X133.23 Y63.79 E2.99808
G1 X133.83 Y64.39 E3.03300
G1 X134.76 Y65.52 E3.09404
G1 X135.23 Y66.21 E3.12894
G1 X135.94 Y67.50 E3.18995
G1 X136.14 Y67.95 E3.21049
G1 X136.34 Y67.80 E3.22102
G1 X136.96 Y67.44 E3.25077
G1 X138.09 Y66.91 E3.30283
G1 X139.32 Y66.51 E3.35638
G1 X140.55 Y66.28 E3.40839
G1 X141.22 Y66.21 E3.43663
G1 X141.87 Y66.19 E3.46346
G1 X142.55 Y66.21 E3.49170
G1 X143.75 Y66.36 E3.54232
G1 X144.45 Y66.52 E3.57205
G1 X145.61 Y66.90 E3.62263
G1 X146.23 Y67.17 E3.65086
G1 X146.81 Y67.46 E3.67760
G1 X147.39 Y67.80 E3.70589
G1 X148.38 Y68.52 E3.75649
G1 X148.91 Y68.99 E3.78621
G1 X149.74 Y69.88 E3.83674
G1 X150.16 Y70.42 E3.86497
G1 X150.54 Y70.98 E3.89322
G1 X151.13 Y72.05 E3.94389
G1 X151.41 Y72.70 E3.97356
G1 X151.80 Y73.89 E4.02563
G1 X152.03 Y75.12 E4.07777
G1 X152.10 Y75.80 E4.10596
G1 X152.12 Y76.45 E4.13316
G1 X152.10 Y77.10 E4.16003
G1 X152.03 Y77.77 E4.18822
G1 X151.93 Y78.31 E4.21109
G1 X152.45 Y78.58 E4.23554
G1 X154.01 Y79.50 E4.31062
G1 X185.33 Y79.51 E5.61275
G1 X186.23 Y79.62 E5.65064
G1 X187.11 Y79.85 E5.68845
G1 X187.96 Y80.19 E5.72640
G1 X188.76 Y80.63 E5.76429
G1 X189.50 Y81.16 E5.80211
G1 X190.16 Y81.78 E5.84003
G1 X190.74 Y82.49 E5.87789
G1 X191.23 Y83.25 E5.91572
G1 X191.62 Y84.08 E5.95362
G1 X191.90 Y84.94 E5.99147
G1 X192.06 Y85.81 E6.02796
G1 X192.11 Y86.33 E6.04988
G1 X192.12 Y170.79 E9.56128
G1 X192.11 Y171.25 E9.58033
G1 X192.00 Y172.12 E9.61671
G1 X191.77 Y173.00 E9.65451
G1 X191.43 Y173.84 E9.69228
G1 X190.99 Y174.64 E9.73030
G1 X190.46 Y175.38 E9.76821
G1 X189.86 Y176.02 E9.80453
G1 X189.49 Y176.34 E9.82474
G1 X189.10 Y176.64 E9.84542
G1 X188.39 Y177.09 E9.88023
G1 X187.92 Y177.33 E9.90205
G1 X187.11 Y177.65 E9.93829
G1 X186.26 Y177.87 E9.97469
G1 X185.78 Y177.94 E9.99502
G1 X185.29 Y177.99 E10.01541
G1 X154.00 Y178.00 E11.31625
G1 X152.41 Y178.94 E11.39322
G1 X151.93 Y179.18 E11.41563
G1 X152.03 Y179.74 E11.43907
G1 X152.10 Y180.41 E11.46730
G1 X152.12 Y181.07 E11.49450
G1 X152.10 Y181.71 E11.52133
G1 X152.03 Y182.39 E11.54953
G1 X151.80 Y183.59 E11.60020
G1 X151.60 Y184.27 E11.62996
G1 X151.15 Y185.40 E11.68051
G1 X150.83 Y186.04 E11.71028
G1 X150.18 Y187.06 E11.76070
G1 X149.76 Y187.60 E11.78894
G1 X149.33 Y188.08 E11.81586
G1 X148.88 Y188.54 E11.84252
G1 X148.37 Y188.99 E11.87071
G1 X147.35 Y189.72 E11.92287
G1 X146.25 Y190.32 E11.97496
G1 X145.60 Y190.61 E12.00463
G1 X144.41 Y190.99 E12.05659
G1 X143.19 Y191.22 E12.10827
G1 X142.51 Y191.29 E12.13658
G1 X141.86 Y191.31 E12.16374
G1 X141.21 Y191.29 E12.19053
G1 X140.53 Y191.22 E12.21885
G1 X139.34 Y190.99 E12.26949
G1 X138.65 Y190.79 E12.29916
G1 X137.52 Y190.34 E12.34971
G1 X136.92 Y190.03 E12.37792
G1 X136.36 Y189.71 E12.40478
G1 X136.13 Y189.54 E12.41671
G1 X135.95 Y189.98 E12.43627
G1 X135.23 Y191.30 E12.49879
G1 X134.77 Y191.96 E12.53215
G1 X134.28 Y192.60 E12.56563
G1 X133.27 Y193.66 E12.62666
G1 X132.67 Y194.20 E12.66016
G1 X132.06 Y194.67 E12.69219
G1 X131.42 Y195.10 E12.72422
G1 X130.73 Y195.51 E12.75766
G1 X129.37 Y196.15 E12.82015
G1 X127.94 Y196.61 E12.88255
G1 X127.13 Y196.79 E12.91689
G1 X125.68 Y196.97 E12.97800
G1 X124.86 Y197.00 E13.01206
G1 X124.05 Y196.97 E13.04559
G1 X122.60 Y196.79 E13.10662
G1 X121.81 Y196.61 E13.14011
G1 X121.07 Y196.40 E13.17203
G1 X120.35 Y196.13 E13.20397
G1 X119.64 Y195.83 E13.23606
G1 X118.96 Y195.48 E13.26806
G1 X118.30 Y195.09 E13.30001
G1 X117.66 Y194.65 E13.33200
G1 X117.05 Y194.18 E13.36408
G1 X116.47 Y193.67 E13.39601
G1 X115.93 Y193.13 E13.42799
G1 X115.42 Y192.55 E13.46004
G1 X114.95 Y191.94 E13.49205
G1 X114.50 Y191.27 E13.52546
G1 X113.79 Y189.98 E13.58652
G1 X113.46 Y189.21 E13.62144
G1 X113.01 Y187.82 E13.68247
G1 X112.83 Y187.01 E13.71682
G1 X112.65 Y185.55 E13.77787
G1 X112.62 Y184.75 E13.81131
G1 X112.62 Y184.64 E13.81568
G1 X110.57 Y184.18 E13.90337
G1 X107.11 Y183.17 E14.05292
G1 X103.73 Y181.95 E14.20244
G1 X100.43 Y180.52 E14.35196
G1 X97.23 Y178.88 E14.50146
G1 X94.14 Y177.05 E14.65097
G1 X91.17 Y175.02 E14.80044
G1 X88.38 Y172.86 E14.94706
G1 X85.65 Y170.45 E15.09858
G1 X85.28 Y170.08 E15.12022
G1 X84.14 Y170.62 E15.17255
G1 X82.92 Y171.01 E15.22596
G1 X81.70 Y171.24 E15.27764
G1 X81.02 Y171.31 E15.30595
G1 X80.36 Y171.33 E15.33311
G1 X79.72 Y171.31 E15.35990
G1 X79.04 Y171.24 E15.38822
G1 X77.85 Y171.01 E15.43878
G1 X77.16 Y170.81 E15.46853
G1 X76.03 Y170.36 E15.51908
G1 X75.43 Y170.05 E15.54734
G1 X74.87 Y169.72 E15.57411
G1 X74.31 Y169.34 E15.60235
G1 X73.38 Y168.57 E15.65290
G1 X72.90 Y168.09 E15.68106
G1 X72.45 Y167.58 E15.70937
G1 X71.73 Y166.59 E15.76010
G1 X71.37 Y165.97 E15.78977
G1 X70.84 Y164.84 E15.84175
G1 X70.44 Y163.62 E15.89529
G1 X70.21 Y162.40 E15.94696
G1 X70.14 Y161.72 E15.97515
G1 X70.13 Y161.08 E16.00190
G1 X70.14 Y160.43 E16.02868
G1 X70.21 Y159.79 E16.05549
G1 X70.31 Y159.12 E16.08374
G1 X70.61 Y157.94 E16.13426
G1 X70.84 Y157.31 E16.16244
G1 X71.10 Y156.71 E16.18930
G1 X71.39 Y156.14 E16.21605
G1 X71.74 Y155.56 E16.24423
G1 X72.45 Y154.57 E16.29492
G1 X72.93 Y154.03 E16.32467
G1 X73.34 Y153.65 E16.34820
G1 X73.04 Y153.06 E16.37557
G1 X71.62 Y149.76 E16.52509
G1 X70.40 Y146.37 E16.67460
G1 X69.40 Y142.91 E16.82443
G1 X68.99 Y141.00 E16.90579
G1 X68.86 Y141.00 E16.91128
G1 X68.05 Y140.97 E16.94480
G1 X66.60 Y140.79 E17.00583
G1 X65.81 Y140.61 E17.03933
G1 X65.07 Y140.40 E17.07124
G1 X64.35 Y140.13 E17.10319
G1 X63.64 Y139.83 E17.13527
G1 X62.96 Y139.48 E17.16727
G1 X62.30 Y139.09 E17.19922
G1 X61.66 Y138.65 E17.23121
G1 X61.05 Y138.18 E17.26329
G1 X60.48 Y137.67 E17.29522
G1 X59.93 Y137.13 E17.32721
G1 X59.42 Y136.55 E17.35926
G1 X58.95 Y135.94 E17.39126
G1 X58.50 Y135.27 E17.42467
G1 X57.80 Y133.98 E17.48574
G1 X57.46 Y133.21 E17.52065
G1 X57.01 Y131.82 E17.58169
G1 X56.83 Y131.01 E17.61603
G1 X56.65 Y129.55 E17.67709
G1 X56.62 Y128.75 E17.71053
G1 X56.65 Y127.94 E17.74401
G1 X56.83 Y126.49 E17.80503
G1 X57.01 Y125.70 E17.83846
G1 X57.22 Y124.96 E17.87046
G1 X57.49 Y124.22 E17.90342
G1 X58.12 Y122.88 E17.96502
G1 X58.55 Y122.15 E17.99998
G1 X59.43 Y120.94 E18.06249
G1 X60.46 Y119.84 E18.12496
G1 X61.09 Y119.29 E18.15989
G1 X62.28 Y118.42 E18.22106
G1 X63.00 Y118.00 E18.25594
G1 X64.27 Y117.40 E18.31404
G1 X64.38 Y117.35 E18.31906
G1 X64.97 Y117.14 E18.34521
G1 X65.07 Y117.10 E18.34957
G1 X66.58 Y116.71 E18.41434
G1 X68.07 Y116.52 E18.47691
G1 X68.87 Y116.50 E18.51036
G1 X68.97 Y116.50 E18.51464
G1 X69.42 Y114.51 E18.59942
G1 X70.42 Y111.06 E18.74895
G1 X71.64 Y107.67 E18.89848
G1 X73.07 Y104.37 E19.04799
G1 X73.33 Y103.86 E19.07177
G1 X72.90 Y103.43 E19.09717
G1 X72.45 Y102.92 E19.12547
G1 X71.73 Y101.93 E19.17626
G1 X71.37 Y101.32 E19.20591
G1 X70.85 Y100.22 E19.25642
G1 X70.63 Y99.58 E19.28455
G1 X70.44 Y98.93 E19.31271
G1 X70.21 Y97.74 E19.36303
G1 X70.14 Y97.06 E19.39121
G1 X70.13 Y96.42 E19.41800
G1 X70.14 Y95.78 E19.44475
G1 X70.21 Y95.14 E19.47152
G1 X70.31 Y94.46 E19.49984
G1 X70.61 Y93.29 E19.55037
G1 X70.84 Y92.65 E19.57855
G1 X71.11 Y92.03 E19.60682
G1 X71.72 Y90.93 E19.65892
G1 X72.45 Y89.91 E19.71098
G1 X72.93 Y89.38 E19.74067
G1 X73.84 Y88.52 E19.79285
G0 F9000 X74.16 Y88.91
G1 F3000 X75.13 Y88.20 E19.84256
G1 X75.70 Y87.86 E19.87027
G1 X76.79 Y87.35 E19.92011
G1 X77.92 Y86.98 E19.96986
G1 X78.55 Y86.84 E19.99641
G1 X79.15 Y86.75 E20.02192
G1 X79.76 Y86.69 E20.04743
G1 X80.38 Y86.67 E20.07289
G1 X80.99 Y86.69 E20.09834
G1 X81.63 Y86.75 E20.12498
G1 X82.80 Y86.97 E20.17477
G1 X83.94 Y87.34 E20.22455
G1 X84.53 Y87.60 E20.25115
G1 X85.07 Y87.88 E20.27657
G1 X85.36 Y88.05 E20.29038
G1 X86.02 Y87.38 E20.32945
G1 X88.70 Y85.02 E20.47771
G1 X91.52 Y82.84 E20.62592
G1 X94.46 Y80.83 E20.77414
G1 X97.53 Y79.02 E20.92234
G1 X100.71 Y77.40 E21.07051
G1 X103.98 Y75.98 E21.21874
G1 X107.33 Y74.78 E21.36699
G1 X110.76 Y73.78 E21.51523
G1 X113.14 Y73.25 E21.61653
G1 X113.12 Y72.75 E21.63733
G1 X113.14 Y71.98 E21.66919
G1 X113.32 Y70.58 E21.72824
G1 X113.49 Y69.83 E21.76010
G1 X113.70 Y69.09 E21.79198
G1 X114.20 Y67.84 E21.84769
G1 X114.23 Y67.76 E21.85160
G1 X114.57 Y67.09 E21.88282
G1 X114.96 Y66.43 E21.91469
G1 X115.82 Y65.26 E21.97491
G1 X116.81 Y64.20 E22.03512
G1 X117.40 Y63.68 E22.06807
G1 X118.55 Y62.84 E22.12716
G1 X119.21 Y62.45 E22.15900
G1 X119.87 Y62.12 E22.18971
G1 X120.55 Y61.82 E22.22044
G1 X121.14 Y61.61 E22.24673
G1 X121.22 Y61.58 E22.25044
G1 X122.67 Y61.20 E22.31241
G1 X124.11 Y61.02 E22.37268
G1 X124.87 Y61.00 E22.40450
G1 X125.64 Y61.02 E22.43632
G1 X127.05 Y61.20 E22.49545
G1 X127.79 Y61.37 E22.52723
G1 X128.50 Y61.57 E22.55789
G1 X129.21 Y61.83 E22.58916
G1 X130.53 Y62.45 E22.64996
G1 X131.78 Y63.24 E22.71138
G1 X132.90 Y64.16 E22.77159
G1 X133.46 Y64.72 E22.80457
G1 X134.36 Y65.82 E22.86363
G1 X134.81 Y66.47 E22.89658
G1 X135.49 Y67.72 E22.95567
G1 X135.80 Y68.42 E22.98750
G1 X135.91 Y68.74 E23.00137
G1 X136.62 Y68.22 E23.03774
G1 X137.19 Y67.88 E23.06552
G1 X138.28 Y67.37 E23.11532
G1 X139.44 Y67.00 E23.16620
G1 X140.62 Y66.77 E23.21593
G1 X141.25 Y66.71 E23.24258
G1 X141.87 Y66.69 E23.26808
G1 X142.51 Y66.71 E23.29470
G1 X143.67 Y66.86 E23.34335
G1 X144.32 Y67.00 E23.37109
G1 X145.43 Y67.36 E23.41973
G1 X146.02 Y67.62 E23.44634
G1 X146.56 Y67.90 E23.47176
G1 X147.12 Y68.22 E23.49843
G1 X148.06 Y68.91 E23.54704
G1 X148.56 Y69.35 E23.57479
G1 X149.36 Y70.20 E23.62340
G1 X149.76 Y70.71 E23.64998
G1 X150.12 Y71.24 E23.67662
G1 X150.68 Y72.27 E23.72532
G1 X150.94 Y72.88 E23.75303
G1 X151.31 Y74.02 E23.80282
G1 X151.54 Y75.19 E23.85264
G1 X151.60 Y75.83 E23.87923
G1 X151.62 Y76.45 E23.90507
G1 X151.60 Y77.07 E23.93065
G1 X151.54 Y77.70 E23.95721
G1 X151.37 Y78.59 E23.99476
G1 X152.21 Y79.02 E24.03418
G1 X153.87 Y80.00 E24.11427
G1 X185.30 Y80.01 E25.42081
G1 X186.14 Y80.12 E25.45606
G1 X186.96 Y80.33 E25.49125
G1 X187.75 Y80.64 E25.52658
G1 X188.49 Y81.05 E25.56184
G1 X189.18 Y81.55 E25.59708
G1 X189.79 Y82.13 E25.63235
G1 X190.33 Y82.78 E25.66758
G1 X190.79 Y83.50 E25.70285
G1 X191.15 Y84.26 E25.73813
G1 X191.41 Y85.07 E25.77336
G1 X191.57 Y85.88 E25.80753
G1 X191.61 Y86.36 E25.82749
G1 X191.62 Y170.78 E29.33759
G1 X191.61 Y171.21 E29.35531
G1 X191.50 Y172.02 E29.38943
G1 X191.29 Y172.84 E29.42460
G1 X190.98 Y173.63 E29.45980
G1 X190.57 Y174.37 E29.49514
G1 X190.07 Y175.06 E29.53045
G1 X189.51 Y175.66 E29.56451
G1 X189.17 Y175.95 E29.58304
G1 X188.81 Y176.23 E29.60209
G1 X188.14 Y176.65 E29.63498
G1 X187.72 Y176.87 E29.65487
G1 X186.96 Y177.17 E29.68881
G1 X186.16 Y177.38 E29.72289
G1 X185.72 Y177.45 E29.74162
G1 X185.27 Y177.49 E29.76037
G1 X153.87 Y177.50 E31.06583
G1 X152.17 Y178.50 E31.14791
G1 X151.37 Y178.91 E31.18524
G1 X151.54 Y179.81 E31.22329
G1 X151.60 Y180.44 E31.24989
G1 X151.62 Y181.07 E31.27580
G1 X151.60 Y181.68 E31.30130
G1 X151.54 Y182.32 E31.32786
G1 X151.32 Y183.47 E31.37654
G1 X151.13 Y184.11 E31.40437
G1 X150.70 Y185.19 E31.45293
G1 X150.39 Y185.79 E31.48074
G1 X149.77 Y186.77 E31.52923
G1 X149.37 Y187.28 E31.55584
G1 X148.97 Y187.74 E31.58144
G1 X148.53 Y188.17 E31.60681
G1 X148.05 Y188.60 E31.63340
G1 X147.08 Y189.30 E31.68324
G1 X146.03 Y189.87 E31.73301
G1 X145.42 Y190.14 E31.76074
G1 X144.28 Y190.51 E31.81045
G1 X143.12 Y190.73 E31.85981
G1 X142.48 Y190.79 E31.88649
G1 X141.86 Y190.81 E31.91237
G1 X141.24 Y190.79 E31.93787
G1 X140.60 Y190.73 E31.96451
G1 X139.46 Y190.51 E32.01316
G1 X138.82 Y190.32 E32.04088
G1 X137.73 Y189.89 E32.08947
G1 X137.16 Y189.60 E32.11604
G1 X136.63 Y189.28 E32.14160
G1 X136.10 Y188.92 E32.16822
G1 X135.90 Y188.76 E32.17909
G1 X135.50 Y189.77 E32.22434
G1 X134.80 Y191.04 E32.28459
G1 X134.37 Y191.66 E32.31630
G1 X133.90 Y192.27 E32.34818
G1 X132.93 Y193.31 E32.40724
G1 X132.35 Y193.81 E32.43906
G1 X131.77 Y194.26 E32.46982
G1 X131.16 Y194.68 E32.50051
G1 X130.50 Y195.07 E32.53230
G1 X129.18 Y195.68 E32.59254
G1 X127.81 Y196.13 E32.65267
G1 X127.05 Y196.30 E32.68505
G1 X125.64 Y196.48 E32.74419
G1 X124.86 Y196.50 E32.77663
G1 X124.09 Y196.47 E32.80850
G1 X122.68 Y196.29 E32.86759
G1 X121.93 Y196.13 E32.89942
G1 X121.23 Y195.92 E32.93004
G1 X120.53 Y195.67 E32.96067
G1 X119.85 Y195.38 E32.99149
G1 X119.20 Y195.04 E33.02213
G1 X118.56 Y194.66 E33.05280
G1 X117.95 Y194.25 E33.08350
G1 X117.37 Y193.79 E33.11422
G1 X116.82 Y193.31 E33.14486
G1 X116.30 Y192.78 E33.17555
G1 X115.81 Y192.23 E33.20627
G1 X115.36 Y191.64 E33.23701
G1 X114.93 Y191.01 E33.26877
G1 X114.24 Y189.76 E33.32788
G1 X113.93 Y189.04 E33.36086
G1 X113.49 Y187.68 E33.41992
G1 X113.32 Y186.92 E33.45230
G1 X113.14 Y185.51 E33.51139
G1 X113.12 Y184.75 E33.54321
G1 X113.14 Y184.25 E33.56409
G1 X110.69 Y183.70 E33.66832
G1 X107.27 Y182.70 E33.81657
G1 X103.91 Y181.49 E33.96480
G1 X100.64 Y180.07 E34.11302
G1 X97.47 Y178.44 E34.26115
G1 X94.41 Y176.63 E34.40936
G1 X91.46 Y174.62 E34.55755
G1 X88.70 Y172.48 E34.70287
G1 X85.99 Y170.09 E34.85306
G1 X85.35 Y169.45 E34.89057
G1 X85.06 Y169.63 E34.90468
G1 X83.96 Y170.15 E34.95562
G1 X82.79 Y170.53 E35.00647
G1 X81.63 Y170.75 E35.05584
G1 X80.99 Y170.81 E35.08252
G1 X80.36 Y170.83 E35.10839
G1 X79.75 Y170.81 E35.13389
G1 X79.11 Y170.75 E35.16054
G1 X77.97 Y170.53 E35.20914
G1 X77.33 Y170.34 E35.23690
G1 X76.24 Y169.91 E35.28549
G1 X75.67 Y169.62 E35.31212
G1 X75.14 Y169.30 E35.33758
G1 X74.61 Y168.94 E35.36421
G1 X73.71 Y168.20 E35.41281
G1 X73.26 Y167.74 E35.43938
G1 X72.84 Y167.26 E35.46601
G1 X72.15 Y166.31 E35.51475
G1 X71.81 Y165.74 E35.54244
G1 X71.30 Y164.66 E35.59217
G1 X70.93 Y163.49 E35.64309
G1 X70.70 Y162.32 E35.69248
G1 X70.64 Y161.69 E35.71904
G1 X70.63 Y161.08 E35.74450
G1 X70.64 Y160.46 E35.77000
G1 X70.70 Y159.85 E35.79547
G1 X70.80 Y159.22 E35.82208
G1 X71.09 Y158.09 E35.87066
G1 X71.31 Y157.49 E35.89722
G1 X71.55 Y156.93 E35.92276
G1 X71.83 Y156.38 E35.94821
G1 X72.16 Y155.83 E35.97479
G1 X72.84 Y154.88 E36.02348
G1 X73.29 Y154.38 E36.05126
G1 X73.95 Y153.75 E36.08935
G1 X73.50 Y152.85 E36.13167
G1 X72.08 Y149.57 E36.27988
G1 X70.88 Y146.22 E36.42810
