;Generated with Cura_SteamEngine 13.12
M140 S100.000000
M109 T0 S255.000000
T0
M190 S100.000000
;Sliced at: Sat 01-03-2014 21:19:32
;Basic settings: Layer height: 0.2 Walls: 1 Fill: 20
;Print time: #P_TIME#
;Filament used: #F_AMNT#m #F_WGHT#g
;Filament cost: #F_COST#
;M190 S100 ;Uncomment to add your own bed temperature line
;M109 S255 ;Uncomment to add your own temperature line
G21        ;metric values
G90        ;absolute positioning
M107       ;start with the fan off
G28 X0 Y0  ;move X/Y to min endstops
G28 Z0     ;move Z to min endstops
G1 Z15.0 F9000 ;move the platform down 15mm
G92 E0                  ;zero the extruded length
G1 F200 E3              ;extrude 3mm of feed stock
G92 E0                  ;zero the extruded length again
G1 F9000
;Put printing message on LCD screen
M117 Printing...

;Layer count: 198
;LAYER:0
M107
G0 F5400 X130.68 Y131.68 Z0.20
;TYPE:SKIRT
G1 F1200 E0.00000
G1 F1800 X177.18 Y131.67 E1.93325
G1 X177.18 Y153.67 E2.84790
G1 X164.98 Y153.67 E3.35512
G1 X164.13 Y151.05 E3.46955
G1 X163.71 Y150.17 E3.50989
G1 X163.19 Y149.35 E3.55062
G1 X162.56 Y148.60 E3.59104
G1 X161.85 Y147.94 E3.63145
G1 X161.09 Y147.38 E3.67077
G1 X160.21 Y146.90 E3.71245
G1 X159.30 Y146.54 E3.75284
G1 X158.36 Y146.31 E3.79316
G1 X157.42 Y146.19 E3.83256
G1 X156.43 Y146.19 E3.87388
G1 X155.46 Y146.31 E3.91441
G1 X154.51 Y146.56 E3.95513
G1 X153.64 Y146.91 E3.99421
G1 X152.77 Y147.39 E4.03573
G1 X151.98 Y147.96 E4.07625
G1 X151.27 Y148.63 E4.11672
G1 X150.66 Y149.38 E4.15701
G1 X150.15 Y150.18 E4.19653
G1 X149.73 Y151.07 E4.23715
G1 X149.43 Y152.01 E4.27846
G1 X149.25 Y152.94 E4.31783
G1 X149.19 Y153.92 E4.35840
G1 X149.25 Y154.89 E4.39910
G1 X149.43 Y155.84 E4.43919
G1 X149.73 Y156.77 E4.47967
G1 X150.15 Y157.65 E4.52029
G1 X150.67 Y158.47 E4.56078
G1 X151.28 Y159.22 E4.60094
G1 X151.99 Y159.88 E4.64138
G1 X152.78 Y160.46 E4.68187
G1 X153.64 Y160.93 E4.72258
G1 X154.54 Y161.28 E4.76272
G1 X155.49 Y161.53 E4.80349
G1 X156.45 Y161.65 E4.84368
G1 X157.42 Y161.65 E4.88418
G1 X158.38 Y161.53 E4.92433
G1 X159.34 Y161.28 E4.96540
G1 X160.22 Y160.93 E5.00506
G1 X161.08 Y160.46 E5.04596
G1 X161.87 Y159.88 E5.08644
G1 X162.58 Y159.22 E5.12688
G1 X163.20 Y158.47 E5.16719
G1 X163.72 Y157.65 E5.20743
G1 X164.13 Y156.77 E5.24803
G1 X164.98 Y154.17 E5.36184
G1 X177.18 Y154.17 E5.86918
G1 X177.18 Y176.17 E6.78383
G1 X130.68 Y176.17 E8.71708
G1 X130.68 Y131.68 E10.56680
G0 F5400 X131.18 Y132.18
G1 F1800 X176.68 Y132.17 E12.45847
G1 X176.68 Y153.17 E13.33155
G1 X165.35 Y153.17 E13.80288
G1 X164.59 Y150.86 E13.90373
G1 X164.15 Y149.93 E13.94665
G1 X163.59 Y149.05 E13.98994
G1 X162.93 Y148.26 E14.03257
G1 X162.17 Y147.55 E14.07593
G1 X161.35 Y146.95 E14.11804
G1 X160.43 Y146.45 E14.16195
G1 X159.46 Y146.07 E14.20505
G1 X158.45 Y145.81 E14.24830
G1 X157.46 Y145.69 E14.29008
G1 X156.40 Y145.69 E14.33407
G1 X155.37 Y145.82 E14.37724
G1 X154.36 Y146.08 E14.42050
G1 X153.43 Y146.45 E14.46231
G1 X152.50 Y146.96 E14.50628
G1 X151.66 Y147.58 E14.54971
G1 X150.91 Y148.29 E14.59235
G1 X150.25 Y149.09 E14.63550
G1 X149.71 Y149.94 E14.67772
G1 X149.27 Y150.88 E14.72064
G1 X148.94 Y151.89 E14.76472
G1 X148.75 Y152.88 E14.80675
G1 X148.69 Y153.92 E14.84991
G1 X148.75 Y154.95 E14.89314
G1 X148.95 Y155.97 E14.93611
G1 X149.27 Y156.95 E14.97913
G1 X149.71 Y157.89 E15.02203
G1 X150.26 Y158.76 E15.06517
G1 X150.92 Y159.56 E15.10816
G1 X151.68 Y160.27 E15.15152
G1 X152.51 Y160.88 E15.19411
G1 X153.43 Y161.38 E15.23758
G1 X154.39 Y161.76 E15.28071
G1 X155.39 Y162.02 E15.32355
G1 X156.41 Y162.15 E15.36659
G1 X157.45 Y162.15 E15.40966
G1 X158.48 Y162.02 E15.45266
G1 X159.48 Y161.76 E15.49583
G1 X160.44 Y161.38 E15.53848
G1 X161.36 Y160.88 E15.58210
G1 X162.19 Y160.27 E15.62469
G1 X162.94 Y159.56 E15.66805
G1 X163.61 Y158.76 E15.71116
G1 X164.16 Y157.89 E15.75396
G1 X164.60 Y156.95 E15.79724
G1 X165.34 Y154.67 E15.89708
G1 X176.68 Y154.67 E16.36854
G1 X176.68 Y175.67 E17.24162
G1 X131.18 Y175.67 E19.13329
G1 X131.18 Y132.18 E20.94144
G0 F5400 X131.68 Y132.68
G1 F1800 X176.18 Y132.67 E22.79153
G1 X176.18 Y152.67 E23.62304
G1 X165.71 Y152.67 E24.05854
G1 X165.06 Y150.68 E24.14551
G1 X164.59 Y149.69 E24.19113
G1 X164.00 Y148.76 E24.23695
G1 X163.29 Y147.91 E24.28265
G1 X162.49 Y147.16 E24.32836
G1 X161.62 Y146.53 E24.37294
G1 X160.63 Y145.99 E24.41966
G1 X159.62 Y145.59 E24.46513
G1 X158.55 Y145.32 E24.51099
G1 X157.49 Y145.19 E24.55550
G1 X156.36 Y145.19 E24.60214
G1 X155.27 Y145.33 E24.64792
G1 X154.21 Y145.61 E24.69375
G1 X153.21 Y146.00 E24.73829
G1 X152.23 Y146.54 E24.78478
G1 X151.34 Y147.19 E24.83060
G1 X150.54 Y147.94 E24.87612
G1 X149.84 Y148.79 E24.92202
G1 X149.27 Y149.70 E24.96659
G1 X148.80 Y150.70 E25.01232
G1 X148.46 Y151.76 E25.05893
G1 X148.26 Y152.82 E25.10354
G1 X148.19 Y153.92 E25.14932
G1 X148.26 Y155.02 E25.19514
G1 X148.46 Y156.09 E25.24068
G1 X148.80 Y157.14 E25.28641
G1 X149.27 Y158.13 E25.33196
G1 X149.86 Y159.06 E25.37769
G1 X150.56 Y159.90 E25.42334
G1 X151.36 Y160.66 E25.46905
G1 X152.24 Y161.30 E25.51453
G1 X153.21 Y161.83 E25.56060
G1 X154.23 Y162.24 E25.60606
G1 X155.29 Y162.51 E25.65177
G1 X156.38 Y162.65 E25.69737
G1 X157.48 Y162.65 E25.74310
G1 X158.57 Y162.51 E25.78866
G1 X159.64 Y162.24 E25.83454
G1 X160.65 Y161.84 E25.87969
G1 X161.62 Y161.30 E25.92591
G1 X162.51 Y160.66 E25.97139
G1 X163.31 Y159.90 E26.01709
G1 X164.01 Y159.06 E26.06286
G1 X164.60 Y158.13 E26.10852
G1 X165.06 Y157.14 E26.15381
G1 X165.71 Y155.17 E26.24024
G1 X176.18 Y155.17 E26.67583
G1 X176.18 Y175.17 E27.50733
G1 X131.68 Y175.17 E29.35742
G1 X131.68 Y132.68 E31.12400
G0 F5400 X132.18 Y133.18
G1 F1800 X175.68 Y133.17 E32.93252
G1 X175.68 Y152.17 E33.72244
G1 X166.07 Y152.17 E34.12211
G1 X165.52 Y150.49 E34.19534
G1 X165.03 Y149.44 E34.24367
G1 X164.40 Y148.47 E34.29178
G1 X163.65 Y147.57 E34.34040
G1 X162.81 Y146.78 E34.38840
G1 X161.89 Y146.11 E34.43588
G1 X160.85 Y145.54 E34.48514
G1 X159.77 Y145.12 E34.53321
G1 X158.64 Y144.83 E34.58173
G1 X157.51 Y144.69 E34.62888
G1 X156.33 Y144.69 E34.67810
G1 X155.18 Y144.84 E34.72643
G1 X154.05 Y145.13 E34.77498
G1 X153.00 Y145.54 E34.82175
G1 X151.96 Y146.12 E34.87128
G1 X151.02 Y146.81 E34.91984
G1 X150.18 Y147.60 E34.96775
G1 X149.44 Y148.50 E35.01612
G1 X148.83 Y149.46 E35.06331
G1 X148.33 Y150.51 E35.11189
G1 X147.97 Y151.64 E35.16089
G1 X147.76 Y152.76 E35.20826
G1 X147.69 Y153.92 E35.25658
G1 X147.76 Y155.08 E35.30498
G1 X147.98 Y156.22 E35.35328
G1 X148.33 Y157.32 E35.40128
G1 X148.83 Y158.37 E35.44984
G1 X149.45 Y159.35 E35.49793
G1 X150.19 Y160.25 E35.54633
G1 X151.04 Y161.04 E35.59444
G1 X151.98 Y161.73 E35.64308
G1 X152.99 Y162.29 E35.69114
G1 X154.07 Y162.71 E35.73942
G1 X155.20 Y163.00 E35.78791
G1 X156.35 Y163.15 E35.83603
G1 X157.51 Y163.15 E35.88434
G1 X158.66 Y163.00 E35.93241
G1 X159.80 Y162.71 E35.98116
G1 X160.87 Y162.29 E36.02900
G1 X161.88 Y161.73 E36.07725
G1 X162.83 Y161.04 E36.12588
G1 X163.67 Y160.25 E36.17400
G1 X164.42 Y159.35 E36.22240
G1 X165.04 Y158.37 E36.27050
G1 X165.53 Y157.32 E36.31901
G1 X166.07 Y155.67 E36.39123
G1 X175.68 Y155.67 E36.79093
G1 X175.68 Y174.67 E37.58086
G1 X132.18 Y174.67 E39.38938
G1 X132.18 Y133.18 E41.11438
G0 F5400 X132.68 Y133.68
G1 F1800 X175.18 Y133.67 E42.88132
G1 X175.18 Y151.67 E43.62967
G1 X166.43 Y151.67 E43.99346
G1 X165.99 Y150.30 E44.05309
G1 X165.47 Y149.20 E44.10373
G1 X164.80 Y148.16 E44.15498
G1 X164.03 Y147.23 E44.20549
G1 X163.12 Y146.39 E44.25679
G1 X162.16 Y145.68 E44.30649
G1 X161.06 Y145.09 E44.35823
G1 X159.92 Y144.64 E44.40933
G1 X158.74 Y144.34 E44.46013
G1 X157.55 Y144.19 E44.50999
G1 X156.30 Y144.19 E44.56188
G1 X155.08 Y144.35 E44.61281
G1 X153.89 Y144.65 E44.66392
G1 X152.79 Y145.09 E44.71342
G1 X151.69 Y145.70 E44.76549
G1 X150.70 Y146.42 E44.81645
G1 X149.81 Y147.26 E44.86745
G1 X149.03 Y148.21 E44.91828
G1 X148.39 Y149.22 E44.96809
G1 X147.87 Y150.33 E45.01897
G1 X147.49 Y151.51 E45.07080
G1 X147.26 Y152.69 E45.12079
G1 X147.18 Y153.92 E45.17170
G1 X147.26 Y155.14 E45.22264
G1 X147.49 Y156.34 E45.27361
G1 X147.87 Y157.51 E45.32457
G1 X148.39 Y158.61 E45.37521
G1 X149.04 Y159.65 E45.42615
G1 X149.83 Y160.59 E45.47721
G1 X150.72 Y161.43 E45.52798
G1 X151.71 Y162.15 E45.57896
G1 X152.78 Y162.74 E45.62987
G1 X153.91 Y163.19 E45.68038
G1 X153.92 Y163.19 E45.68092
G1 X155.10 Y163.49 E45.73161
G1 X156.32 Y163.65 E45.78253
G1 X157.55 Y163.65 E45.83350
G1 X158.76 Y163.49 E45.88437
G1 X159.95 Y163.19 E45.93537
G1 X161.07 Y162.74 E45.98553
G1 X161.09 Y162.74 E45.98621
G1 X162.16 Y162.15 E46.03702
G1 X163.15 Y161.43 E46.08801
G1 X164.04 Y160.59 E46.13877
G1 X164.82 Y159.65 E46.18983
G1 X165.48 Y158.61 E46.24080
G1 X166.00 Y157.51 E46.29142
G1 X166.43 Y156.17 E46.35012
G1 X175.18 Y156.17 E46.71395
G1 X175.18 Y174.17 E47.46230
G1 X132.68 Y174.17 E49.22925
G1 X132.68 Y133.68 E50.91267
G0 F5400 X141.31 Y141.01
G1 F1800 X141.08 Y141.36 E50.93021
G1 X140.91 Y141.72 E50.94684
G1 X140.79 Y142.11 E50.96354
G1 X140.71 Y142.51 E50.98059
G1 X140.68 Y142.92 E50.99755
G1 X140.71 Y143.32 E51.01416
G1 X140.79 Y143.73 E51.03161
G1 X140.91 Y144.11 E51.04846
G1 X141.09 Y144.48 E51.06544
G1 X141.30 Y144.82 E51.08232
G1 X141.57 Y145.14 E51.09941
G1 X141.86 Y145.42 E51.11630
G1 X142.19 Y145.66 E51.13314
G1 X142.55 Y145.86 E51.15043
G1 X142.93 Y146.01 E51.16710
G1 X143.32 Y146.11 E51.18414
G1 X143.73 Y146.16 E51.20111
G1 X144.14 Y146.16 E51.21812
G1 X144.54 Y146.11 E51.23509
G1 X144.94 Y146.01 E51.25213
G1 X145.31 Y145.86 E51.26880
G1 X145.68 Y145.66 E51.28608
G1 X146.01 Y145.42 E51.30297
G1 X146.30 Y145.14 E51.31979
G1 X146.56 Y144.82 E51.33692
G1 X146.78 Y144.48 E51.35382
G1 X146.95 Y144.11 E51.37078
G1 X147.08 Y143.73 E51.38765
G1 X147.16 Y143.32 E51.40471
G1 X147.18 Y142.90 E51.42232
G1 X147.16 Y142.51 E51.43866
G1 X147.08 Y142.10 E51.45593
G1 X146.95 Y141.71 E51.47299
G1 X146.78 Y141.35 E51.48973
G1 X146.55 Y141.00 E51.50701
G1 X146.30 Y140.69 E51.52366
G1 X146.00 Y140.41 E51.54090
G1 X145.66 Y140.17 E51.55784
G1 X145.31 Y139.97 E51.57456
G1 X144.93 Y139.82 E51.59174
G1 X144.53 Y139.72 E51.60861
G1 X144.14 Y139.67 E51.62525
G1 X143.72 Y139.67 E51.64250
G1 X143.32 Y139.73 E51.65948
G1 X142.92 Y139.83 E51.67636
G1 X142.55 Y139.98 E51.69321
G1 X142.19 Y140.18 E51.71035
G1 X141.85 Y140.42 E51.72757
G1 X141.56 Y140.69 E51.74422
G1 X141.31 Y141.01 E51.76091
G0 F5400 X143.72 Y161.67
G1 F1800 X143.32 Y161.73 E51.77788
G1 X142.92 Y161.83 E51.79476
G1 X142.55 Y161.98 E51.81162
G1 X142.19 Y162.18 E51.82875
G1 X141.85 Y162.42 E51.84597
G1 X141.56 Y162.69 E51.86262
G1 X141.31 Y163.01 E51.87931
G1 X141.08 Y163.36 E51.89686
G1 X140.91 Y163.72 E51.91348
G1 X140.79 Y164.11 E51.93018
G1 X140.71 Y164.51 E51.94724
G1 X140.68 Y164.92 E51.96419
G1 X140.71 Y165.32 E51.98081
G1 X140.79 Y165.73 E51.99825
G1 X140.91 Y166.11 E52.01511
G1 X141.09 Y166.48 E52.03209
G1 X141.30 Y166.82 E52.04896
G1 X141.57 Y167.14 E52.06606
G1 X141.86 Y167.42 E52.08294
G1 X142.19 Y167.66 E52.09979
G1 X142.55 Y167.86 E52.11708
G1 X142.93 Y168.01 E52.13374
G1 X143.32 Y168.11 E52.15079
G1 X143.73 Y168.16 E52.16776
G1 X144.14 Y168.16 E52.18476
G1 X144.54 Y168.11 E52.20173
G1 X144.94 Y168.01 E52.21877
G1 X145.31 Y167.86 E52.23544
G1 X145.68 Y167.66 E52.25273
G1 X146.01 Y167.42 E52.26961
G1 X146.30 Y167.14 E52.28644
G1 X146.56 Y166.82 E52.30357
G1 X146.78 Y166.48 E52.32046
G1 X146.95 Y166.11 E52.33742
G1 X147.08 Y165.73 E52.35429
G1 X147.16 Y165.32 E52.37135
G1 X147.18 Y164.90 E52.38897
G1 X147.16 Y164.51 E52.40530
G1 X147.08 Y164.10 E52.42257
G1 X146.95 Y163.71 E52.43964
G1 X146.78 Y163.35 E52.45638
G1 X146.55 Y163.00 E52.47365
G1 X146.30 Y162.69 E52.49030
G1 X146.00 Y162.41 E52.50754
G1 X145.66 Y162.17 E52.52448
G1 X145.31 Y161.97 E52.54121
G1 X144.93 Y161.82 E52.55838
G1 X144.53 Y161.72 E52.57525
G1 X144.14 Y161.67 E52.59189
G1 X143.72 Y161.67 E52.60914
G0 F5400 X166.71 Y164.51
G1 F1800 X166.68 Y164.92 E52.62610
G1 X166.71 Y165.32 E52.64272
G1 X166.79 Y165.73 E52.66016
G1 X166.91 Y166.11 E52.67701
G1 X167.09 Y166.48 E52.69399
G1 X167.30 Y166.82 E52.71087
G1 X167.57 Y167.14 E52.72796
G1 X167.86 Y167.42 E52.74485
G1 X168.19 Y167.66 E52.76170
G1 X168.55 Y167.86 E52.77898
G1 X168.93 Y168.01 E52.79565
G1 X169.32 Y168.11 E52.81269
G1 X169.73 Y168.16 E52.82966
G1 X170.14 Y168.16 E52.84667
G1 X170.54 Y168.11 E52.86364
G1 X170.94 Y168.01 E52.88068
G1 X171.31 Y167.86 E52.89735
G1 X171.68 Y167.66 E52.91464
G1 X172.01 Y167.42 E52.93152
G1 X172.30 Y167.14 E52.94834
G1 X172.56 Y166.82 E52.96547
G1 X172.78 Y166.48 E52.98237
G1 X172.95 Y166.11 E52.99933
G1 X173.08 Y165.73 E53.01620
G1 X173.16 Y165.32 E53.03326
G1 X173.18 Y164.90 E53.05088
G1 X173.16 Y164.51 E53.06721
G1 X173.08 Y164.10 E53.08448
G1 X172.95 Y163.71 E53.10154
G1 X172.78 Y163.35 E53.11828
G1 X172.55 Y163.00 E53.13556
G1 X172.30 Y162.69 E53.15221
G1 X172.00 Y162.41 E53.16945
G1 X171.66 Y162.17 E53.18639
G1 X171.31 Y161.97 E53.20311
G1 X170.93 Y161.82 E53.22029
G1 X170.53 Y161.72 E53.23716
G1 X170.14 Y161.67 E53.25380
G1 X169.72 Y161.67 E53.27105
G1 X169.32 Y161.73 E53.28803
G1 X168.92 Y161.83 E53.30491
G1 X168.55 Y161.98 E53.32176
G1 X168.19 Y162.18 E53.33890
G1 X167.85 Y162.42 E53.35612
G1 X167.56 Y162.69 E53.37277
G1 X167.31 Y163.01 E53.38946
G1 X167.08 Y163.36 E53.40700
G1 X166.91 Y163.72 E53.42363
G1 X166.79 Y164.11 E53.44033
G1 X166.71 Y164.51 E53.45738
G0 F5400 X169.32 Y146.11
G1 F1800 X169.73 Y146.16 E53.47435
G1 X170.14 Y146.16 E53.49136
G1 X170.54 Y146.11 E53.50833
G1 X170.94 Y146.01 E53.52537
G1 X171.31 Y145.86 E53.54204
G1 X171.68 Y145.66 E53.55933
G1 X172.01 Y145.42 E53.57621
G1 X172.30 Y145.14 E53.59303
G1 X172.56 Y144.82 E53.61016
G1 X172.78 Y144.48 E53.62706
G1 X172.95 Y144.11 E53.64402
G1 X173.08 Y143.73 E53.66089
G1 X173.16 Y143.32 E53.67795
G1 X173.18 Y142.90 E53.69557
G1 X173.16 Y142.51 E53.71190
G1 X173.08 Y142.10 E53.72917
G1 X172.95 Y141.71 E53.74624
G1 X172.78 Y141.35 E53.76297
G1 X172.55 Y141.00 E53.78025
G1 X172.30 Y140.69 E53.79690
G1 X172.00 Y140.41 E53.81414
G1 X171.66 Y140.17 E53.83108
G1 X171.31 Y139.97 E53.84780
G1 X170.93 Y139.82 E53.86498
G1 X170.53 Y139.72 E53.88185
G1 X170.14 Y139.67 E53.89849
G1 X169.72 Y139.67 E53.91574
G1 X169.32 Y139.73 E53.93272
G1 X168.92 Y139.83 E53.94960
G1 X168.55 Y139.98 E53.96645
G1 X168.19 Y140.18 E53.98359
G1 X167.85 Y140.42 E54.00081
G1 X167.56 Y140.69 E54.01746
G1 X167.31 Y141.01 E54.03415
G1 X167.08 Y141.36 E54.05169
G1 X166.91 Y141.72 E54.06832
G1 X166.79 Y142.11 E54.08502
G1 X166.71 Y142.51 E54.10207
G1 X166.68 Y142.92 E54.11903
G1 X166.71 Y143.32 E54.13565
G1 X166.79 Y143.73 E54.15309
G1 X166.91 Y144.11 E54.16994
G1 X167.09 Y144.48 E54.18692
G1 X167.30 Y144.82 E54.20380
G1 X167.57 Y145.14 E54.22089
G1 X167.86 Y145.42 E54.23778
G1 X168.19 Y145.66 E54.25463
G1 X168.55 Y145.86 E54.27191
G1 X168.93 Y146.01 E54.28858
G1 X169.32 Y146.11 E54.30562
G0 F5400 X169.14 Y147.09
;TYPE:WALL-INNER
G1 F1800 X169.67 Y147.16 E54.32779
G1 X170.20 Y147.16 E54.34995
G1 X170.73 Y147.09 E54.37212
G1 X171.25 Y146.96 E54.39434
G1 X171.74 Y146.76 E54.41657
G1 X172.21 Y146.51 E54.43873
G1 X172.64 Y146.19 E54.46097
G1 X173.03 Y145.83 E54.48318
G1 X173.37 Y145.41 E54.50535
G1 X173.66 Y144.97 E54.52752
G1 X173.89 Y144.48 E54.54973
G1 X174.05 Y143.97 E54.57193
G1 X174.15 Y143.45 E54.59415
G1 X174.18 Y142.94 E54.61540
G1 X174.18 Y150.67 E54.93665
G1 X167.16 Y150.67 E55.22871
G1 X166.92 Y149.94 E55.26070
G1 X166.34 Y148.71 E55.31685
G1 X165.61 Y147.58 E55.37299
G1 X164.75 Y146.54 E55.42914
G1 X163.76 Y145.62 E55.48517
G1 X162.69 Y144.84 E55.54029
G1 X161.49 Y144.18 E55.59752
G1 X160.23 Y143.69 E55.65358
G1 X158.92 Y143.35 E55.70969
G1 X157.61 Y143.19 E55.76480
G1 X156.23 Y143.19 E55.82197
G1 X154.89 Y143.36 E55.87813
G1 X153.59 Y143.70 E55.93424
G1 X152.35 Y144.19 E55.98932
G1 X151.15 Y144.85 E56.04650
G1 X150.06 Y145.65 E56.10267
G1 X149.08 Y146.58 E56.15879
G1 X148.22 Y147.62 E56.21487
G1 X147.51 Y148.74 E56.26995
G1 X146.94 Y149.96 E56.32610
G1 X146.51 Y151.27 E56.38323
G1 X146.27 Y152.57 E56.43834
G1 X146.18 Y153.92 E56.49445
G1 X146.27 Y155.26 E56.55060
G1 X146.52 Y156.59 E56.60672
G1 X146.94 Y157.87 E56.66285
G1 X147.51 Y159.10 E56.71900
G1 X148.23 Y160.24 E56.77512
