;Generated with Cura_SteamEngine 13.12
M140 S100.000000
M109 T0 S255.000000
T0
M190 S100.000000
;Sliced at: Tue 04-03-2014 20:47:03
;Basic settings: Layer height: 0.2 Walls: 1 Fill: 20
;Print time: #P_TIME#
;Filament used: #F_AMNT#m #F_WGHT#g
;Filament cost: #F_COST#
;M190 S100 ;Uncomment to add your own bed temperature line
;M109 S255 ;Uncomment to add your own temperature line
G21        ;metric values
G90        ;absolute positioning
M107       ;start with the fan off
G28 X0 Y0  ;move X/Y to min endstops
G28 Z0     ;move Z to min endstops
G1 Z15.0 F9000 ;move the platform down 15mm
G92 E0                  ;zero the extruded length
G1 F200 E3              ;extrude 3mm of feed stock
G92 E0                  ;zero the extruded length again
G1 F9000
;Put printing message on LCD screen
M117 Printing...

;Layer count: 60
;LAYER:0
M107
G0 F9000 X166.74 Y166.75 Z0.20
;TYPE:SKIRT
G1 F1200 E0.00000
G1 F3000 X186.24 Y166.75 E0.81072
G1 X186.24 Y179.25 E1.33057
G1 X166.74 Y179.25 E2.14129
G1 X166.74 Y166.75 E2.66114
G0 F9000 X167.24 Y167.25
G1 F3000 X185.74 Y167.25 E3.43028
G1 X185.74 Y178.75 E3.90856
G1 X167.24 Y178.75 E4.67771
G1 X167.24 Y167.25 E5.15599
G0 F9000 X167.74 Y167.75
G1 F3000 X185.24 Y167.75 E5.88355
G1 X185.24 Y178.25 E6.32026
G1 X167.74 Y178.25 E7.04782
G1 X167.74 Y167.75 E7.48453
G0 F9000 X168.24 Y168.25
G1 F3000 X184.74 Y168.25 E8.17052
G1 X184.74 Y177.75 E8.56565
G1 X168.24 Y177.75 E9.25164
G1 X168.24 Y168.25 E9.64677
G0 F9000 X168.74 Y168.75
G1 F3000 X184.24 Y168.75 E10.29118
G1 X184.24 Y177.25 E10.64474
G1 X168.74 Y177.25 E11.28916
G1 X168.74 Y168.75 E11.64271
G0 F9000 X169.74 Y169.75
;TYPE:WALL-INNER
G1 F3000 X183.24 Y169.75 E12.20398
G1 X183.24 Y176.25 E12.47438
G1 X179.11 Y176.25 E12.64604
G1 X179.25 Y176.12 E12.65396
G1 X179.50 Y175.82 E12.67020
G1 X179.71 Y175.49 E12.68640
G1 X179.88 Y175.14 E12.70258
G1 X180.00 Y174.77 E12.71875
G1 X180.07 Y174.39 E12.73496
G1 X180.09 Y173.99 E12.75163
G1 X180.07 Y173.60 E12.76788
G1 X179.99 Y173.22 E12.78406
G1 X179.87 Y172.85 E12.80021
G1 X179.70 Y172.49 E12.81646
G1 X179.49 Y172.16 E12.83265
G1 X179.24 Y171.87 E12.84883
G1 X178.96 Y171.60 E12.86495
G1 X178.64 Y171.37 E12.88117
G1 X178.30 Y171.19 E12.89739
G1 X177.94 Y171.05 E12.91345
G1 X177.57 Y170.95 E12.92924
G1 X177.18 Y170.90 E12.94550
G1 X176.78 Y170.90 E12.96213
G1 X176.40 Y170.95 E12.97831
G1 X176.02 Y171.05 E12.99454
G1 X175.66 Y171.20 E13.01073
G1 X175.32 Y171.39 E13.02692
G1 X175.01 Y171.62 E13.04309
G1 X174.72 Y171.88 E13.05930
G1 X174.47 Y172.19 E13.07549
G1 X174.27 Y172.51 E13.09168
G1 X174.10 Y172.87 E13.10781
G1 X173.99 Y173.23 E13.12356
G1 X173.91 Y173.61 E13.13981
G1 X173.89 Y174.00 E13.15589
G1 X173.91 Y174.37 E13.17159
G1 X173.99 Y174.77 E13.18834
G1 X174.11 Y175.14 E13.20454
G1 X174.27 Y175.49 E13.22064
G1 X174.48 Y175.82 E13.23688
G1 X174.73 Y176.12 E13.25312
G1 X174.87 Y176.25 E13.26104
G1 X169.74 Y176.25 E13.47423
G1 X169.74 Y169.75 E13.74464
G0 F9000 X169.24 Y169.25
;TYPE:WALL-OUTER
G1 F3000 X183.74 Y169.25 E14.34748
G1 X183.74 Y176.75 E14.65946
G1 X169.24 Y176.75 E15.26230
G1 X169.24 Y169.25 E15.57428
G0 F9000 X169.59 Y169.51
G0 X174.41 Y172.57
G0 X174.71 Y172.75
G1 F3000 X174.57 Y173.05 E15.58784
G1 X174.47 Y173.35 E15.60105
G1 X174.41 Y173.67 E15.61464
G1 X174.39 Y174.00 E15.62817
G1 X174.41 Y174.31 E15.64129
G1 X174.47 Y174.65 E15.65533
G1 X174.57 Y174.96 E15.66890
G1 X174.71 Y175.25 E15.68244
G1 X174.89 Y175.53 E15.69606
G1 X175.10 Y175.78 E15.70967
G1 X175.33 Y176.00 E15.72326
G1 X175.60 Y176.19 E15.73678
G1 X175.88 Y176.35 E15.75038
G1 X176.19 Y176.47 E15.76395
G1 X176.50 Y176.55 E15.77753
G1 X176.83 Y176.59 E15.79110
G1 X177.15 Y176.59 E15.80470
G1 X177.48 Y176.55 E15.81828
G1 X177.79 Y176.47 E15.83185
G1 X178.10 Y176.35 E15.84542
G1 X178.38 Y176.19 E15.85903
G1 X178.65 Y176.00 E15.87254
G1 X178.89 Y175.78 E15.88613
G1 X179.10 Y175.53 E15.89974
G1 X179.27 Y175.25 E15.91333
G1 X179.41 Y174.96 E15.92692
G1 X179.51 Y174.65 E15.94048
G1 X179.57 Y174.32 E15.95406
G1 X179.59 Y173.99 E15.96806
G1 X179.57 Y173.66 E15.98165
G1 X179.51 Y173.34 E15.99521
G1 X179.41 Y173.03 E16.00876
G1 X179.26 Y172.74 E16.02239
G1 X179.09 Y172.46 E16.03593
G1 X178.88 Y172.21 E16.04948
G1 X178.64 Y171.99 E16.06304
G1 X178.38 Y171.80 E16.07665
G1 X178.09 Y171.64 E16.09023
G1 X177.79 Y171.52 E16.10376
G1 X177.48 Y171.44 E16.11694
G1 X177.15 Y171.40 E16.13056
G1 X176.82 Y171.40 E16.14453
G1 X176.49 Y171.45 E16.15811
G1 X176.18 Y171.53 E16.17169
G1 X175.87 Y171.65 E16.18527
G1 X175.59 Y171.81 E16.19881
G1 X175.33 Y172.00 E16.21240
G1 X175.09 Y172.23 E16.22599
G1 X174.88 Y172.48 E16.23955
G1 X174.71 Y172.75 E16.25311
G0 F9000 X174.15 Y172.38
;TYPE:FILL
G1 F4200 X171.68 Y169.91 E16.39852
G0 F9000 X170.97 Y169.91
G1 F4200 X173.93 Y172.87 E16.57235
G0 F9000 X173.78 Y173.43
G1 F4200 X170.27 Y169.91 E16.77893
G0 F9000 X169.91 Y170.26
G1 F4200 X173.73 Y174.08 E17.00376
G0 F9000 X173.86 Y174.92
G1 F4200 X169.91 Y170.97 E17.23648
G0 F9000 X169.91 Y171.67
G1 F4200 X174.32 Y176.09 E17.49592
G0 F9000 X173.61 Y176.09
G1 F4200 X169.91 Y172.38 E17.71376
G0 F9000 X169.91 Y173.09
G1 F4200 X172.90 Y176.09 E17.89003
G0 F9000 X172.20 Y176.09
G1 F4200 X169.91 Y173.79 E18.02473
G0 F9000 X169.91 Y174.50
G1 F4200 X171.49 Y176.09 E18.11786
G0 F9000 X170.78 Y176.09
G1 F4200 X169.91 Y175.21 E18.16940
G0 F9000 X169.91 Y175.92
G1 F4200 X170.07 Y176.09 E18.17936
G0 F9000 X174.44 Y171.97
G1 F4200 X172.39 Y169.91 E18.30013
G0 F9000 X173.09 Y169.91
G1 F4200 X174.78 Y171.60 E18.39932
G0 F9000 X175.17 Y171.29
G1 F4200 X173.80 Y169.91 E18.48005
G0 F9000 X174.51 Y169.91
G1 F4200 X175.63 Y171.03 E18.54587
G0 F9000 X176.15 Y170.85
G1 F4200 X175.22 Y169.91 E18.60076
G0 F9000 X175.92 Y169.91
G1 F4200 X176.75 Y170.74 E18.64944
G0 F9000 X177.49 Y170.78
G1 F4200 X176.63 Y169.91 E18.70015
G0 F9000 X177.34 Y169.91
G1 F4200 X178.57 Y171.15 E18.77288
G0 F9000 X178.75 Y169.91
G1 F4200 X183.07 Y174.24 E19.02709
G0 F9000 X183.07 Y174.94
G1 F4200 X178.04 Y169.91 E19.32286
G0 F9000 X179.46 Y169.91
G1 F4200 X183.07 Y173.53 E19.53547
G0 F9000 X183.07 Y172.82
G1 F4200 X180.16 Y169.91 E19.70651
G0 F9000 X180.87 Y169.91
G1 F4200 X183.07 Y172.11 E19.83597
G0 F9000 X183.07 Y171.41
G1 F4200 X181.58 Y169.91 E19.92385
G0 F9000 X182.29 Y169.91
G1 F4200 X183.07 Y170.70 E19.97015
G0 F9000 X183.07 Y169.99
G1 F4200 X182.99 Y169.91 E19.97488
G0 F9000 X179.85 Y172.43
G1 F4200 X183.07 Y175.65 E20.16441
G0 F9000 X182.80 Y176.09
G1 F4200 X180.21 Y173.50 E20.31678
G0 F9000 X180.24 Y174.23
G1 F4200 X182.10 Y176.09 E20.42585
G0 F9000 X181.39 Y176.09
G1 F4200 X180.14 Y174.84 E20.49917
G0 F9000 X179.95 Y175.36
G1 F4200 X180.68 Y176.09 E20.54209
G0 F9000 X179.98 Y176.09
G1 F4200 X179.70 Y175.81 E20.55832
;LAYER:1
M106 S127
G0 F9000 X179.50 Y175.82 Z0.40
;TYPE:WALL-INNER
G1 F3000 X179.71 Y175.49 E20.57452
G1 X179.88 Y175.14 E20.59070
G1 X180.00 Y174.77 E20.60687
G1 X180.07 Y174.39 E20.62307
G1 X180.09 Y173.99 E20.63945
G1 X180.06 Y173.55 E20.65800
G1 X179.87 Y172.84 E20.68840
G1 X179.69 Y172.47 E20.70556
G1 X179.48 Y172.15 E20.72158
G1 X179.25 Y171.87 E20.73655
G1 X178.94 Y171.59 E20.75408
G1 X178.62 Y171.36 E20.77033
G1 X178.28 Y171.18 E20.78654
G1 X177.92 Y171.04 E20.80246
G1 X177.57 Y170.95 E20.81734
G1 X177.18 Y170.90 E20.83364
G1 X176.76 Y170.91 E20.85127
G1 X176.37 Y170.96 E20.86744
G1 X176.00 Y171.06 E20.88369
G1 X175.64 Y171.21 E20.89987
G1 X175.30 Y171.40 E20.91584
G1 X175.01 Y171.61 E20.93083
G1 X174.71 Y171.90 E20.94833
G1 X174.46 Y172.21 E20.96456
G1 X174.26 Y172.54 E20.98078
G1 X174.10 Y172.89 E20.99695
G1 X173.98 Y173.26 E21.01294
G1 X173.91 Y173.61 E21.02776
G1 X173.89 Y174.00 E21.04392
G1 X173.91 Y174.39 E21.06008
G1 X173.99 Y174.77 E21.07637
G1 X174.11 Y175.14 E21.09253
G1 X174.27 Y175.49 E21.10863
G1 X174.48 Y175.82 E21.12487
G1 X174.73 Y176.12 E21.14111
G1 X174.89 Y176.28 E21.15044
G1 X169.74 Y176.28 E21.36468
G1 X169.74 Y169.75 E21.63604
G1 X183.24 Y169.75 E22.19730
G1 X183.24 Y176.27 E22.46862
G1 X179.09 Y176.27 E22.64128
G1 X179.25 Y176.12 E22.65055
G1 X179.50 Y175.82 E22.66679
G0 F9000 X179.10 Y175.53
;TYPE:WALL-OUTER
G1 F3000 X179.27 Y175.25 E22.68038
G1 X179.41 Y174.96 E22.69397
G1 X179.51 Y174.65 E22.70753
G1 X179.57 Y174.32 E22.72110
G1 X179.59 Y174.00 E22.73473
G1 X179.57 Y173.63 E22.74991
G1 X179.40 Y173.02 E22.77635
G1 X179.25 Y172.72 E22.79022
G1 X179.08 Y172.45 E22.80375
G1 X178.89 Y172.22 E22.81612
G1 X178.62 Y171.98 E22.83095
G1 X178.36 Y171.79 E22.84452
G1 X178.07 Y171.63 E22.85811
G1 X177.76 Y171.52 E22.87161
G1 X177.48 Y171.44 E22.88393
G1 X177.15 Y171.40 E22.89755
G1 X176.79 Y171.41 E22.91243
G1 X176.47 Y171.45 E22.92599
G1 X176.16 Y171.54 E22.93959
G1 X175.85 Y171.66 E22.95314
G1 X175.57 Y171.82 E22.96663
G1 X175.33 Y172.00 E22.97901
G1 X175.07 Y172.24 E22.99380
G1 X174.87 Y172.50 E23.00737
G1 X174.70 Y172.77 E23.02096
G1 X174.56 Y173.07 E23.03456
G1 X174.47 Y173.38 E23.04807
G1 X174.41 Y173.67 E23.06039
G1 X174.39 Y174.00 E23.07392
G1 X174.41 Y174.32 E23.08750
G1 X174.47 Y174.65 E23.10112
G1 X174.57 Y174.96 E23.11465
G1 X174.71 Y175.25 E23.12819
G1 X174.89 Y175.53 E23.14181
G1 X175.10 Y175.78 E23.15542
G1 X175.33 Y176.00 E23.16902
G1 X175.60 Y176.19 E23.18253
G1 X175.88 Y176.35 E23.19613
G1 X176.19 Y176.47 E23.20971
G1 X176.50 Y176.55 E23.22328
G1 X176.83 Y176.59 E23.23686
G1 X177.15 Y176.59 E23.25045
G1 X177.48 Y176.55 E23.26403
G1 X177.79 Y176.47 E23.27760
G1 X178.10 Y176.35 E23.29117
G1 X178.38 Y176.19 E23.30478
G1 X178.65 Y176.00 E23.31829
G1 X178.89 Y175.78 E23.33188
G1 X179.10 Y175.53 E23.34549
G0 F9000 X179.36 Y175.75
G0 X183.39 Y176.51
G0 X183.74 Y176.77
G1 F3000 X169.24 Y176.78 E23.94833
G1 X169.24 Y169.25 E24.26127
G1 X183.74 Y169.25 E24.86411
G1 X183.74 Y176.77 E25.17701
G0 F9000 X182.75 Y176.11
;TYPE:FILL
G1 F4200 X183.07 Y175.78 E25.19626
G0 F9000 X183.07 Y175.07
G1 F4200 X182.04 Y176.11 E25.25709
G0 F9000 X181.33 Y176.11
G1 F4200 X183.07 Y174.37 E25.35948
G0 F9000 X183.07 Y173.66
G1 F4200 X180.63 Y176.11 E25.50344
G0 F9000 X179.92 Y176.11
G1 F4200 X183.07 Y172.95 E25.68897
G0 F9000 X183.07 Y172.25
G1 F4200 X179.95 Y175.37 E25.87289
G0 F9000 X180.23 Y174.38
G1 F4200 X183.07 Y171.54 E26.04004
G0 F9000 X183.07 Y170.83
G1 F4200 X180.23 Y173.67 E26.20703
G0 F9000 X180.11 Y173.09
G1 F4200 X183.07 Y170.12 E26.38147
G0 F9000 X182.58 Y169.91
G1 F4200 X179.92 Y172.57 E26.53781
G0 F9000 X179.66 Y172.13
G1 F4200 X181.87 Y169.91 E26.66793
G0 F9000 X181.17 Y169.91
G1 F4200 X179.34 Y171.74 E26.77514
G0 F9000 X178.97 Y171.41
G1 F4200 X180.46 Y169.91 E26.86296
G0 F9000 X179.75 Y169.91
G1 F4200 X178.54 Y171.13 E26.93451
G0 F9000 X178.04 Y170.91
G1 F4200 X179.04 Y169.91 E26.99328
G0 F9000 X178.34 Y169.91
G1 F4200 X177.48 Y170.77 E27.04390
G0 F9000 X176.80 Y170.74
G1 F4200 X177.63 Y169.91 E27.09258
G0 F9000 X176.92 Y169.91
G1 F4200 X175.92 Y170.91 E27.15132
G0 F9000 X176.22 Y169.91
G1 F4200 X170.02 Y176.11 E27.51571
G0 F9000 X169.91 Y175.51
G1 F4200 X175.51 Y169.91 E27.84515
G0 F9000 X174.80 Y169.91
G1 F4200 X169.91 Y174.81 E28.13301
G0 F9000 X169.91 Y174.10
G1 F4200 X174.10 Y169.91 E28.37931
G0 F9000 X173.39 Y169.91
G1 F4200 X169.91 Y173.39 E28.58401
G0 F9000 X169.91 Y172.69
G1 F4200 X172.68 Y169.91 E28.74714
G0 F9000 X171.97 Y169.91
G1 F4200 X169.91 Y171.98 E28.86870
G0 F9000 X169.91 Y171.27
G1 F4200 X171.27 Y169.91 E28.94866
G0 F9000 X170.56 Y169.91
G1 F4200 X169.91 Y170.57 E28.98706
G0 F9000 X173.91 Y172.92
G1 F4200 X170.72 Y176.11 E29.17435
G0 F9000 X171.43 Y176.11
G1 F4200 X173.74 Y173.81 E29.30970
G0 F9000 X173.76 Y174.49
G1 F4200 X172.14 Y176.11 E29.40518
G0 F9000 X172.85 Y176.11
G1 F4200 X173.91 Y175.05 E29.46739
G0 F9000 X174.12 Y175.55
G1 F4200 X173.91 Y176.11 E29.50038
G1 X174.40 Y175.98 E29.52140
;LAYER:2
M106 S255
G0 F9000 X174.48 Y175.82 Z0.60
;TYPE:WALL-INNER
G1 F3000 X174.73 Y176.12 E29.53765
G1 X174.94 Y176.32 E29.54953
G1 X169.74 Y176.32 E29.76564
G1 X169.74 Y169.75 E30.03874
G1 X183.24 Y169.75 E30.60001
G1 X183.24 Y176.32 E30.87307
G1 X179.04 Y176.32 E31.04761
G1 X179.25 Y176.12 E31.05943
G1 X179.50 Y175.82 E31.07567
G1 X179.71 Y175.49 E31.09188
G1 X179.88 Y175.14 E31.10806
G1 X180.00 Y174.77 E31.12423
G1 X180.07 Y174.39 E31.14043
G1 X180.09 Y173.99 E31.15693
G1 X180.06 Y173.55 E31.17545
G1 X179.98 Y173.17 E31.19165
G1 X179.85 Y172.80 E31.20784
G1 X179.68 Y172.46 E31.22372
G1 X179.50 Y172.17 E31.23785
G1 X179.21 Y171.83 E31.25634
G1 X178.92 Y171.57 E31.27258
G1 X178.60 Y171.35 E31.28874
G1 X178.25 Y171.17 E31.30488
G1 X177.87 Y171.03 E31.32184
G1 X177.20 Y170.90 E31.35020
G1 X176.73 Y170.91 E31.36958
G1 X176.35 Y170.97 E31.38584
G1 X175.97 Y171.07 E31.40198
G1 X175.61 Y171.22 E31.41825
G1 X175.26 Y171.43 E31.43519
G1 X174.74 Y171.86 E31.46346
G1 X174.45 Y172.22 E31.48255
G1 X174.27 Y172.51 E31.49673
G1 X174.09 Y172.92 E31.51523
G1 X173.98 Y173.28 E31.53113
G1 X173.91 Y173.61 E31.54506
G1 X173.89 Y174.00 E31.56118
G1 X173.91 Y174.39 E31.57734
G1 X173.99 Y174.77 E31.59363
G1 X174.11 Y175.14 E31.60979
G1 X174.27 Y175.49 E31.62589
G1 X174.48 Y175.82 E31.64213
G0 F9000 X174.89 Y175.53
;TYPE:WALL-OUTER
G1 F3000 X175.10 Y175.78 E31.65574
G1 X175.33 Y176.00 E31.66933
G1 X175.60 Y176.19 E31.68285
G1 X175.88 Y176.35 E31.69645
G1 X176.19 Y176.47 E31.71002
G1 X176.50 Y176.55 E31.72360
G1 X176.83 Y176.59 E31.73718
G1 X177.15 Y176.59 E31.75077
G1 X177.48 Y176.55 E31.76435
G1 X177.79 Y176.47 E31.77792
G1 X178.10 Y176.35 E31.79149
G1 X178.38 Y176.19 E31.80510
G1 X178.65 Y176.00 E31.81861
G1 X178.89 Y175.78 E31.83220
G1 X179.10 Y175.53 E31.84581
G1 X179.27 Y175.25 E31.85940
G1 X179.41 Y174.96 E31.87300
G1 X179.51 Y174.65 E31.88655
G1 X179.57 Y174.32 E31.90013
G1 X179.59 Y174.00 E31.91380
G1 X179.56 Y173.62 E31.92948
G1 X179.49 Y173.30 E31.94304
G1 X179.39 Y172.99 E31.95664
G1 X179.24 Y172.70 E31.97010
G1 X179.09 Y172.47 E31.98163
G1 X178.85 Y172.18 E31.99731
G1 X178.60 Y171.96 E32.01088
G1 X178.34 Y171.78 E32.02445
G1 X178.05 Y171.63 E32.03802
G1 X177.74 Y171.51 E32.05182
G1 X177.16 Y171.40 E32.07625
G1 X176.78 Y171.41 E32.09222
G1 X176.45 Y171.46 E32.10584
G1 X176.14 Y171.54 E32.11938
G1 X175.84 Y171.67 E32.13301
G1 X175.55 Y171.84 E32.14681
G1 X175.10 Y172.21 E32.17122
G1 X174.86 Y172.51 E32.18711
G1 X174.71 Y172.75 E32.19864
G1 X174.56 Y173.09 E32.21431
G1 X174.41 Y173.67 E32.23926
G1 X174.39 Y174.00 E32.25279
G1 X174.41 Y174.32 E32.26637
G1 X174.47 Y174.65 E32.28000
G1 X174.57 Y174.96 E32.29353
G1 X174.71 Y175.25 E32.30707
G1 X174.89 Y175.53 E32.32069
G0 F9000 X174.62 Y175.75
G0 X169.50 Y176.47
G0 X169.24 Y176.82
G1 F3000 X169.24 Y169.25 E32.63537
G1 X183.74 Y169.25 E33.23821
G1 X183.74 Y176.82 E33.55285
G1 X169.24 Y176.82 E34.15569
G0 F9000 X169.91 Y175.92
;TYPE:FILL
G1 F4200 X170.14 Y176.15 E34.16948
G0 F9000 X170.85 Y176.15
G1 F4200 X169.91 Y175.21 E34.22484
G0 F9000 X169.91 Y174.50
G1 F4200 X171.55 Y176.15 E34.32179
G0 F9000 X172.26 Y176.15
G1 F4200 X169.91 Y173.79 E34.46031
G0 F9000 X169.91 Y173.09
G1 F4200 X172.97 Y176.15 E34.64041
G0 F9000 X173.68 Y176.15
G1 F4200 X169.91 Y172.38 E34.86210
G0 F9000 X169.91 Y171.67
G1 F4200 X174.38 Y176.15 E35.12536
G0 F9000 X173.86 Y174.92
G1 F4200 X169.91 Y170.97 E35.35810
G0 F9000 X169.91 Y170.26
G1 F4200 X173.73 Y174.08 E35.58300
G0 F9000 X173.78 Y173.43
G1 F4200 X170.27 Y169.91 E35.78955
G0 F9000 X170.97 Y169.91
G1 F4200 X173.93 Y172.87 E35.96329
G0 F9000 X174.15 Y172.38
G1 F4200 X171.68 Y169.91 E36.10869
G0 F9000 X172.39 Y169.91
G1 F4200 X174.44 Y171.97 E36.22958
G0 F9000 X174.79 Y171.60
G1 F4200 X173.09 Y169.91 E36.32906
G0 F9000 X173.80 Y169.91
G1 F4200 X175.17 Y171.29 E36.40979
G0 F9000 X175.63 Y171.03
G1 F4200 X174.51 Y169.91 E36.47573
G0 F9000 X175.22 Y169.91
G1 F4200 X176.15 Y170.85 E36.53079
G0 F9000 X176.75 Y170.74
G1 F4200 X175.92 Y169.91 E36.57968
G0 F9000 X176.63 Y169.91
G1 F4200 X177.51 Y170.79 E36.63133
G0 F9000 X177.34 Y169.91
G1 F4200 X178.57 Y171.15 E36.70409
G0 F9000 X178.75 Y169.91
G1 F4200 X183.07 Y174.24 E36.95830
G0 F9000 X183.07 Y174.94
G1 F4200 X178.04 Y169.91 E37.25407
G0 F9000 X179.46 Y169.91
G1 F4200 X183.07 Y173.53 E37.46668
G0 F9000 X183.07 Y172.82
G1 F4200 X180.16 Y169.91 E37.63772
G0 F9000 X180.87 Y169.91
G1 F4200 X183.07 Y172.11 E37.76719
