;Generated with Cura_SteamEngine 13.12
M140 S100.000000
M109 T0 S255.000000
T0
M190 S100.000000
;Sliced at: Tue 04-03-2014 21:00:46
;Basic settings: Layer height: 0.2 Walls: 1 Fill: 20
;Print time: #P_TIME#
;Filament used: #F_AMNT#m #F_WGHT#g
;Filament cost: #F_COST#
;M190 S100 ;Uncomment to add your own bed temperature line
;M109 S255 ;Uncomment to add your own temperature line
G21        ;metric values
G90        ;absolute positioning
M107       ;start with the fan off
G28 X0 Y0  ;move X/Y to min endstops
G28 Z0     ;move Z to min endstops
G1 Z15.0 F9000 ;move the platform down 15mm
G92 E0                  ;zero the extruded length
G1 F200 E3              ;extrude 3mm of feed stock
G92 E0                  ;zero the extruded length again
G1 F9000
;Put printing message on LCD screen
M117 Printing...

;Layer count: 60
;LAYER:0
M107
G0 F9000 X159.49 Y160.34 Z0.20
;TYPE:SKIRT
G1 F1200 E0.00000
G1 F3000 X169.51 Y160.34 E0.41646
G1 X169.65 Y162.60 E0.51068
G1 X169.65 Y162.62 E0.51135
G1 X169.65 Y162.62 E0.51152
G1 X169.66 Y162.64 E0.51221
G1 X169.66 Y162.65 E0.51266
G1 X169.67 Y162.65 E0.51299
G1 X169.69 Y162.67 E0.51408
G1 X169.69 Y162.67 E0.51413
G1 X169.70 Y162.68 E0.51473
G1 X169.71 Y162.68 E0.51514
G1 X169.73 Y162.68 E0.51578
G1 X169.73 Y162.69 E0.51608
G1 X169.75 Y162.69 E0.51679
G1 X169.76 Y162.68 E0.51708
G1 X169.77 Y162.68 E0.51772
G1 X169.78 Y162.68 E0.51813
G1 X169.80 Y162.67 E0.51882
G1 X169.80 Y162.67 E0.51900
G1 X169.81 Y162.65 E0.51985
G1 X169.82 Y162.65 E0.52018
G1 X169.83 Y162.63 E0.52085
G1 X169.83 Y162.63 E0.52109
G1 X169.83 Y162.62 E0.52160
G1 X169.84 Y162.60 E0.52241
G1 X169.98 Y160.34 E0.61644
G1 X178.99 Y160.34 E0.99103
G1 X178.99 Y167.84 E1.30301
G1 X159.49 Y167.84 E2.11373
G1 X159.49 Y160.34 E2.42571
G0 F9000 X159.99 Y160.84
G1 F3000 X169.04 Y160.84 E2.80180
G1 X169.15 Y162.67 E2.87811
G1 X169.16 Y162.73 E2.88077
G1 X169.19 Y162.81 E2.88405
G1 X169.22 Y162.88 E2.88712
G1 X169.26 Y162.94 E2.89025
G1 X169.31 Y163.00 E2.89353
G1 X169.36 Y163.05 E2.89638
G1 X169.42 Y163.09 E2.89968
G1 X169.49 Y163.13 E2.90275
G1 X169.56 Y163.16 E2.90594
G1 X169.63 Y163.18 E2.90902
G1 X169.70 Y163.19 E2.91200
G1 X169.78 Y163.19 E2.91528
G1 X169.85 Y163.18 E2.91826
G1 X169.92 Y163.16 E2.92134
G1 X170.00 Y163.13 E2.92453
G1 X170.06 Y163.09 E2.92770
G1 X170.13 Y163.05 E2.93100
G1 X170.17 Y163.00 E2.93373
G1 X170.22 Y162.94 E2.93686
G1 X170.26 Y162.88 E2.94021
G1 X170.30 Y162.81 E2.94333
G1 X170.32 Y162.74 E2.94643
G1 X170.33 Y162.66 E2.94948
G1 X170.45 Y160.84 E3.02551
G1 X178.49 Y160.84 E3.35982
G1 X178.49 Y167.34 E3.63022
G1 X159.99 Y167.34 E4.39937
G1 X159.99 Y160.84 E4.66977
G0 F9000 X160.49 Y161.34
G1 F3000 X168.57 Y161.34 E5.00553
G1 X168.65 Y162.73 E5.06355
G1 X168.68 Y162.86 E5.06902
G1 X168.72 Y163.00 E5.07488
G1 X168.78 Y163.12 E5.08066
G1 X168.85 Y163.23 E5.08597
G1 X168.94 Y163.34 E5.09205
G1 X169.04 Y163.44 E5.09781
G1 X169.16 Y163.52 E5.10353
G1 X169.27 Y163.58 E5.10913
G1 X169.40 Y163.63 E5.11493
G1 X169.54 Y163.67 E5.12065
G1 X169.67 Y163.69 E5.12635
G1 X169.81 Y163.69 E5.13213
G1 X169.95 Y163.67 E5.13783
G1 X170.08 Y163.63 E5.14354
G1 X170.21 Y163.58 E5.14935
G1 X170.33 Y163.52 E5.15484
G1 X170.44 Y163.43 E5.16091
G1 X170.54 Y163.34 E5.16653
G1 X170.63 Y163.23 E5.17231
G1 X170.71 Y163.12 E5.17809
G1 X170.76 Y163.00 E5.18356
G1 X170.80 Y162.87 E5.18932
G1 X170.83 Y162.72 E5.19529
G1 X170.92 Y161.34 E5.25299
G1 X177.99 Y161.34 E5.54701
G1 X177.99 Y166.84 E5.77584
G1 X160.49 Y166.84 E6.50340
G1 X160.49 Y161.34 E6.73223
G0 F9000 X160.99 Y161.84
G1 F3000 X168.10 Y161.84 E7.02766
G1 X168.16 Y162.79 E7.06740
G1 X168.19 Y162.99 E7.07561
G1 X168.26 Y163.18 E7.08410
G1 X168.34 Y163.36 E7.09231
G1 X168.45 Y163.53 E7.10065
G1 X168.57 Y163.68 E7.10870
G1 X168.73 Y163.83 E7.11767
G1 X168.88 Y163.94 E7.12550
G1 X169.06 Y164.04 E7.13408
G1 X169.25 Y164.11 E7.14244
G1 X169.44 Y164.16 E7.15077
G1 X169.64 Y164.19 E7.15902
G1 X169.84 Y164.19 E7.16746
G1 X170.04 Y164.16 E7.17572
G1 X170.23 Y164.11 E7.18405
G1 X170.42 Y164.04 E7.19241
G1 X170.60 Y163.94 E7.20114
G1 X170.75 Y163.83 E7.20879
G1 X170.91 Y163.68 E7.21770
G1 X171.04 Y163.53 E7.22591
G1 X171.14 Y163.36 E7.23422
G1 X171.23 Y163.18 E7.24231
G1 X171.29 Y162.99 E7.25092
G1 X171.33 Y162.79 E7.25943
G1 X171.39 Y161.84 E7.29884
G1 X177.49 Y161.84 E7.55257
G1 X177.49 Y166.34 E7.73983
G1 X160.99 Y166.34 E8.42582
G1 X160.99 Y161.84 E8.61307
G0 F9000 X161.49 Y162.34
G1 F3000 X167.63 Y162.34 E8.86814
G1 X167.66 Y162.85 E8.88955
G1 X167.71 Y163.11 E8.90047
G1 X167.79 Y163.37 E8.91175
G1 X167.90 Y163.60 E8.92231
G1 X168.04 Y163.82 E8.93340
G1 X168.21 Y164.03 E8.94441
G1 X168.40 Y164.20 E8.95512
G1 X168.62 Y164.37 E8.96648
G1 X168.84 Y164.49 E8.97696
G1 X169.10 Y164.59 E8.98832
G1 X169.35 Y164.65 E8.99918
G1 X169.61 Y164.69 E9.01008
G1 X169.87 Y164.69 E9.02110
G1 X170.13 Y164.65 E9.03199
G1 X170.39 Y164.59 E9.04285
G1 X170.64 Y164.49 E9.05422
G1 X170.87 Y164.36 E9.06488
G1 X171.08 Y164.21 E9.07592
G1 X171.27 Y164.03 E9.08677
G1 X171.44 Y163.82 E9.09785
G1 X171.58 Y163.60 E9.10872
G1 X171.69 Y163.36 E9.11971
G1 X171.77 Y163.11 E9.13059
G1 X171.82 Y162.85 E9.14197
G1 X171.86 Y162.34 E9.16305
G1 X176.99 Y162.34 E9.37650
G1 X176.99 Y165.84 E9.52218
G1 X161.49 Y165.84 E10.16659
G1 X161.49 Y162.34 E10.31227
G0 F9000 X162.49 Y163.34
;TYPE:WALL-INNER
G1 F3000 X166.73 Y163.34 E10.48859
G1 X166.86 Y163.73 E10.50574
G1 X167.02 Y164.08 E10.52186
G1 X167.23 Y164.41 E10.53816
G1 X167.48 Y164.71 E10.55434
G1 X167.62 Y164.84 E10.56222
G1 X162.49 Y164.84 E10.77542
G1 X162.49 Y163.34 E10.83795
G1 F1200 E8.33795
G0 F9000 X171.86 Y164.84
G1 F1200 E10.83795
G1 F3000 X172.00 Y164.71 E10.84589
G1 X172.25 Y164.41 E10.86204
G1 X172.46 Y164.08 E10.87822
G1 X172.63 Y163.73 E10.89442
G1 X172.75 Y163.34 E10.91155
G1 X175.99 Y163.34 E11.04634
G1 X175.99 Y164.84 E11.10887
G1 X171.86 Y164.84 E11.28049
G0 F9000 X171.64 Y164.37
;TYPE:WALL-OUTER
G1 F3000 X171.85 Y164.12 E11.29404
G1 X172.02 Y163.84 E11.30757
G1 X172.16 Y163.55 E11.32119
G1 X172.26 Y163.24 E11.33478
G1 X172.32 Y162.91 E11.34836
G1 X172.33 Y162.84 E11.35152
G1 X176.49 Y162.84 E11.52473
G1 X176.49 Y165.34 E11.62883
G1 X161.99 Y165.34 E12.23167
G1 X161.99 Y162.84 E12.33577
G1 X167.16 Y162.84 E12.55047
G1 X167.16 Y162.91 E12.55364
G1 X167.22 Y163.24 E12.56722
G1 X167.32 Y163.55 E12.58083
G1 X167.46 Y163.84 E12.59437
G1 X167.64 Y164.12 E12.60801
G1 X167.85 Y164.37 E12.62159
G1 X168.08 Y164.59 E12.63512
G1 X168.35 Y164.79 E12.64869
G1 X168.63 Y164.94 E12.66231
G1 X168.94 Y165.06 E12.67585
G1 X169.25 Y165.14 E12.68942
G1 X169.58 Y165.19 E12.70300
G1 X169.91 Y165.19 E12.71659
G1 X170.23 Y165.14 E12.73017
G1 X170.54 Y165.06 E12.74374
G1 X170.85 Y164.94 E12.75728
G1 X171.13 Y164.79 E12.77088
G1 X171.40 Y164.59 E12.78451
G1 X171.64 Y164.37 E12.79810
G0 F9000 X172.48 Y164.35
;TYPE:FILL
G1 F4200 X172.81 Y164.68 E12.81726
G0 F9000 X173.52 Y164.68
G1 F4200 X172.73 Y163.89 E12.86351
G0 F9000 X173.05 Y163.50
G1 F4200 X174.22 Y164.68 E12.93253
G0 F9000 X174.93 Y164.68
G1 F4200 X173.76 Y163.50 E13.00156
G0 F9000 X174.46 Y163.50
G1 F4200 X175.64 Y164.68 E13.07059
G0 F9000 X175.83 Y164.16
G1 F4200 X175.17 Y163.50 E13.10910
G1 F1200 E10.60910
G0 F9000 X167.12 Y164.65
G1 F1200 E13.10910
G1 F4200 X165.98 Y163.50 E13.17642
G0 F9000 X165.27 Y163.50
G1 F4200 X166.44 Y164.68 E13.24539
G0 F9000 X165.74 Y164.68
G1 F4200 X164.56 Y163.50 E13.31441
G0 F9000 X163.86 Y163.50
G1 F4200 X165.03 Y164.68 E13.38341
G0 F9000 X164.32 Y164.68
G1 F4200 X163.15 Y163.50 E13.45241
G0 F9000 X162.66 Y163.72
G1 F4200 X163.62 Y164.68 E13.50885
G0 F9000 X162.91 Y164.68
G1 F4200 X162.66 Y164.42 E13.52373
;LAYER:1
M106 S127
G0 F9000 X162.49 Y164.87 Z0.40
;TYPE:WALL-INNER
G1 F3000 X162.49 Y163.34 E13.58721
G1 X166.73 Y163.34 E13.76353
G1 X166.86 Y163.73 E13.78068
G1 X167.02 Y164.08 E13.79680
G1 X167.23 Y164.41 E13.81310
G1 X167.48 Y164.71 E13.82928
G1 X167.64 Y164.87 E13.83854
G1 X162.49 Y164.87 E14.05274
G1 F1200 E11.55274
G0 F9000 X171.84 Y164.87
G1 F1200 E14.05274
G1 F3000 X172.00 Y164.71 E14.06203
G1 X172.25 Y164.41 E14.07818
G1 X172.46 Y164.08 E14.09437
G1 X172.63 Y163.73 E14.11056
G1 X172.75 Y163.34 E14.12770
G1 X175.99 Y163.34 E14.26248
G1 X175.99 Y164.87 E14.32593
G1 X171.84 Y164.87 E14.49855
G0 F9000 X171.40 Y164.59
;TYPE:WALL-OUTER
G1 F3000 X171.64 Y164.37 E14.51214
G1 X171.85 Y164.12 E14.52569
G1 X172.02 Y163.84 E14.53922
G1 X172.16 Y163.55 E14.55283
G1 X172.26 Y163.24 E14.56643
G1 X172.32 Y162.91 E14.58000
G1 X172.33 Y162.84 E14.58317
G1 X176.49 Y162.84 E14.75637
G1 X176.49 Y165.37 E14.86139
G1 X161.99 Y165.37 E15.46423
G1 X161.99 Y162.84 E15.56929
G1 X167.16 Y162.84 E15.78398
G1 X167.16 Y162.91 E15.78715
G1 X167.22 Y163.24 E15.80074
G1 X167.32 Y163.55 E15.81434
G1 X167.46 Y163.84 E15.82788
G1 X167.64 Y164.12 E15.84153
G1 X167.85 Y164.37 E15.85511
G1 X168.08 Y164.59 E15.86864
G1 X168.35 Y164.79 E15.88221
G1 X168.63 Y164.94 E15.89583
G1 X168.94 Y165.06 E15.90936
G1 X169.25 Y165.14 E15.92294
G1 X169.58 Y165.19 E15.93651
G1 X169.91 Y165.19 E15.95011
G1 X170.23 Y165.14 E15.96369
G1 X170.54 Y165.06 E15.97726
G1 X170.85 Y164.94 E15.99079
G1 X171.13 Y164.79 E16.00439
G1 X171.40 Y164.59 E16.01802
G0 F9000 X172.32 Y164.62
;TYPE:FILL
G1 F4200 X173.43 Y163.50 E16.08364
G0 F9000 X174.14 Y163.50
G1 F4200 X172.94 Y164.70 E16.15396
G0 F9000 X173.65 Y164.70
G1 F4200 X174.85 Y163.50 E16.22428
G0 F9000 X175.55 Y163.50
G1 F4200 X174.36 Y164.70 E16.29460
G0 F9000 X175.06 Y164.70
G1 F4200 X175.82 Y163.94 E16.33934
G1 F1200 E13.83934
G0 F9000 X166.97 Y164.31
G1 F1200 E16.33934
G1 F4200 X166.58 Y164.70 E16.36239
G0 F9000 X165.87 Y164.70
G1 F4200 X166.73 Y163.84 E16.41275
G0 F9000 X166.36 Y163.50
G1 F4200 X165.16 Y164.70 E16.48313
G0 F9000 X164.46 Y164.70
G1 F4200 X165.65 Y163.50 E16.55351
G0 F9000 X164.95 Y163.50
G1 F4200 X163.75 Y164.70 E16.62389
G0 F9000 X163.04 Y164.70
G1 F4200 X164.24 Y163.50 E16.69433
G0 F9000 X163.53 Y163.50
G1 F4200 X162.66 Y164.38 E16.74586
G0 F9000 X162.66 Y163.67
G1 F4200 X162.83 Y163.50 E16.75583
;LAYER:2
M106 S255
G0 F9000 X162.49 Y163.34 Z0.60
;TYPE:WALL-INNER
G1 F3000 X166.73 Y163.34 E16.93215
G1 X166.86 Y163.73 E16.94929
G1 X167.02 Y164.08 E16.96542
G1 X167.23 Y164.41 E16.98172
G1 X167.48 Y164.71 E16.99789
G1 X167.69 Y164.91 E17.00972
G1 X162.49 Y164.91 E17.22578
G1 X162.49 Y163.34 E17.29101
G1 F1200 E14.79101
G0 F9000 X171.79 Y164.91
G1 F1200 E17.29101
G1 F3000 X172.00 Y164.71 E17.30287
G1 X172.25 Y164.41 E17.31902
G1 X172.46 Y164.08 E17.33520
G1 X172.63 Y163.73 E17.35140
G1 X172.75 Y163.34 E17.36853
G1 X175.99 Y163.34 E17.50332
G1 X175.99 Y164.91 E17.56851
G1 X171.79 Y164.91 E17.74300
G0 F9000 X171.40 Y164.59
;TYPE:WALL-OUTER
G1 F3000 X171.64 Y164.37 E17.75659
G1 X171.85 Y164.12 E17.77014
G1 X172.02 Y163.84 E17.78367
G1 X172.16 Y163.55 E17.79728
G1 X172.26 Y163.24 E17.81088
G1 X172.32 Y162.91 E17.82445
G1 X172.33 Y162.84 E17.82762
G1 X176.49 Y162.84 E18.00082
G1 X176.49 Y165.41 E18.10759
G1 X161.99 Y165.41 E18.71043
G1 X161.99 Y162.84 E18.81723
G1 X167.16 Y162.84 E19.03193
G1 X167.16 Y162.91 E19.03510
G1 X167.22 Y163.24 E19.04868
G1 X167.32 Y163.55 E19.06229
G1 X167.46 Y163.84 E19.07583
G1 X167.64 Y164.12 E19.08947
G1 X167.85 Y164.37 E19.10305
G1 X168.08 Y164.59 E19.11658
G1 X168.35 Y164.79 E19.13015
G1 X168.63 Y164.94 E19.14377
G1 X168.94 Y165.06 E19.15731
G1 X169.25 Y165.14 E19.17088
G1 X169.58 Y165.19 E19.18446
G1 X169.91 Y165.19 E19.19805
G1 X170.23 Y165.14 E19.21163
G1 X170.54 Y165.06 E19.22520
G1 X170.85 Y164.94 E19.23874
G1 X171.13 Y164.79 E19.25234
G1 X171.40 Y164.59 E19.26597
G0 F9000 X172.48 Y164.35
;TYPE:FILL
G1 F4200 X172.87 Y164.74 E19.28887
G0 F9000 X173.58 Y164.74
G1 F4200 X172.73 Y163.89 E19.33885
G0 F9000 X173.05 Y163.50
G1 F4200 X174.29 Y164.74 E19.41158
G0 F9000 X174.99 Y164.74
G1 F4200 X173.76 Y163.50 E19.48431
G0 F9000 X174.46 Y163.50
G1 F4200 X175.70 Y164.74 E19.55704
G0 F9000 X175.83 Y164.16
G1 F4200 X175.17 Y163.50 E19.59555
G1 F1200 E17.09555
G0 F9000 X167.18 Y164.71
G1 F1200 E19.59555
G1 F4200 X165.98 Y163.50 E19.66625
G0 F9000 X165.27 Y163.50
G1 F4200 X166.51 Y164.74 E19.73904
G0 F9000 X165.80 Y164.74
G1 F4200 X164.56 Y163.50 E19.81189
G0 F9000 X163.86 Y163.50
G1 F4200 X165.10 Y164.74 E19.88471
G0 F9000 X164.39 Y164.74
G1 F4200 X163.15 Y163.50 E19.95753
G0 F9000 X162.66 Y163.72
G1 F4200 X163.68 Y164.74 E20.01779
G0 F9000 X162.97 Y164.74
G1 F4200 X162.66 Y164.42 E20.03649
;LAYER:3
G0 F9000 X162.49 Y164.97 Z0.80
;TYPE:WALL-INNER
G1 F3000 X162.49 Y163.34 E20.10430
G1 X166.73 Y163.34 E20.28062
G1 X166.86 Y163.73 E20.29777
G1 X167.02 Y164.08 E20.31389
G1 X167.23 Y164.41 E20.33019
G1 X167.48 Y164.71 E20.34637
G1 X167.76 Y164.97 E20.36195
G1 X162.49 Y164.97 E20.58076
G1 F1200 E18.08076
G0 F9000 X171.73 Y164.97
G1 F1200 E20.58076
G1 F3000 X172.00 Y164.71 E20.59638
G1 X172.25 Y164.41 E20.61253
G1 X172.46 Y164.08 E20.62872
G1 X172.63 Y163.73 E20.64491
G1 X172.75 Y163.34 E20.66205
G1 X175.99 Y163.34 E20.79683
G1 X175.99 Y164.97 E20.86460
G1 X171.73 Y164.97 E21.04184
G0 F9000 X171.40 Y164.59
;TYPE:WALL-OUTER
G1 F3000 X171.64 Y164.37 E21.05542
G1 X171.85 Y164.12 E21.06898
G1 X172.02 Y163.84 E21.08251
G1 X172.16 Y163.55 E21.09612
G1 X172.26 Y163.24 E21.10971
G1 X172.32 Y162.91 E21.12329
G1 X172.33 Y162.84 E21.12646
G1 X176.49 Y162.84 E21.29966
G1 X176.49 Y165.47 E21.40900
G1 X161.99 Y165.47 E22.01184
G1 X161.99 Y162.84 E22.12123
G1 X167.16 Y162.84 E22.33592
G1 X167.16 Y162.91 E22.33909
G1 X167.22 Y163.24 E22.35267
G1 X167.32 Y163.55 E22.36628
G1 X167.46 Y163.84 E22.37982
G1 X167.64 Y164.12 E22.39346
G1 X167.85 Y164.37 E22.40704
G1 X168.08 Y164.59 E22.42057
G1 X168.35 Y164.79 E22.43414
G1 X168.63 Y164.94 E22.44776
G1 X168.94 Y165.06 E22.46130
G1 X169.25 Y165.14 E22.47487
G1 X169.58 Y165.19 E22.48845
G1 X169.91 Y165.19 E22.50204
G1 X170.23 Y165.14 E22.51562
G1 X170.54 Y165.06 E22.52920
G1 X170.85 Y164.94 E22.54273
G1 X171.13 Y164.79 E22.55633
G1 X171.40 Y164.59 E22.56996
G0 F9000 X172.22 Y164.71
;TYPE:FILL
G1 F4200 X173.43 Y163.50 E22.64099
G0 F9000 X174.14 Y163.50
G1 F4200 X172.84 Y164.80 E22.71739
G0 F9000 X173.55 Y164.80
G1 F4200 X174.85 Y163.50 E22.79380
G0 F9000 X175.55 Y163.50
G1 F4200 X174.25 Y164.80 E22.87020
G0 F9000 X174.96 Y164.80
G1 F4200 X175.83 Y163.94 E22.92109
G0 F9000 X175.83 Y164.65
G1 F4200 X175.67 Y164.80 E22.93041
G1 F1200 E20.43041
G0 F9000 X166.97 Y164.31
G1 F1200 E22.93041
G1 F4200 X166.47 Y164.81 E22.95960
G0 F9000 X165.77 Y164.81
G1 F4200 X166.73 Y163.84 E23.01610
G0 F9000 X166.36 Y163.50
G1 F4200 X165.06 Y164.81 E23.09266
G0 F9000 X164.35 Y164.80
G1 F4200 X165.65 Y163.50 E23.16915
G0 F9000 X164.95 Y163.50
G1 F4200 X163.65 Y164.80 E23.24565
G0 F9000 X162.94 Y164.80
G1 F4200 X164.24 Y163.50 E23.32220
G0 F9000 X163.53 Y163.50
G1 F4200 X162.66 Y164.38 E23.37373
G0 F9000 X162.66 Y163.67
G1 F4200 X162.83 Y163.50 E23.38370
;LAYER:4
G0 F9000 X162.49 Y163.34 Z1.00
;TYPE:WALL-INNER
G1 F3000 X166.73 Y163.34 E23.56002
G1 X166.86 Y163.73 E23.57716
G1 X167.02 Y164.08 E23.59329
G1 X167.23 Y164.41 E23.60959
G1 X167.48 Y164.71 E23.62576
G1 X167.87 Y165.06 E23.64738
G1 X162.49 Y165.06 E23.87106
G1 X162.49 Y163.34 E23.94248
G1 F1200 E21.44248
G0 F9000 X171.61 Y165.06
G1 F1200 E23.94248
G1 F3000 X171.72 Y164.98 E23.94793
G1 X172.00 Y164.71 E23.96414
G1 X172.25 Y164.41 E23.98029
G1 X172.46 Y164.08 E23.99647
G1 X172.63 Y163.73 E24.01267
G1 X172.75 Y163.34 E24.02980
G1 X175.99 Y163.34 E24.16459
G1 X175.99 Y165.06 E24.23597
G1 X171.61 Y165.06 E24.41803
G0 F9000 X171.40 Y164.59
;TYPE:WALL-OUTER
G1 F3000 X171.64 Y164.37 E24.43162
G1 X171.85 Y164.12 E24.44517
G1 X172.02 Y163.84 E24.45870
G1 X172.16 Y163.55 E24.47231
G1 X172.26 Y163.24 E24.48591
G1 X172.32 Y162.91 E24.49949
G1 X172.33 Y162.84 E24.50265
G1 X176.49 Y162.84 E24.67585
G1 X176.49 Y165.56 E24.78881
G1 X161.99 Y165.56 E25.39165
G1 X161.99 Y162.84 E25.50466
G1 X167.16 Y162.84 E25.71935
G1 X167.16 Y162.91 E25.72252
G1 X167.22 Y163.24 E25.73610
G1 X167.32 Y163.55 E25.74971
G1 X167.46 Y163.84 E25.76325
G1 X167.64 Y164.12 E25.77689
G1 X167.85 Y164.37 E25.79047
G1 X168.08 Y164.59 E25.80400
G1 X168.35 Y164.79 E25.81757
G1 X168.63 Y164.94 E25.83119
G1 X168.94 Y165.06 E25.84473
