;Generated with Cura_SteamEngine 13.12
M140 S100.000000
M109 T0 S255.000000
T0
M190 S100.000000
;Sliced at: Mon 10-03-2014 00:11:27
;Basic settings: Layer height: 0.2 Walls: 1 Fill: 20
;Print time: #P_TIME#
;Filament used: #F_AMNT#m #F_WGHT#g
;Filament cost: #F_COST#
;M190 S100 ;Uncomment to add your own bed temperature line
;M109 S255 ;Uncomment to add your own temperature line
G21        ;metric values
G90        ;absolute positioning
M107       ;start with the fan off
G28 X0 Y0  ;move X/Y to min endstops
G28 Z0     ;move Z to min endstops
G1 Z15.0 F9000 ;move the platform down 15mm
G92 E0                  ;zero the extruded length
G1 F200 E3              ;extrude 3mm of feed stock
G92 E0                  ;zero the extruded length again
G1 F9000
;Put printing message on LCD screen
M117 Printing...

;Layer count: 100
;LAYER:0
M107
G0 F9000 X122.29 Y154.97 Z0.20
;TYPE:SKIRT
G1 F1200 E0.00000
G1 F3000 X139.23 Y154.97 E0.70428
G1 X139.32 Y154.79 E0.71302
G1 X140.01 Y153.70 E0.76659
G1 X140.83 Y152.71 E0.82012
G1 X141.76 Y151.82 E0.87362
G1 X142.81 Y151.07 E0.92717
G1 X143.94 Y150.45 E0.98070
G1 X145.13 Y149.97 E1.03427
G1 X146.38 Y149.65 E1.08784
G1 X147.66 Y149.49 E1.14135
G1 X148.94 Y149.49 E1.19482
G1 X150.22 Y149.65 E1.24840
G1 X151.47 Y149.97 E1.30198
G1 X152.67 Y150.45 E1.35550
G1 X153.80 Y151.07 E1.40904
G1 X154.84 Y151.82 E1.46259
G1 X155.78 Y152.70 E1.51606
G1 X156.60 Y153.70 E1.56965
G1 X157.29 Y154.79 E1.62322
G1 X157.38 Y154.97 E1.63194
G1 X174.32 Y154.97 E2.33626
G1 X174.32 Y164.47 E2.73123
G1 X157.38 Y164.47 E3.43555
G1 X157.29 Y164.67 E3.44455
G1 X156.59 Y165.76 E3.49807
G1 X155.77 Y166.75 E3.55163
G1 X154.83 Y167.63 E3.60513
G1 X153.79 Y168.38 E3.65862
G1 X152.67 Y169.00 E3.71195
G1 X151.47 Y169.48 E3.76569
G1 X150.22 Y169.80 E3.81900
G1 X148.95 Y169.96 E3.87256
G1 X147.65 Y169.96 E3.92635
G1 X146.38 Y169.80 E3.97988
G1 X145.13 Y169.48 E4.03340
G1 X143.93 Y169.00 E4.08699
G1 X142.80 Y168.38 E4.14051
G1 X141.76 Y167.62 E4.19405
G1 X140.82 Y166.74 E4.24761
G1 X140.00 Y165.75 E4.30109
G1 X139.31 Y164.66 E4.35455
G1 X139.23 Y164.47 E4.36314
G1 X122.29 Y164.47 E5.06743
G1 X122.29 Y154.97 E5.46239
G0 F9000 X122.79 Y155.47
G1 F3000 X139.54 Y155.47 E6.15907
G1 X139.76 Y155.03 E6.17971
G1 X140.41 Y153.99 E6.23066
G1 X141.19 Y153.05 E6.28156
G1 X142.08 Y152.21 E6.33245
G1 X143.07 Y151.49 E6.38337
G1 X144.15 Y150.90 E6.43430
G1 X145.29 Y150.45 E6.48527
G1 X146.47 Y150.14 E6.53622
G1 X147.69 Y149.99 E6.58713
G1 X148.91 Y149.99 E6.63798
G1 X150.13 Y150.14 E6.68893
G1 X151.32 Y150.45 E6.73988
G1 X152.46 Y150.90 E6.79083
G1 X153.53 Y151.49 E6.84174
G1 X154.52 Y152.21 E6.89266
G1 X155.41 Y153.05 E6.94352
G1 X156.19 Y153.99 E6.99448
G1 X156.85 Y155.03 E7.04546
G1 X157.06 Y155.47 E7.06605
G1 X173.82 Y155.47 E7.76277
G1 X173.82 Y163.97 E8.11616
G1 X157.06 Y163.97 E8.81287
G1 X156.85 Y164.43 E8.83374
G1 X156.19 Y165.46 E8.88464
G1 X155.41 Y166.41 E8.93557
G1 X154.51 Y167.24 E8.98648
G1 X153.52 Y167.96 E9.03739
G1 X152.46 Y168.55 E9.08807
G1 X151.31 Y169.00 E9.13917
G1 X150.13 Y169.31 E9.18991
G1 X148.91 Y169.46 E9.24086
G1 X147.68 Y169.46 E9.29200
G1 X146.47 Y169.30 E9.34293
G1 X145.28 Y169.00 E9.39384
G1 X144.14 Y168.55 E9.44478
G1 X143.07 Y167.96 E9.49569
G1 X142.08 Y167.24 E9.54665
G1 X141.19 Y166.40 E9.59759
G1 X140.41 Y165.45 E9.64845
G1 X139.75 Y164.42 E9.69932
G1 X139.54 Y163.97 E9.71978
G1 X122.79 Y163.97 E10.41645
G1 X122.79 Y155.47 E10.76984
G0 F9000 X123.29 Y155.97
G1 F3000 X139.86 Y155.97 E11.45891
G1 X140.19 Y155.27 E11.49146
G1 X140.82 Y154.29 E11.53977
G1 X141.56 Y153.39 E11.58805
G1 X142.40 Y152.60 E11.63635
G1 X143.34 Y151.91 E11.68465
G1 X144.36 Y151.35 E11.73296
G1 X145.44 Y150.93 E11.78130
G1 X146.57 Y150.64 E11.82963
G1 X147.72 Y150.49 E11.87790
G1 X148.88 Y150.49 E11.92617
G1 X150.04 Y150.64 E11.97448
G1 X151.16 Y150.93 E12.02281
G1 X152.24 Y151.35 E12.07111
G1 X153.26 Y151.91 E12.11942
G1 X154.20 Y152.60 E12.16772
G1 X155.05 Y153.39 E12.21599
G1 X155.79 Y154.29 E12.26433
G1 X156.41 Y155.27 E12.31268
G1 X156.74 Y155.97 E12.34517
G1 X173.32 Y155.97 E13.03428
G1 X173.32 Y163.47 E13.34609
G1 X156.74 Y163.47 E14.03524
G1 X156.41 Y164.19 E14.06796
G1 X155.78 Y165.17 E14.11624
G1 X155.04 Y166.06 E14.16457
G1 X154.19 Y166.86 E14.21287
G1 X153.26 Y167.54 E14.26115
G1 X152.24 Y168.10 E14.30925
G1 X151.16 Y168.53 E14.35772
G1 X150.04 Y168.81 E14.40584
G1 X148.88 Y168.96 E14.45416
G1 X147.72 Y168.96 E14.50268
G1 X146.56 Y168.81 E14.55100
G1 X145.44 Y168.52 E14.59929
G1 X144.36 Y168.09 E14.64764
G1 X143.34 Y167.53 E14.69595
G1 X142.40 Y166.85 E14.74422
G1 X141.55 Y166.05 E14.79257
G1 X140.81 Y165.16 E14.84083
G1 X140.19 Y164.18 E14.88909
G1 X139.86 Y163.47 E14.92145
G1 X123.29 Y163.47 E15.61051
G1 X123.29 Y155.97 E15.92233
G0 F9000 X123.79 Y156.47
G1 F3000 X140.18 Y156.47 E16.60383
G1 X140.63 Y155.51 E16.64822
G1 X141.22 Y154.58 E16.69395
G1 X141.92 Y153.73 E16.73961
G1 X142.72 Y152.98 E16.78528
G1 X143.61 Y152.34 E16.83097
G1 X144.57 Y151.81 E16.87667
G1 X145.60 Y151.40 E16.92241
G1 X146.66 Y151.13 E16.96808
G1 X147.75 Y150.99 E17.01376
G1 X148.85 Y150.99 E17.05945
G1 X149.94 Y151.13 E17.10516
G1 X151.01 Y151.40 E17.15083
G1 X152.03 Y151.81 E17.19654
G1 X152.99 Y152.34 E17.24224
G1 X153.88 Y152.98 E17.28792
G1 X154.68 Y153.73 E17.33357
G1 X155.38 Y154.58 E17.37928
G1 X155.97 Y155.51 E17.42502
G1 X156.43 Y156.47 E17.46939
G1 X172.82 Y156.47 E18.15093
G1 X172.82 Y162.97 E18.42117
G1 X156.43 Y162.97 E19.10267
G1 X155.97 Y163.95 E19.14731
G1 X155.38 Y164.87 E19.19293
G1 X154.68 Y165.72 E19.23867
G1 X153.88 Y166.47 E19.28432
G1 X152.99 Y167.12 E19.33001
G1 X152.03 Y167.64 E19.37550
G1 X151.00 Y168.05 E19.42138
G1 X149.94 Y168.32 E19.46687
G1 X148.85 Y168.46 E19.51259
G1 X147.75 Y168.46 E19.55849
G1 X146.66 Y168.32 E19.60414
G1 X145.59 Y168.05 E19.64984
G1 X144.57 Y167.64 E19.69556
G1 X143.61 Y167.11 E19.74126
G1 X142.72 Y166.47 E19.78692
G1 X141.92 Y165.71 E19.83263
G1 X141.22 Y164.86 E19.87831
G1 X140.63 Y163.94 E19.92398
G1 X140.18 Y162.97 E19.96818
G1 X123.79 Y162.97 E20.64968
G1 X123.79 Y156.47 E20.91992
G0 F9000 X124.29 Y156.97
G1 F3000 X140.54 Y156.97 E21.59556
G1 X140.63 Y156.69 E21.60810
G1 X141.07 Y155.75 E21.65121
G1 X141.63 Y154.88 E21.69429
G1 X142.29 Y154.08 E21.73735
G1 X143.04 Y153.37 E21.78041
G1 X143.88 Y152.76 E21.82351
G1 X144.79 Y152.26 E21.86657
G1 X145.75 Y151.88 E21.90970
G1 X146.76 Y151.62 E21.95276
G1 X147.78 Y151.49 E21.99579
G1 X148.82 Y151.49 E22.03891
G1 X149.85 Y151.62 E22.08198
G1 X150.85 Y151.88 E22.12504
G1 X151.82 Y152.26 E22.16813
G1 X152.72 Y152.76 E22.21119
G1 X153.56 Y153.37 E22.25429
G1 X154.32 Y154.08 E22.29733
G1 X154.98 Y154.88 E22.34044
G1 X155.53 Y155.75 E22.38352
G1 X155.97 Y156.69 E22.42661
G1 X156.07 Y156.97 E22.43915
G1 X172.32 Y156.97 E23.11483
G1 X172.32 Y162.47 E23.34350
G1 X156.07 Y162.47 E24.01917
G1 X155.97 Y162.77 E24.03190
G1 X155.53 Y163.70 E24.07501
G1 X154.97 Y164.58 E24.11802
G1 X154.31 Y165.38 E24.16116
G1 X153.56 Y166.08 E24.20419
G1 X152.72 Y166.69 E24.24729
G1 X151.82 Y167.19 E24.29015
G1 X150.85 Y167.57 E24.33341
G1 X149.85 Y167.83 E24.37630
G1 X148.82 Y167.96 E24.41938
G1 X147.78 Y167.96 E24.46266
G1 X146.75 Y167.83 E24.50570
G1 X145.75 Y167.57 E24.54880
G1 X144.78 Y167.19 E24.59191
G1 X143.88 Y166.69 E24.63497
G1 X143.04 Y166.08 E24.67804
G1 X142.28 Y165.37 E24.72112
G1 X141.63 Y164.57 E24.76418
G1 X141.07 Y163.70 E24.80723
G1 X140.63 Y162.76 E24.85015
G1 X140.54 Y162.47 E24.86270
G1 X124.29 Y162.47 E25.53833
G1 X124.29 Y156.97 E25.76700
G0 F9000 X125.29 Y157.97
;TYPE:WALL-INNER
G1 F3000 X141.26 Y157.97 E26.43133
G1 X141.56 Y157.06 E26.47153
G1 X141.95 Y156.23 E26.50940
G1 X142.44 Y155.47 E26.54711
G1 X143.02 Y154.76 E26.58503
G1 X143.68 Y154.14 E26.62271
G1 X144.42 Y153.60 E26.66090
G1 X145.22 Y153.17 E26.69852
G1 X146.06 Y152.83 E26.73640
G1 X146.94 Y152.60 E26.77422
G1 X147.84 Y152.49 E26.81197
G1 X148.76 Y152.49 E26.85001
G1 X149.66 Y152.60 E26.88780
G1 X150.54 Y152.83 E26.92562
G1 X151.39 Y153.17 E26.96346
G1 X152.18 Y153.60 E27.00109
G1 X152.92 Y154.14 E27.03927
G1 X153.59 Y154.76 E27.07695
G1 X154.16 Y155.46 E27.11478
G1 X154.65 Y156.23 E27.15268
G1 X155.04 Y157.06 E27.19045
G1 X155.34 Y157.97 E27.23066
G1 X171.32 Y157.97 E27.89503
G1 X171.32 Y161.47 E28.04054
G1 X155.34 Y161.47 E28.70487
G1 X155.04 Y162.39 E28.74505
G1 X154.65 Y163.22 E28.78295
G1 X154.16 Y163.99 E28.82093
G1 X153.58 Y164.69 E28.85873
G1 X152.92 Y165.31 E28.89641
G1 X152.18 Y165.85 E28.93445
G1 X151.38 Y166.29 E28.97219
G1 X150.54 Y166.62 E29.01006
G1 X149.66 Y166.85 E29.04766
G1 X148.76 Y166.96 E29.08558
G1 X147.84 Y166.96 E29.12358
G1 X146.94 Y166.84 E29.16151
G1 X146.06 Y166.62 E29.19916
G1 X145.21 Y166.28 E29.23731
G1 X144.41 Y165.84 E29.27505
G1 X143.69 Y165.31 E29.31246
G1 X143.01 Y164.68 E29.35081
G1 X142.44 Y163.98 E29.38859
G1 X141.95 Y163.22 E29.42627
G1 X141.56 Y162.40 E29.46395
G1 X141.26 Y161.47 E29.50415
G1 X125.29 Y161.47 E30.16848
G1 X125.29 Y157.97 E30.31400
G0 F9000 X124.79 Y157.47
;TYPE:WALL-OUTER
G1 F3000 X140.90 Y157.47 E30.98398
G1 X141.10 Y156.87 E31.01050
G1 X141.51 Y155.99 E31.05067
G1 X142.03 Y155.17 E31.09125
G1 X142.65 Y154.42 E31.13182
G1 X143.36 Y153.75 E31.17214
G1 X144.15 Y153.18 E31.21269
G1 X145.00 Y152.71 E31.25316
G1 X145.91 Y152.35 E31.29349
G1 X146.85 Y152.11 E31.33401
G1 X147.81 Y151.99 E31.37445
G1 X148.79 Y151.99 E31.41498
G1 X149.76 Y152.11 E31.45546
G1 X150.70 Y152.35 E31.49594
G1 X151.60 Y152.71 E31.53628
G1 X152.45 Y153.18 E31.57675
G1 X153.24 Y153.75 E31.61729
G1 X153.95 Y154.42 E31.65761
G1 X154.57 Y155.17 E31.69821
G1 X155.09 Y155.99 E31.73877
G1 X155.51 Y156.87 E31.77894
G1 X155.70 Y157.47 E31.80546
G1 X171.82 Y157.47 E32.47548
G1 X171.82 Y161.97 E32.66257
G1 X155.70 Y161.97 E33.33260
G1 X155.50 Y162.59 E33.35930
G1 X155.09 Y163.46 E33.39947
G1 X154.57 Y164.28 E33.43998
G1 X153.95 Y165.03 E33.48058
G1 X153.24 Y165.70 E33.52093
G1 X152.45 Y166.27 E33.56130
G1 X151.60 Y166.74 E33.60188
G1 X150.69 Y167.10 E33.64220
G1 X149.76 Y167.34 E33.68255
G1 X148.79 Y167.46 E33.72303
G1 X147.81 Y167.46 E33.76369
G1 X146.84 Y167.34 E33.80422
G1 X145.90 Y167.09 E33.84467
G1 X145.00 Y166.74 E33.88505
G1 X144.15 Y166.27 E33.92552
G1 X143.36 Y165.69 E33.96603
G1 X142.65 Y165.03 E34.00635
G1 X142.03 Y164.28 E34.04696
G1 X141.51 Y163.45 E34.08750
G1 X141.10 Y162.58 E34.12749
G1 X140.90 Y161.97 E34.15401
G1 X124.79 Y161.97 E34.82399
G1 X124.79 Y157.47 E35.01108
G0 F9000 X125.45 Y158.33
;TYPE:FILL
G1 F4200 X128.43 Y161.31 E35.18618
G0 F9000 X127.72 Y161.31
G1 F4200 X125.45 Y159.04 E35.31970
G0 F9000 X125.45 Y159.75
G1 F4200 X127.01 Y161.31 E35.41166
G0 F9000 X126.31 Y161.31
G1 F4200 X125.45 Y160.45 E35.46205
G0 F9000 X125.45 Y161.16
G1 F4200 X125.60 Y161.31 E35.47087
G0 F9000 X125.97 Y158.14
G1 F4200 X129.14 Y161.31 E35.65725
G0 F9000 X129.84 Y161.31
G1 F4200 X126.67 Y158.14 E35.84363
G0 F9000 X127.38 Y158.14
G1 F4200 X130.55 Y161.31 E36.03002
G0 F9000 X131.26 Y161.31
G1 F4200 X128.09 Y158.14 E36.21640
G0 F9000 X128.79 Y158.14
G1 F4200 X131.96 Y161.31 E36.40279
G0 F9000 X132.67 Y161.31
G1 F4200 X129.50 Y158.14 E36.58917
G0 F9000 X130.21 Y158.14
G1 F4200 X133.38 Y161.31 E36.77555
G0 F9000 X134.09 Y161.31
G1 F4200 X130.91 Y158.14 E36.96194
G0 F9000 X131.62 Y158.14
G1 F4200 X134.79 Y161.31 E37.14832
G0 F9000 X135.50 Y161.31
G1 F4200 X132.33 Y158.14 E37.33471
G0 F9000 X133.04 Y158.14
G1 F4200 X136.21 Y161.31 E37.52109
G0 F9000 X136.91 Y161.31
G1 F4200 X133.74 Y158.14 E37.70747
G0 F9000 X134.45 Y158.14
G1 F4200 X137.62 Y161.31 E37.89386
G0 F9000 X138.33 Y161.31
G1 F4200 X135.16 Y158.14 E38.08024
G0 F9000 X135.87 Y158.14
G1 F4200 X139.04 Y161.31 E38.26662
G0 F9000 X139.74 Y161.31
G1 F4200 X136.57 Y158.14 E38.45301
G0 F9000 X137.28 Y158.14
G1 F4200 X140.45 Y161.31 E38.63939
G0 F9000 X141.16 Y161.31
G1 F4200 X137.99 Y158.14 E38.82578
G0 F9000 X138.69 Y158.14
G1 F4200 X147.27 Y166.72 E39.33025
G0 F9000 X148.05 Y166.79
G1 F4200 X139.40 Y158.14 E39.83904
G0 F9000 X140.11 Y158.14
G1 F4200 X148.76 Y166.79 E40.34774
G0 F9000 X149.39 Y166.71
G1 F4200 X140.82 Y158.14 E40.85180
G0 F9000 X141.42 Y158.04
G1 F4200 X149.97 Y166.59 E41.35492
G0 F9000 X150.53 Y166.44
G1 F4200 X141.59 Y157.50 E41.88071
G0 F9000 X141.78 Y156.98
G1 F4200 X151.04 Y166.24 E42.42522
G0 F9000 X151.52 Y166.02
G1 F4200 X142.01 Y156.50 E42.98481
G0 F9000 X142.26 Y156.05
G1 F4200 X151.98 Y165.77 E43.55628
G0 F9000 X152.40 Y165.48
G1 F4200 X142.54 Y155.62 E44.13636
G0 F9000 X142.85 Y155.22
G1 F4200 X152.81 Y165.19 E44.72209
G0 F9000 X153.18 Y164.84
G1 F4200 X143.17 Y154.84 E45.31017
G0 F9000 X143.54 Y154.50
G1 F4200 X153.53 Y164.49 E45.89766
G0 F9000 X153.85 Y164.10
G1 F4200 X143.92 Y154.17 E46.48174
G0 F9000 X144.33 Y153.87
G1 F4200 X154.15 Y163.70 E47.05936
G0 F9000 X154.43 Y163.27
G1 F4200 X144.76 Y153.60 E47.62756
G0 F9000 X145.22 Y153.35
G1 F4200 X154.67 Y162.80 E48.18307
G0 F9000 X154.89 Y162.32
G1 F4200 X145.72 Y153.14 E48.72238
G0 F9000 X146.24 Y152.96
G1 F4200 X155.06 Y161.78 E49.24134
G0 F9000 X155.30 Y161.31
G1 F4200 X146.80 Y152.81 E49.74099
G0 F9000 X147.41 Y152.71
G1 F4200 X156.01 Y161.31 E50.24646
G0 F9000 X156.71 Y161.31
G1 F4200 X148.06 Y152.66 E50.75525
G0 F9000 X148.77 Y152.66
G1 F4200 X157.42 Y161.31 E51.26390
G0 F9000 X158.13 Y161.31
G1 F4200 X149.58 Y152.76 E51.76661
G0 F9000 X150.53 Y153.00
G1 F4200 X155.00 Y157.48 E52.02996
G0 F9000 X155.66 Y158.14
G1 F4200 X158.83 Y161.31 E52.21622
G0 F9000 X159.54 Y161.31
G1 F4200 X156.37 Y158.14 E52.40249
G0 F9000 X157.08 Y158.14
G1 F4200 X160.25 Y161.31 E52.58878
G0 F9000 X160.96 Y161.31
G1 F4200 X157.79 Y158.14 E52.77508
G0 F9000 X158.49 Y158.14
G1 F4200 X161.66 Y161.31 E52.96137
G0 F9000 X162.37 Y161.31
G1 F4200 X159.20 Y158.14 E53.14767
G0 F9000 X159.91 Y158.14
G1 F4200 X163.08 Y161.31 E53.33397
G0 F9000 X163.78 Y161.31
G1 F4200 X160.62 Y158.14 E53.52023
G0 F9000 X161.32 Y158.14
G1 F4200 X164.49 Y161.31 E53.70650
G0 F9000 X165.20 Y161.31
G1 F4200 X162.03 Y158.14 E53.89276
G0 F9000 X162.74 Y158.14
G1 F4200 X165.90 Y161.31 E54.07903
G0 F9000 X166.61 Y161.31
G1 F4200 X163.44 Y158.14 E54.26533
G0 F9000 X164.15 Y158.14
G1 F4200 X167.32 Y161.31 E54.45162
G0 F9000 X168.03 Y161.31
G1 F4200 X164.86 Y158.14 E54.63792
G0 F9000 X165.56 Y158.14
G1 F4200 X168.73 Y161.31 E54.82421
G0 F9000 X169.44 Y161.31
G1 F4200 X166.27 Y158.14 E55.01051
G0 F9000 X166.98 Y158.14
G1 F4200 X170.15 Y161.31 E55.19678
G0 F9000 X170.85 Y161.31
G1 F4200 X167.69 Y158.14 E55.38304
G0 F9000 X168.39 Y158.14
G1 F4200 X171.15 Y160.90 E55.54526
G0 F9000 X171.15 Y160.19
G1 F4200 X169.10 Y158.14 E55.66591
G0 F9000 X169.81 Y158.14
G1 F4200 X171.15 Y159.49 E55.74499
G0 F9000 X171.15 Y158.78
G1 F4200 X170.51 Y158.14 E55.78247
G0 F9000 X155.40 Y157.89
G0 X154.45 Y156.21
G1 F4200 X151.83 Y153.60 E55.93646
G0 F9000 X141.49 Y161.65
G1 F4200 X146.38 Y166.53 E56.22347
G0 F9000 X145.26 Y166.12
G1 F4200 X141.93 Y162.79 E56.41921
;LAYER:1
M106 S127
G0 F9000 X141.94 Y163.21 Z0.40
;TYPE:WALL-INNER
G1 F3000 X141.56 Y162.39 E56.45665
G1 X141.26 Y161.47 E56.49663
G1 X124.20 Y161.47 E57.20615
G1 X124.20 Y157.97 E57.35166
G1 X141.26 Y157.97 E58.06118
G1 X141.56 Y157.06 E58.10139
G1 X141.95 Y156.23 E58.13926
G1 X142.44 Y155.47 E58.17697
G1 X143.02 Y154.76 E58.21489
G1 X143.68 Y154.14 E58.25257
G1 X144.42 Y153.60 E58.29075
G1 X145.22 Y153.17 E58.32838
G1 X146.06 Y152.83 E58.36626
G1 X146.94 Y152.60 E58.40408
G1 X147.84 Y152.49 E58.44183
G1 X148.76 Y152.49 E58.47987
G1 X149.66 Y152.60 E58.51766
G1 X150.54 Y152.83 E58.55548
G1 X151.39 Y153.17 E58.59332
G1 X152.18 Y153.60 E58.63095
G1 X152.92 Y154.14 E58.66913
G1 X153.59 Y154.76 E58.70681
G1 X154.16 Y155.46 E58.74464
G1 X154.65 Y156.23 E58.78254
G1 X155.04 Y157.06 E58.82031
G1 X155.34 Y157.97 E58.86052
G1 X172.40 Y157.97 E59.57004
G1 X172.40 Y161.47 E59.71555
G1 X155.34 Y161.47 E60.42499
G1 X155.04 Y162.40 E60.46563
G1 X154.65 Y163.23 E60.50344
G1 X154.16 Y164.00 E60.54150
G1 X153.58 Y164.69 E60.57914
G1 X152.91 Y165.31 E60.61685
G1 X152.17 Y165.85 E60.65502
G1 X151.38 Y166.29 E60.69263
G1 X150.52 Y166.62 E60.73074
G1 X149.66 Y166.85 E60.76775
G1 X148.76 Y166.96 E60.80563
G1 X147.84 Y166.96 E60.84401
G1 X146.93 Y166.84 E60.88194
