;Generated with Cura_SteamEngine 13.12
M140 S100.000000
M109 T0 S255.000000
T0
M190 S100.000000
;Sliced at: Thu 27-02-2014 05:07:57
;Basic settings: Layer height: 0.1 Walls: 1 Fill: 20
;Print time: #P_TIME#
;Filament used: #F_AMNT#m #F_WGHT#g
;Filament cost: #F_COST#
;M190 S100 ;Uncomment to add your own bed temperature line
;M109 S255 ;Uncomment to add your own temperature line
G21        ;metric values
G90        ;absolute positioning
M107       ;start with the fan off
G28 X0 Y0  ;move X/Y to min endstops
G28 Z0     ;move Z to min endstops
G1 Z15.0 F9000 ;move the platform down 15mm
G92 E0                  ;zero the extruded length
G1 F200 E3              ;extrude 3mm of feed stock
G92 E0                  ;zero the extruded length again
G1 F9000
;Put printing message on LCD screen
M117 Printing...

;Layer count: 150
;LAYER:0
M107
G0 F5400 X155.80 Y149.50 Z0.20
;TYPE:SKIRT
G1 F1200 E0.00000
G1 F1800 X168.60 Y149.50 E0.53216
G1 X168.60 Y154.70 E0.74835
G1 X165.65 Y154.70 E0.87108
G1 X165.63 Y155.04 E0.88504
G1 X165.54 Y155.46 E0.90300
G1 X165.41 Y155.87 E0.92080
G1 X165.19 Y156.33 E0.94208
G1 X164.72 Y156.98 E0.97522
G1 X164.57 Y157.10 E0.98349
G1 X164.96 Y157.52 E1.00696
G1 X165.23 Y157.94 E1.02794
G1 X165.41 Y158.33 E1.04593
G1 X165.54 Y158.74 E1.06370
G1 X165.63 Y159.17 E1.08175
G1 X165.65 Y159.60 E1.09991
G1 X165.63 Y160.04 E1.11802
G1 X165.54 Y160.46 E1.13599
G1 X165.41 Y160.87 E1.15379
G1 X165.19 Y161.33 E1.17507
G1 X164.72 Y161.98 E1.20821
G1 X164.57 Y162.10 E1.21648
G1 X164.96 Y162.52 E1.23995
G1 X165.23 Y162.94 E1.26093
G1 X165.41 Y163.33 E1.27892
G1 X165.54 Y163.74 E1.29669
G1 X165.63 Y164.17 E1.31474
G1 X165.65 Y164.60 E1.33290
G1 X165.63 Y165.04 E1.35101
G1 X165.54 Y165.46 E1.36898
G1 X165.41 Y165.87 E1.38678
G1 X165.19 Y166.33 E1.40806
G1 X164.72 Y166.98 E1.44120
G1 X164.57 Y167.10 E1.44947
G1 X164.96 Y167.52 E1.47294
G1 X165.23 Y167.94 E1.49392
G1 X165.41 Y168.33 E1.51191
G1 X165.54 Y168.74 E1.52968
G1 X165.63 Y169.17 E1.54773
G1 X165.65 Y169.51 E1.56180
G1 X168.60 Y169.50 E1.68453
G1 X168.60 Y174.70 E1.90106
G1 X155.80 Y174.70 E2.43322
G1 X155.80 Y169.50 E2.64941
G1 X158.75 Y169.50 E2.77214
G1 X158.77 Y169.17 E2.78613
G1 X158.85 Y168.74 E2.80418
G1 X159.01 Y168.27 E2.82489
G1 X159.36 Y167.63 E2.85525
G1 X159.73 Y167.18 E2.87932
G1 X159.82 Y167.10 E2.88455
G1 X159.39 Y166.64 E2.91066
G1 X159.01 Y165.94 E2.94408
G1 X158.85 Y165.46 E2.96491
G1 X158.77 Y165.04 E2.98287
G1 X158.74 Y164.60 E3.00099
G1 X158.77 Y164.17 E3.01915
G1 X158.85 Y163.74 E3.03719
G1 X159.01 Y163.27 E3.05790
G1 X159.36 Y162.63 E3.08827
G1 X159.73 Y162.18 E3.11234
G1 X159.82 Y162.10 E3.11756
G1 X159.39 Y161.64 E3.14368
G1 X159.01 Y160.94 E3.17710
G1 X158.85 Y160.46 E3.19793
G1 X158.77 Y160.04 E3.21589
G1 X158.74 Y159.60 E3.23401
G1 X158.77 Y159.17 E3.25217
G1 X158.85 Y158.74 E3.27021
G1 X159.01 Y158.27 E3.29092
G1 X159.36 Y157.63 E3.32129
G1 X159.73 Y157.18 E3.34535
G1 X159.82 Y157.10 E3.35058
G1 X159.39 Y156.64 E3.37670
G1 X159.01 Y155.94 E3.41012
G1 X158.85 Y155.46 E3.43094
G1 X158.77 Y155.04 E3.44891
G1 X158.75 Y154.70 E3.46286
G1 X155.80 Y154.70 E3.58559
G1 X155.80 Y149.50 E3.80178
G0 F5400 X156.30 Y150.00
G1 F1800 X161.80 Y150.00 E4.03044
G1 X161.80 Y151.68 E4.10025
G1 X162.01 Y151.66 E4.10904
G1 X162.38 Y151.65 E4.12463
G1 X162.60 Y151.68 E4.13360
G1 X162.58 Y150.00 E4.20341
G1 X168.10 Y150.00 E4.43282
G1 X168.10 Y154.20 E4.60744
G1 X165.12 Y154.20 E4.73108
G1 X165.13 Y154.23 E4.73227
G1 X165.15 Y154.60 E4.74776
G1 X165.13 Y154.97 E4.76325
G1 X165.06 Y155.34 E4.77859
G1 X164.94 Y155.69 E4.79387
G1 X164.76 Y156.08 E4.81178
G1 X164.36 Y156.63 E4.84034
G1 X163.79 Y157.10 E4.87120
G1 X163.78 Y157.11 E4.87157
G1 X163.79 Y157.11 E4.87195
G1 X164.13 Y157.36 E4.88965
G1 X164.56 Y157.82 E4.91583
G1 X164.79 Y158.18 E4.93355
G1 X164.94 Y158.52 E4.94891
G1 X165.06 Y158.87 E4.96411
G1 X165.13 Y159.23 E4.97957
G1 X165.15 Y159.60 E4.99506
G1 X165.13 Y159.97 E5.01055
G1 X165.06 Y160.34 E5.02589
G1 X164.94 Y160.69 E5.04117
G1 X164.76 Y161.08 E5.05908
G1 X164.36 Y161.63 E5.08764
G1 X163.79 Y162.10 E5.11850
G1 X163.78 Y162.11 E5.11887
G1 X163.79 Y162.11 E5.11924
G1 X164.13 Y162.36 E5.13695
G1 X164.56 Y162.82 E5.16313
G1 X164.79 Y163.18 E5.18084
G1 X164.94 Y163.52 E5.19620
G1 X165.06 Y163.87 E5.21140
G1 X165.13 Y164.23 E5.22686
G1 X165.15 Y164.60 E5.24236
G1 X165.13 Y164.97 E5.25785
G1 X165.06 Y165.34 E5.27319
G1 X164.94 Y165.69 E5.28846
G1 X164.76 Y166.08 E5.30637
G1 X164.36 Y166.63 E5.33494
G1 X163.79 Y167.10 E5.36580
G1 X163.78 Y167.11 E5.36617
G1 X163.79 Y167.11 E5.36654
G1 X164.13 Y167.36 E5.38425
G1 X164.56 Y167.82 E5.41043
G1 X164.79 Y168.18 E5.42814
G1 X164.94 Y168.52 E5.44350
G1 X165.06 Y168.87 E5.45870
G1 X165.13 Y169.23 E5.47416
G1 X165.15 Y169.60 E5.48965
G1 X165.13 Y169.97 E5.50515
G1 X165.12 Y170.01 E5.50650
G1 X168.10 Y170.00 E5.63019
G1 X168.10 Y174.20 E5.80505
G1 X162.60 Y174.20 E6.03372
G1 X162.60 Y172.52 E6.10369
G1 X162.38 Y172.56 E6.11270
G1 X161.80 Y172.52 E6.13715
G1 X161.80 Y174.20 E6.20695
G1 X156.30 Y174.20 E6.43562
G1 X156.30 Y170.00 E6.61023
G1 X159.27 Y170.00 E6.73388
G1 X159.27 Y169.97 E6.73506
G1 X159.24 Y169.60 E6.75055
G1 X159.27 Y169.23 E6.76604
G1 X159.34 Y168.87 E6.78150
G1 X159.47 Y168.47 E6.79902
G1 X159.77 Y167.91 E6.82540
G1 X160.08 Y167.54 E6.84554
G1 X160.61 Y167.10 E6.87407
G1 X160.63 Y167.09 E6.87495
G1 X160.31 Y166.88 E6.89087
G1 X159.80 Y166.35 E6.92164
G1 X159.47 Y165.74 E6.95041
G1 X159.34 Y165.34 E6.96800
G1 X159.27 Y164.97 E6.98334
G1 X159.24 Y164.60 E6.99883
G1 X159.27 Y164.23 E7.01432
G1 X159.34 Y163.87 E7.02978
G1 X159.47 Y163.47 E7.04729
G1 X159.77 Y162.91 E7.07368
G1 X160.08 Y162.54 E7.09382
G1 X160.61 Y162.10 E7.12235
G1 X160.63 Y162.09 E7.12322
G1 X160.31 Y161.88 E7.13915
G1 X159.80 Y161.35 E7.16992
G1 X159.47 Y160.74 E7.19868
G1 X159.34 Y160.34 E7.21628
G1 X159.27 Y159.97 E7.23161
G1 X159.24 Y159.60 E7.24711
G1 X159.27 Y159.23 E7.26260
G1 X159.34 Y158.87 E7.27806
G1 X159.47 Y158.47 E7.29557
G1 X159.77 Y157.91 E7.32196
G1 X160.08 Y157.54 E7.34210
G1 X160.61 Y157.10 E7.37063
G1 X160.63 Y157.09 E7.37150
G1 X160.31 Y156.88 E7.38743
G1 X159.80 Y156.35 E7.41819
G1 X159.47 Y155.74 E7.44696
G1 X159.34 Y155.34 E7.46455
G1 X159.27 Y154.97 E7.47989
G1 X159.24 Y154.60 E7.49538
G1 X159.27 Y154.23 E7.51088
G1 X159.27 Y154.20 E7.51206
G1 X156.30 Y154.20 E7.63570
G1 X156.30 Y150.00 E7.81032
G0 F5400 X156.80 Y150.50
G1 F1800 X161.30 Y150.50 E7.99741
G1 X161.30 Y152.33 E8.07337
G1 X161.40 Y152.28 E8.07805
G1 X161.74 Y152.19 E8.09262
G1 X162.04 Y152.16 E8.10523
G1 X162.35 Y152.15 E8.11820
G1 X162.66 Y152.19 E8.13125
G1 X162.96 Y152.27 E8.14401
G1 X163.10 Y152.33 E8.15040
G1 X163.08 Y150.50 E8.22632
G1 X167.60 Y150.50 E8.41395
G1 X167.60 Y153.70 E8.54699
G1 X164.48 Y153.70 E8.67666
G1 X164.57 Y153.99 E8.68925
G1 X164.63 Y154.29 E8.70209
G1 X164.65 Y154.60 E8.71496
G1 X164.63 Y154.91 E8.72778
G1 X164.57 Y155.21 E8.74054
G1 X164.48 Y155.50 E8.75324
G1 X164.33 Y155.82 E8.76786
G1 X163.99 Y156.29 E8.79181
G1 X163.51 Y156.68 E8.81744
G1 X162.96 Y156.94 E8.84313
G1 X162.35 Y157.06 E8.86868
G1 X161.74 Y157.02 E8.89426
G1 X161.15 Y156.83 E8.92004
G1 X160.63 Y156.50 E8.94569
G1 X160.21 Y156.05 E8.97122
G1 X159.93 Y155.54 E8.99533
G1 X159.82 Y155.21 E9.00973
G1 X159.76 Y154.91 E9.02248
G1 X159.75 Y154.60 E9.03531
G1 X159.76 Y154.29 E9.04818
G1 X159.82 Y153.99 E9.06101
G1 X159.91 Y153.70 E9.07360
G1 X156.80 Y153.70 E9.20323
G1 X156.80 Y150.50 E9.33627
G0 F5400 X157.30 Y151.00
G1 F1800 X160.80 Y151.00 E9.48178
G1 X160.80 Y153.20 E9.57325
G1 X157.30 Y153.20 E9.71876
G1 X157.30 Y151.00 E9.81023
G0 F5400 X157.80 Y151.50
G1 F1800 X160.30 Y151.50 E9.91416
G1 X160.30 Y152.70 E9.96405
G1 X157.80 Y152.70 E10.06799
G1 X157.80 Y151.50 E10.11788
G0 F5400 X160.60 Y153.47
G1 F1800 X160.79 Y153.25 E10.13008
G1 X161.15 Y152.95 E10.14948
G1 X161.57 Y152.75 E10.16877
G1 X161.83 Y152.69 E10.17998
G1 X162.07 Y152.66 E10.19004
G1 X162.32 Y152.66 E10.20043
G1 X162.57 Y152.69 E10.21070
G1 X162.80 Y152.75 E10.22089
G1 X163.03 Y152.84 E10.23103
G1 X163.25 Y152.96 E10.24128
G1 X163.46 Y153.12 E10.25247
G1 X163.76 Y153.44 E10.27082
G1 X163.91 Y153.67 E10.28203
G1 X164.01 Y153.88 E10.29209
G1 X164.09 Y154.12 E10.30219
G1 X164.13 Y154.36 E10.31240
G1 X164.15 Y154.60 E10.32264
G1 X164.13 Y154.85 E10.33285
G1 X164.09 Y155.09 E10.34301
G1 X164.01 Y155.32 E10.35314
G1 X163.90 Y155.57 E10.36441
G1 X163.62 Y155.94 E10.38378
G1 X163.25 Y156.25 E10.40416
G1 X162.80 Y156.46 E10.42456
G1 X162.32 Y156.55 E10.44492
G1 X161.83 Y156.53 E10.46528
G1 X161.36 Y156.37 E10.48574
G1 X160.95 Y156.11 E10.50612
G1 X160.62 Y155.75 E10.52644
G1 X160.39 Y155.34 E10.54591
G1 X160.31 Y155.09 E10.55704
G1 X160.26 Y154.85 E10.56721
G1 X160.25 Y154.60 E10.57741
G1 X160.26 Y154.36 E10.58766
G1 X160.31 Y154.12 E10.59786
G1 X160.39 Y153.86 E10.60892
G1 X160.60 Y153.47 E10.62738
G0 F5400 X161.02 Y153.76
G1 F1800 X161.15 Y153.60 E10.63565
G1 X161.42 Y153.38 E10.65041
G1 X161.74 Y153.23 E10.66520
G1 X161.93 Y153.18 E10.67311
G1 X162.10 Y153.16 E10.68056
G1 X162.29 Y153.16 E10.68834
G1 X162.47 Y153.18 E10.69588
G1 X162.65 Y153.22 E10.70354
G1 X162.82 Y153.29 E10.71108
G1 X162.98 Y153.38 E10.71869
G1 X163.13 Y153.49 E10.72657
G1 X163.37 Y153.75 E10.74101
G1 X163.47 Y153.91 E10.74897
G1 X163.55 Y154.07 E10.75641
G1 X163.60 Y154.24 E10.76393
G1 X163.64 Y154.42 E10.77152
G1 X163.65 Y154.60 E10.77914
G1 X163.64 Y154.79 E10.78671
G1 X163.60 Y154.96 E10.79426
G1 X163.55 Y155.14 E10.80186
G1 X163.47 Y155.31 E10.80976
G1 X163.26 Y155.60 E10.82455
G1 X162.97 Y155.83 E10.83970
G1 X162.65 Y155.98 E10.85482
G1 X162.29 Y156.05 E10.86997
G1 X161.93 Y156.03 E10.88508
G1 X161.58 Y155.92 E10.90026
G1 X161.27 Y155.72 E10.91540
G1 X161.02 Y155.46 E10.93052
G1 X160.85 Y155.14 E10.94533
G1 X160.79 Y154.96 E10.95323
G1 X160.76 Y154.79 E10.96077
G1 X160.75 Y154.60 E10.96835
G1 X160.76 Y154.42 E10.97597
G1 X160.79 Y154.24 E10.98355
G1 X160.85 Y154.06 E10.99138
G1 X161.02 Y153.76 E11.00589
G0 F5400 X163.61 Y153.20
G1 F1800 X163.59 Y151.00 E11.09736
G1 X167.10 Y151.00 E11.24321
G1 X167.10 Y153.20 E11.33467
G1 X163.61 Y153.20 E11.47960
G0 F5400 X164.11 Y152.70
G1 F1800 X164.09 Y151.50 E11.52949
G1 X166.60 Y151.50 E11.63356
G1 X166.60 Y152.70 E11.68345
G1 X164.11 Y152.70 E11.78701
G0 F5400 X162.96 Y157.27
G1 F1800 X163.24 Y157.38 E11.79970
G1 X163.51 Y157.54 E11.81262
G1 X163.80 Y157.74 E11.82708
G1 X164.16 Y158.13 E11.84935
G1 X164.35 Y158.43 E11.86381
G1 X164.48 Y158.70 E11.87653
G1 X164.57 Y158.99 E11.88917
G1 X164.63 Y159.29 E11.90200
G1 X164.65 Y159.60 E11.91487
G1 X164.63 Y159.91 E11.92769
G1 X164.57 Y160.21 E11.94045
G1 X164.48 Y160.50 E11.95315
G1 X164.33 Y160.82 E11.96777
G1 X163.99 Y161.29 E11.99172
G1 X163.51 Y161.68 E12.01736
G1 X162.96 Y161.94 E12.04304
G1 X162.35 Y162.06 E12.06859
G1 X161.74 Y162.02 E12.09417
G1 X161.15 Y161.83 E12.11995
G1 X160.63 Y161.50 E12.14560
G1 X160.21 Y161.05 E12.17113
G1 X159.93 Y160.54 E12.19525
G1 X159.82 Y160.21 E12.20964
G1 X159.76 Y159.91 E12.22239
G1 X159.75 Y159.60 E12.23522
G1 X159.76 Y159.29 E12.24809
G1 X159.82 Y158.99 E12.26092
G1 X159.93 Y158.66 E12.27522
G1 X160.19 Y158.19 E12.29764
G1 X160.44 Y157.89 E12.31379
G1 X160.88 Y157.53 E12.33774
G1 X161.40 Y157.28 E12.36158
G1 X161.74 Y157.19 E12.37616
G1 X162.04 Y157.16 E12.38876
G1 X162.35 Y157.15 E12.40174
G1 X162.66 Y157.19 E12.41478
G1 X162.96 Y157.27 E12.42754
G0 F5400 X162.80 Y157.75
G1 F1800 X163.03 Y157.84 E12.43768
G1 X163.25 Y157.96 E12.44793
G1 X163.46 Y158.12 E12.45912
G1 X163.76 Y158.44 E12.47747
G1 X163.91 Y158.67 E12.48868
G1 X164.01 Y158.88 E12.49875
G1 X164.09 Y159.12 E12.50884
G1 X164.13 Y159.36 E12.51905
G1 X164.15 Y159.60 E12.52930
G1 X164.13 Y159.85 E12.53950
G1 X164.09 Y160.09 E12.54967
G1 X164.01 Y160.32 E12.55979
G1 X163.90 Y160.57 E12.57106
G1 X163.62 Y160.94 E12.59044
G1 X163.25 Y161.25 E12.61081
G1 X162.80 Y161.46 E12.63122
G1 X162.32 Y161.55 E12.65157
G1 X161.83 Y161.53 E12.67193
G1 X161.36 Y161.37 E12.69239
G1 X160.95 Y161.11 E12.71277
G1 X160.62 Y160.75 E12.73309
G1 X160.39 Y160.34 E12.75256
G1 X160.31 Y160.09 E12.76369
G1 X160.26 Y159.85 E12.77386
G1 X160.25 Y159.60 E12.78406
G1 X160.26 Y159.36 E12.79431
G1 X160.31 Y159.12 E12.80452
G1 X160.39 Y158.86 E12.81557
G1 X160.60 Y158.47 E12.83403
G1 X160.79 Y158.25 E12.84623
G1 X161.15 Y157.95 E12.86563
G1 X161.57 Y157.75 E12.88492
G1 X161.83 Y157.69 E12.89613
G1 X162.07 Y157.66 E12.90619
G1 X162.32 Y157.66 E12.91658
G1 X162.57 Y157.69 E12.92685
G1 X162.80 Y157.75 E12.93704
G0 F5400 X162.65 Y158.22
G1 F1800 X162.82 Y158.29 E12.94459
G1 X162.98 Y158.38 E12.95220
G1 X163.13 Y158.49 E12.96008
G1 X163.37 Y158.75 E12.97452
G1 X163.47 Y158.91 E12.98248
G1 X163.55 Y159.07 E12.98992
G1 X163.60 Y159.24 E12.99744
G1 X163.64 Y159.42 E13.00502
G1 X163.65 Y159.60 E13.01264
G1 X163.64 Y159.79 E13.02022
G1 X163.60 Y159.96 E13.02776
G1 X163.55 Y160.14 E13.03536
G1 X163.47 Y160.31 E13.04327
G1 X163.26 Y160.60 E13.05806
G1 X162.97 Y160.83 E13.07321
G1 X162.65 Y160.98 E13.08833
G1 X162.29 Y161.05 E13.10347
G1 X161.93 Y161.03 E13.11859
G1 X161.58 Y160.92 E13.13376
G1 X161.27 Y160.72 E13.14891
G1 X161.02 Y160.46 E13.16402
G1 X160.85 Y160.14 E13.17884
G1 X160.79 Y159.96 E13.18674
G1 X160.76 Y159.79 E13.19428
G1 X160.75 Y159.60 E13.20186
G1 X160.76 Y159.42 E13.20948
G1 X160.79 Y159.24 E13.21706
G1 X160.85 Y159.06 E13.22488
G1 X161.02 Y158.76 E13.23940
G1 X161.15 Y158.60 E13.24766
G1 X161.42 Y158.38 E13.26243
G1 X161.74 Y158.23 E13.27722
G1 X161.93 Y158.18 E13.28512
G1 X162.10 Y158.16 E13.29258
G1 X162.29 Y158.16 E13.30035
G1 X162.47 Y158.18 E13.30790
G1 X162.65 Y158.22 E13.31555
G0 F5400 X162.35 Y162.15
G1 F1800 X162.66 Y162.19 E13.32859
G1 X162.96 Y162.27 E13.34136
G1 X163.24 Y162.38 E13.35405
G1 X163.51 Y162.54 E13.36697
G1 X163.80 Y162.74 E13.38143
G1 X164.16 Y163.13 E13.40369
G1 X164.35 Y163.43 E13.41816
G1 X164.48 Y163.70 E13.43088
G1 X164.57 Y163.99 E13.44352
G1 X164.63 Y164.29 E13.45635
G1 X164.65 Y164.60 E13.46922
G1 X164.63 Y164.91 E13.48204
G1 X164.57 Y165.21 E13.49480
G1 X164.48 Y165.50 E13.50750
G1 X164.33 Y165.82 E13.52212
G1 X163.99 Y166.29 E13.54607
G1 X163.51 Y166.68 E13.57171
G1 X162.96 Y166.94 E13.59739
G1 X162.35 Y167.06 E13.62294
G1 X161.74 Y167.02 E13.64852
G1 X161.15 Y166.83 E13.67430
G1 X160.63 Y166.50 E13.69995
G1 X160.21 Y166.05 E13.72548
G1 X159.93 Y165.54 E13.74959
G1 X159.82 Y165.21 E13.76399
G1 X159.76 Y164.91 E13.77674
G1 X159.75 Y164.60 E13.78957
G1 X159.76 Y164.29 E13.80244
G1 X159.82 Y163.99 E13.81527
G1 X159.93 Y163.66 E13.82957
G1 X160.19 Y163.19 E13.85199
G1 X160.44 Y162.89 E13.86814
G1 X160.88 Y162.53 E13.89209
G1 X161.40 Y162.28 E13.91593
G1 X161.74 Y162.19 E13.93051
G1 X162.04 Y162.16 E13.94311
G1 X162.35 Y162.15 E13.95609
G0 F5400 X162.32 Y162.66
G1 F1800 X162.57 Y162.69 E13.96635
G1 X162.80 Y162.75 E13.97655
G1 X163.03 Y162.84 E13.98669
G1 X163.25 Y162.96 E13.99694
G1 X163.46 Y163.12 E14.00812
G1 X163.76 Y163.44 E14.02648
G1 X163.91 Y163.67 E14.03769
G1 X164.01 Y163.88 E14.04775
G1 X164.09 Y164.12 E14.05785
G1 X164.13 Y164.36 E14.06806
G1 X164.15 Y164.60 E14.07830
G1 X164.13 Y164.85 E14.08850
G1 X164.09 Y165.09 E14.09867
G1 X164.01 Y165.32 E14.10879
G1 X163.90 Y165.57 E14.12006
G1 X163.62 Y165.94 E14.13944
G1 X163.25 Y166.25 E14.15982
G1 X162.80 Y166.46 E14.18022
G1 X162.32 Y166.55 E14.20057
G1 X161.83 Y166.53 E14.22094
G1 X161.36 Y166.37 E14.24140
G1 X160.95 Y166.11 E14.26177
G1 X160.62 Y165.75 E14.28210
G1 X160.39 Y165.34 E14.30156
G1 X160.31 Y165.09 E14.31270
G1 X160.26 Y164.85 E14.32287
G1 X160.25 Y164.60 E14.33307
G1 X160.26 Y164.36 E14.34331
G1 X160.31 Y164.12 E14.35352
G1 X160.39 Y163.86 E14.36458
G1 X160.60 Y163.47 E14.38304
G1 X160.79 Y163.25 E14.39523
G1 X161.15 Y162.95 E14.41463
G1 X161.57 Y162.75 E14.43392
G1 X161.83 Y162.69 E14.44514
G1 X162.07 Y162.66 E14.45519
G1 X162.32 Y162.66 E14.46558
G0 F5400 X162.29 Y163.16
G1 F1800 X162.47 Y163.18 E14.47313
G1 X162.65 Y163.22 E14.48078
G1 X162.82 Y163.29 E14.48833
G1 X162.98 Y163.38 E14.49594
G1 X163.13 Y163.49 E14.50382
G1 X163.37 Y163.75 E14.51826
G1 X163.47 Y163.91 E14.52622
G1 X163.55 Y164.07 E14.53366
G1 X163.60 Y164.24 E14.54118
