;Generated with Cura_SteamEngine 13.12
M140 S100.000000
M109 T0 S255.000000
T0
M190 S100.000000
;Sliced at: Mon 24-02-2014 01:12:23
;Basic settings: Layer height: 0.1 Walls: 0.5 Fill: 100
;Print time: #P_TIME#
;Filament used: #F_AMNT#m #F_WGHT#g
;Filament cost: #F_COST#
;M190 S100 ;Uncomment to add your own bed temperature line
;M109 S255 ;Uncomment to add your own temperature line
G21        ;metric values
G90        ;absolute positioning
M107       ;start with the fan off
G28 X0 Y0  ;move X/Y to min endstops
G28 Z0     ;move Z to min endstops
G1 Z15.0 F9000 ;move the platform down 15mm
G92 E0                  ;zero the extruded length
G1 F200 E3              ;extrude 3mm of feed stock
G92 E0                  ;zero the extruded length again
G1 F9000
;Put printing message on LCD screen
M117 Printing...

;Layer count: 150
;LAYER:-2
;RAFT
G0 F9000 X85.85 Y84.65 Z0.30
;TYPE:SUPPORT
G1 F1200 E0.00000
G1 F1800 X114.15 Y84.65 E2.47081
G1 X114.15 Y115.35 E5.15099
G1 X85.85 Y115.35 E7.62180
G1 X85.85 Y84.65 E10.30198
G0 F9000 X86.50 Y84.53
G1 F1800 X86.50 Y115.47 E13.00293
G0 F9000 X87.50 Y115.47
G1 F1800 X87.50 Y84.53 E15.70389
G0 F9000 X88.50 Y84.53
G1 F1800 X88.50 Y115.47 E18.40484
G0 F9000 X89.50 Y115.47
G1 F1800 X89.50 Y84.53 E21.10580
G0 F9000 X90.50 Y84.53
G1 F1800 X90.50 Y115.47 E23.80676
G0 F9000 X91.50 Y115.47
G1 F1800 X91.50 Y84.53 E26.50771
G0 F9000 X92.50 Y84.53
G1 F1800 X92.50 Y115.47 E29.20867
G0 F9000 X93.50 Y115.47
G1 F1800 X93.50 Y84.53 E31.90962
G0 F9000 X94.50 Y84.53
G1 F1800 X94.50 Y115.47 E34.61058
G0 F9000 X95.50 Y115.47
G1 F1800 X95.50 Y84.53 E37.31154
G0 F9000 X96.50 Y84.53
G1 F1800 X96.50 Y115.47 E40.01249
G0 F9000 X97.50 Y115.47
G1 F1800 X97.50 Y84.53 E42.71345
G0 F9000 X98.50 Y84.53
G1 F1800 X98.50 Y115.47 E45.41440
G0 F9000 X99.50 Y115.47
G1 F1800 X99.50 Y84.53 E48.11536
G0 F9000 X100.50 Y84.53
G1 F1800 X100.50 Y115.47 E50.81631
G0 F9000 X101.50 Y115.47
G1 F1800 X101.50 Y84.53 E53.51727
G0 F9000 X102.50 Y84.53
G1 F1800 X102.50 Y115.47 E56.21823
G0 F9000 X103.50 Y115.47
G1 F1800 X103.50 Y84.53 E58.91918
G0 F9000 X104.50 Y84.53
G1 F1800 X104.50 Y115.47 E61.62014
G0 F9000 X105.50 Y115.47
G1 F1800 X105.50 Y84.53 E64.32109
G0 F9000 X106.50 Y84.53
G1 F1800 X106.50 Y115.47 E67.02205
G0 F9000 X107.50 Y115.47
G1 F1800 X107.50 Y84.53 E69.72300
G0 F9000 X108.50 Y84.53
G1 F1800 X108.50 Y115.47 E72.42396
G0 F9000 X109.50 Y115.47
G1 F1800 X109.50 Y84.53 E75.12492
G0 F9000 X110.50 Y84.53
G1 F1800 X110.50 Y115.47 E77.82587
G0 F9000 X111.50 Y115.47
G1 F1800 X111.50 Y84.53 E80.52683
G0 F9000 X112.50 Y84.53
G1 F1800 X112.50 Y115.47 E83.22778
G0 F9000 X113.50 Y115.47
G1 F1800 X113.50 Y84.53 E85.92874
;LAYER:-1
;RAFT
G0 F9000 X114.18 Y85.50 Z0.50
;TYPE:SUPPORT
G1 F1800 X85.81 Y85.50 E86.40050
G0 F9000 X85.81 Y86.50
G1 F1800 X114.18 Y86.50 E86.87226
G0 F9000 X114.18 Y87.50
G1 F1800 X85.81 Y87.50 E87.34402
G0 F9000 X85.81 Y88.50
G1 F1800 X114.18 Y88.50 E87.81579
G0 F9000 X114.18 Y89.50
G1 F1800 X85.81 Y89.50 E88.28755
G0 F9000 X85.81 Y90.50
G1 F1800 X114.18 Y90.50 E88.75931
G0 F9000 X114.18 Y91.50
G1 F1800 X85.81 Y91.50 E89.23107
G0 F9000 X85.81 Y92.50
G1 F1800 X114.18 Y92.50 E89.70283
G0 F9000 X114.18 Y93.50
G1 F1800 X85.81 Y93.50 E90.17460
G0 F9000 X85.81 Y94.50
G1 F1800 X114.18 Y94.50 E90.64636
G0 F9000 X114.18 Y95.50
G1 F1800 X85.81 Y95.50 E91.11812
G0 F9000 X85.81 Y96.50
G1 F1800 X114.18 Y96.50 E91.58988
G0 F9000 X114.18 Y97.50
G1 F1800 X85.81 Y97.50 E92.06164
G0 F9000 X85.81 Y98.50
G1 F1800 X114.18 Y98.50 E92.53340
G0 F9000 X114.18 Y99.50
G1 F1800 X85.81 Y99.50 E93.00517
G0 F9000 X85.81 Y100.50
G1 F1800 X114.18 Y100.50 E93.47693
G0 F9000 X114.18 Y101.50
G1 F1800 X85.81 Y101.50 E93.94869
G0 F9000 X85.81 Y102.50
G1 F1800 X114.18 Y102.50 E94.42045
G0 F9000 X114.18 Y103.50
G1 F1800 X85.81 Y103.50 E94.89221
G0 F9000 X85.81 Y104.50
G1 F1800 X114.18 Y104.50 E95.36397
G0 F9000 X114.18 Y105.50
G1 F1800 X85.81 Y105.50 E95.83574
G0 F9000 X85.81 Y106.50
G1 F1800 X114.18 Y106.50 E96.30750
G0 F9000 X114.18 Y107.50
G1 F1800 X85.81 Y107.50 E96.77926
G0 F9000 X85.81 Y108.50
G1 F1800 X114.18 Y108.50 E97.25102
G0 F9000 X114.18 Y109.50
G1 F1800 X85.81 Y109.50 E97.72278
G0 F9000 X85.81 Y110.50
G1 F1800 X114.18 Y110.50 E98.19455
G0 F9000 X114.18 Y111.50
G1 F1800 X85.81 Y111.50 E98.66631
G0 F9000 X85.81 Y112.50
G1 F1800 X114.18 Y112.50 E99.13807
G0 F9000 X114.18 Y113.50
G1 F1800 X85.81 Y113.50 E99.60983
G0 F9000 X85.81 Y114.50
G1 F1800 X114.18 Y114.50 E100.08159
;LAYER:0
M107
G0 F5400 X103.90 Y105.10 Z0.70
;TYPE:WALL-OUTER
G1 F1800 X102.40 Y105.10 E100.14396
G1 X102.40 Y104.91 E100.15198
G1 X103.90 Y104.90 E100.21434
G1 X103.90 Y105.10 E100.22257
G0 F5400 X100.83 Y102.96
G1 F1800 X100.69 Y103.15 E100.23245
G1 X100.50 Y103.31 E100.24276
G1 X100.29 Y103.40 E100.25239
G1 X100.18 Y103.43 E100.25706
G1 X100.06 Y103.45 E100.26218
G1 X99.94 Y103.45 E100.26708
G1 X99.82 Y103.43 E100.27220
G1 X99.72 Y103.41 E100.27666
G1 X99.49 Y103.30 E100.28713
G1 X99.40 Y103.24 E100.29150
G1 X99.23 Y103.05 E100.30200
G1 X99.12 Y102.85 E100.31166
G1 X99.06 Y102.61 E100.32174
G1 X99.05 Y102.50 E100.32645
G1 X99.06 Y102.39 E100.33120
G1 X99.08 Y102.27 E100.33623
G1 X99.17 Y102.04 E100.34625
G1 X99.31 Y101.85 E100.35613
G1 X99.50 Y101.69 E100.36644
G1 X99.71 Y101.60 E100.37607
G1 X99.94 Y101.55 E100.38567
G1 X100.06 Y101.55 E100.39083
G1 X100.17 Y101.57 E100.39527
G1 X100.42 Y101.65 E100.40616
G1 X100.50 Y101.69 E100.41023
G1 X100.70 Y101.86 E100.42080
G1 X100.76 Y101.94 E100.42520
G1 X100.88 Y102.15 E100.43542
G1 X100.92 Y102.27 E100.44027
G1 X100.94 Y102.39 E100.44539
G1 X100.95 Y102.50 E100.45014
G1 X100.94 Y102.61 E100.45485
G1 X100.92 Y102.73 E100.45988
G1 X100.83 Y102.96 E100.46990
G0 F5400 X100.56 Y103.04
;TYPE:FILL
G1 F2520 X99.46 Y101.94 E100.53464
G0 F5400 X99.46 Y101.94
G1 F2520 X100.56 Y103.04 E100.59937
G0 F5400 X100.09 Y103.28
G1 F2520 X99.22 Y102.40 E100.65058
G0 F5400 X99.22 Y102.40
G1 F2520 X100.09 Y103.28 E100.70180
G0 F5400 X100.78 Y102.55
G1 F2520 X99.95 Y101.72 E100.75066
G0 F5400 X99.95 Y101.72
G1 F2520 X100.78 Y102.55 E100.79951
G0 F5400 X100.30 Y102.52
G0 X97.60 Y104.90
;TYPE:WALL-OUTER
G1 F1800 X97.60 Y105.10 E100.80779
G1 X96.10 Y105.10 E100.87015
G1 X96.10 Y104.90 E100.87842
G1 X97.60 Y104.90 E100.94079
G0 F5400 X99.72 Y98.41
G1 F1800 X99.49 Y98.30 E100.95126
G1 X99.40 Y98.24 E100.95563
G1 X99.23 Y98.05 E100.96613
G1 X99.12 Y97.85 E100.97579
G1 X99.06 Y97.61 E100.98587
G1 X99.05 Y97.50 E100.99062
G1 X99.06 Y97.39 E100.99533
G1 X99.08 Y97.27 E101.00036
G1 X99.17 Y97.04 E101.01038
G1 X99.31 Y96.85 E101.02026
G1 X99.50 Y96.69 E101.03057
G1 X99.71 Y96.60 E101.04020
G1 X99.94 Y96.55 E101.04980
G1 X100.06 Y96.55 E101.05496
G1 X100.17 Y96.57 E101.05940
G1 X100.42 Y96.65 E101.07029
G1 X100.50 Y96.69 E101.07436
G1 X100.70 Y96.86 E101.08493
G1 X100.76 Y96.94 E101.08933
G1 X100.88 Y97.16 E101.09955
G1 X100.92 Y97.27 E101.10440
G1 X100.94 Y97.39 E101.10952
G1 X100.95 Y97.50 E101.11423
G1 X100.94 Y97.61 E101.11898
G1 X100.92 Y97.73 E101.12401
G1 X100.83 Y97.96 E101.13403
G1 X100.69 Y98.15 E101.14391
G1 X100.50 Y98.31 E101.15422
G1 X100.29 Y98.41 E101.16385
G1 X100.18 Y98.43 E101.16852
G1 X100.06 Y98.45 E101.17364
G1 X99.94 Y98.45 E101.17854
G1 X99.82 Y98.43 E101.18366
G1 X99.72 Y98.41 E101.18812
G0 F5400 X100.05 Y98.28
;TYPE:FILL
G1 F2520 X99.22 Y97.45 E101.23706
G0 F5400 X99.22 Y97.45
G1 F2520 X100.05 Y98.28 E101.28601
G0 F5400 X100.54 Y98.06
G1 F2520 X99.44 Y96.96 E101.35075
G0 F5400 X99.44 Y96.96
G1 F2520 X100.54 Y98.06 E101.41548
G0 F5400 X100.78 Y97.59
G1 F2520 X99.91 Y96.73 E101.46646
G0 F5400 X99.91 Y96.73
G1 F2520 X100.78 Y97.59 E101.51743
G0 F5400 X100.30 Y97.48
G0 X97.60 Y95.10
;TYPE:WALL-OUTER
G1 F1800 X96.10 Y95.10 E101.57980
G1 X96.10 Y94.90 E101.58807
G1 X97.60 Y94.90 E101.65043
G1 X97.60 Y95.10 E101.65871
G0 F5400 X102.41 Y95.10
G1 F1800 X102.40 Y94.90 E101.66698
G1 X103.90 Y94.90 E101.72922
G1 X103.90 Y95.10 E101.73749
G1 X102.41 Y95.10 E101.79965
;LAYER:1
M106 S84
G0 F9000 X102.40 Y95.10 Z0.80
;TYPE:WALL-OUTER
G1 F2100 X102.40 Y94.90 E101.80378
G1 X103.90 Y94.90 E101.83496
G1 X103.90 Y95.10 E101.83910
G1 X102.40 Y95.10 E101.87028
G0 F9000 X100.69 Y96.85
G1 F2100 X100.84 Y97.06 E101.87564
G1 X100.88 Y97.15 E101.87773
G1 X100.92 Y97.27 E101.88038
G1 X100.94 Y97.39 E101.88289
G1 X100.95 Y97.50 E101.88525
G1 X100.94 Y97.61 E101.88762
G1 X100.92 Y97.73 E101.89014
G1 X100.83 Y97.96 E101.89528
G1 X100.70 Y98.14 E101.89995
G1 X100.50 Y98.31 E101.90525
G1 X100.29 Y98.41 E101.91007
G1 X100.18 Y98.43 E101.91240
G1 X100.06 Y98.45 E101.91496
G1 X99.94 Y98.45 E101.91741
G1 X99.82 Y98.43 E101.91997
G1 X99.72 Y98.41 E101.92220
G1 X99.49 Y98.30 E101.92743
G1 X99.31 Y98.15 E101.93222
G1 X99.23 Y98.06 E101.93476
G1 X99.12 Y97.85 E101.93970
G1 X99.06 Y97.61 E101.94475
G1 X99.05 Y97.50 E101.94712
G1 X99.06 Y97.39 E101.94948
G1 X99.08 Y97.27 E101.95199
G1 X99.17 Y97.04 E101.95713
G1 X99.30 Y96.86 E101.96180
G1 X99.50 Y96.69 E101.96710
G1 X99.71 Y96.60 E101.97192
G1 X99.94 Y96.55 E101.97668
G1 X100.06 Y96.55 E101.97934
G1 X100.17 Y96.57 E101.98161
G1 X100.42 Y96.65 E101.98696
G1 X100.51 Y96.70 E101.98921
G1 X100.60 Y96.77 E101.99158
G1 X100.69 Y96.85 E101.99399
G0 F9000 X100.61 Y97.02
;TYPE:FILL
G1 F2940 X99.52 Y98.11 E102.02603
G0 F9000 X99.52 Y98.11
G1 F2940 X100.61 Y97.02 E102.05808
G0 F9000 X100.18 Y96.75
G1 F2940 X99.25 Y97.68 E102.08562
G0 F9000 X99.25 Y97.68
G1 F2940 X100.18 Y96.75 E102.11317
G0 F9000 X100.78 Y97.56
G1 F2940 X100.06 Y98.28 E102.13422
G0 F9000 X100.06 Y98.28
G1 F2940 X100.78 Y97.56 E102.15527
G0 F9000 X100.30 Y97.45
G0 X97.60 Y95.10
;TYPE:WALL-OUTER
G1 F2100 X96.10 Y95.10 E102.18645
G1 X96.10 Y94.90 E102.19058
G1 X97.60 Y94.90 E102.22177
G1 X97.60 Y95.10 E102.22590
G0 F9000 X99.71 Y101.60
G1 F2100 X99.94 Y101.55 E102.23066
G1 X100.06 Y101.55 E102.23332
G1 X100.17 Y101.57 E102.23559
G1 X100.42 Y101.65 E102.24095
G1 X100.51 Y101.70 E102.24320
G1 X100.60 Y101.77 E102.24556
G1 X100.69 Y101.85 E102.24797
G1 X100.84 Y102.06 E102.25333
G1 X100.88 Y102.15 E102.25542
G1 X100.92 Y102.27 E102.25807
G1 X100.94 Y102.39 E102.26058
G1 X100.95 Y102.50 E102.26296
G1 X100.94 Y102.61 E102.26531
G1 X100.92 Y102.73 E102.26783
G1 X100.83 Y102.96 E102.27297
G1 X100.70 Y103.14 E102.27764
G1 X100.50 Y103.31 E102.28294
G1 X100.29 Y103.40 E102.28775
G1 X100.18 Y103.43 E102.29009
G1 X100.06 Y103.45 E102.29265
G1 X99.94 Y103.45 E102.29510
G1 X99.82 Y103.43 E102.29766
G1 X99.72 Y103.41 E102.29989
G1 X99.49 Y103.30 E102.30512
G1 X99.31 Y103.15 E102.30990
G1 X99.23 Y103.06 E102.31244
G1 X99.12 Y102.85 E102.31739
G1 X99.06 Y102.61 E102.32243
G1 X99.05 Y102.50 E102.32479
G1 X99.06 Y102.39 E102.32716
G1 X99.08 Y102.27 E102.32968
G1 X99.17 Y102.04 E102.33482
G1 X99.30 Y101.86 E102.33949
G1 X99.50 Y101.69 E102.34479
G1 X99.71 Y101.60 E102.34961
G0 F9000 X100.15 Y101.73
;TYPE:FILL
G1 F2940 X99.24 Y102.64 E102.37636
G0 F9000 X99.24 Y102.64
G1 F2940 X100.15 Y101.73 E102.40311
G0 F9000 X100.59 Y102.00
G1 F2940 X99.50 Y103.09 E102.43530
G0 F9000 X99.50 Y103.09
G1 F2940 X100.59 Y102.00 E102.46749
G0 F9000 X100.78 Y102.51
G1 F2940 X100.01 Y103.28 E102.49019
G0 F9000 X100.01 Y103.28
G1 F2940 X100.78 Y102.51 E102.51288
G0 F9000 X100.27 Y102.67
G0 X102.40 Y104.90
;TYPE:WALL-OUTER
G1 F2100 X103.90 Y104.90 E102.54407
G1 X103.90 Y105.10 E102.54820
G1 X102.40 Y105.10 E102.57938
G1 X102.40 Y104.90 E102.58352
G0 F9000 X97.60 Y104.90
G1 F2100 X97.60 Y105.10 E102.58766
G1 X96.10 Y105.10 E102.61884
G1 X96.10 Y104.90 E102.62298
G1 X97.60 Y104.90 E102.65416
;LAYER:2
M106 S168
G0 F9000 X97.60 Y104.90 Z0.90
;TYPE:WALL-OUTER
G1 F2160 X97.60 Y105.10 E102.65829
G1 X96.10 Y105.10 E102.68947
G1 X96.10 Y104.90 E102.69361
G1 X97.60 Y104.90 E102.72479
G0 F9000 X99.31 Y103.15
G1 F2160 X99.23 Y103.06 E102.72733
G1 X99.12 Y102.85 E102.73228
G1 X99.06 Y102.61 E102.73732
G1 X99.05 Y102.50 E102.73968
G1 X99.06 Y102.39 E102.74205
G1 X99.12 Y102.15 E102.74710
G1 X99.23 Y101.95 E102.75192
G1 X99.40 Y101.76 E102.75717
G1 X99.49 Y101.70 E102.75936
G1 X99.72 Y101.59 E102.76460
G1 X99.93 Y101.55 E102.76916
G1 X100.06 Y101.55 E102.77182
G1 X100.30 Y101.60 E102.77695
G1 X100.40 Y101.64 E102.77922
G1 X100.61 Y101.77 E102.78434
G1 X100.77 Y101.95 E102.78926
G1 X100.83 Y102.04 E102.79162
G1 X100.92 Y102.27 E102.79665
G1 X100.94 Y102.39 E102.79914
G1 X100.95 Y102.50 E102.80152
G1 X100.94 Y102.61 E102.80387
G1 X100.88 Y102.85 E102.80891
G1 X100.77 Y103.05 E102.81374
G1 X100.60 Y103.24 E102.81899
G1 X100.51 Y103.30 E102.82118
G1 X100.29 Y103.41 E102.82641
G1 X100.18 Y103.43 E102.82864
G1 X100.06 Y103.45 E102.83120
G1 X99.83 Y103.43 E102.83595
G1 X99.59 Y103.35 E102.84128
G1 X99.49 Y103.30 E102.84351
G1 X99.39 Y103.23 E102.84603
G1 X99.31 Y103.15 E102.84846
G0 F9000 X99.22 Y102.40
;TYPE:FILL
G1 F3060 X100.09 Y103.28 E102.87409
G0 F9000 X100.09 Y103.28
G1 F3060 X99.22 Y102.40 E102.89973
G0 F9000 X99.46 Y101.94
G1 F3060 X100.56 Y103.04 E102.93200
G0 F9000 X100.56 Y103.04
G1 F3060 X99.46 Y101.94 E102.96428
G0 F9000 X99.95 Y101.72
G1 F3060 X100.78 Y102.55 E102.98871
G0 F9000 X100.78 Y102.55
G1 F3060 X99.95 Y101.72 E103.01314
G0 F9000 X100.05 Y102.19
G0 X102.40 Y104.90
;TYPE:WALL-OUTER
G1 F2160 X103.90 Y104.90 E103.04432
G1 X103.90 Y105.10 E103.04846
G1 X102.40 Y105.10 E103.07964
G1 X102.40 Y104.90 E103.08378
G0 F9000 X100.29 Y98.41
G1 F2160 X100.18 Y98.43 E103.08601
G1 X100.06 Y98.45 E103.08857
G1 X99.83 Y98.43 E103.09331
G1 X99.59 Y98.36 E103.09865
G1 X99.49 Y98.30 E103.10088
G1 X99.39 Y98.23 E103.10339
G1 X99.31 Y98.15 E103.10582
G1 X99.23 Y98.06 E103.10836
G1 X99.12 Y97.85 E103.11331
G1 X99.06 Y97.61 E103.11835
G1 X99.05 Y97.50 E103.12073
G1 X99.06 Y97.39 E103.12308
G1 X99.12 Y97.15 E103.12812
G1 X99.23 Y96.95 E103.13295
G1 X99.40 Y96.76 E103.13820
G1 X99.49 Y96.70 E103.14039
G1 X99.72 Y96.59 E103.14562
G1 X99.93 Y96.56 E103.15019
G1 X100.06 Y96.55 E103.15285
G1 X100.30 Y96.60 E103.15798
G1 X100.40 Y96.64 E103.16025
G1 X100.61 Y96.78 E103.16536
G1 X100.77 Y96.95 E103.17029
G1 X100.83 Y97.04 E103.17264
G1 X100.92 Y97.27 E103.17767
G1 X100.94 Y97.39 E103.18017
G1 X100.95 Y97.50 E103.18252
G1 X100.94 Y97.61 E103.18490
G1 X100.88 Y97.85 E103.18994
G1 X100.77 Y98.05 E103.19477
G1 X100.60 Y98.24 E103.20002
G1 X100.51 Y98.30 E103.20221
G1 X100.29 Y98.41 E103.20744
G0 F9000 X100.05 Y98.28
;TYPE:FILL
G1 F3060 X99.22 Y97.45 E103.23192
G0 F9000 X99.22 Y97.45
G1 F3060 X100.05 Y98.28 E103.25639
G0 F9000 X100.54 Y98.06
G1 F3060 X99.44 Y96.96 E103.28864
G0 F9000 X99.44 Y96.96
G1 F3060 X100.54 Y98.06 E103.32089
G0 F9000 X100.78 Y97.59
G1 F3060 X99.91 Y96.73 E103.34638
G0 F9000 X99.91 Y96.73
G1 F3060 X100.78 Y97.59 E103.37187
G0 F9000 X100.30 Y97.48
G0 X97.60 Y95.10
;TYPE:WALL-OUTER
G1 F2160 X96.10 Y95.10 E103.40305
G1 X96.10 Y94.90 E103.40718
G1 X97.60 Y94.90 E103.43837
G1 X97.60 Y95.10 E103.44250
G0 F9000 X102.40 Y95.10
G1 F2160 X102.40 Y94.90 E103.44664
G1 X103.90 Y94.90 E103.47782
G1 X103.90 Y95.10 E103.48196
G1 X102.40 Y95.10 E103.51314
;LAYER:3
M106 S255
G0 F9000 X102.40 Y95.10 Z1.00
;TYPE:WALL-OUTER
G1 F2160 X102.40 Y94.90 E103.51727
G1 X103.90 Y94.90 E103.54846
G1 X103.90 Y95.10 E103.55259
G1 X102.40 Y95.10 E103.58377
G0 F9000 X100.69 Y96.85
G1 F2160 X100.84 Y97.06 E103.58900
G1 X100.92 Y97.27 E103.59378
G1 X100.94 Y97.39 E103.59623
G1 X100.95 Y97.50 E103.59855
G1 X100.94 Y97.61 E103.60084
G1 X100.88 Y97.85 E103.60605
G1 X100.83 Y97.95 E103.60837
G1 X100.69 Y98.16 E103.61356
G1 X100.51 Y98.30 E103.61823
G1 X100.29 Y98.41 E103.62347
G1 X100.18 Y98.43 E103.62569
G1 X100.06 Y98.45 E103.62825
G1 X99.83 Y98.43 E103.63304
G1 X99.60 Y98.36 E103.63806
G1 X99.50 Y98.31 E103.64040
G1 X99.31 Y98.15 E103.64555
G1 X99.17 Y97.96 E103.65049
G1 X99.08 Y97.73 E103.65550
G1 X99.06 Y97.61 E103.65802
G1 X99.05 Y97.50 E103.66039
G1 X99.06 Y97.39 E103.66266
G1 X99.12 Y97.15 E103.66790
G1 X99.17 Y97.05 E103.67020
G1 X99.31 Y96.84 E103.67539
G1 X99.49 Y96.70 E103.68006
G1 X99.72 Y96.59 E103.68529
G1 X99.93 Y96.56 E103.68982
G1 X100.06 Y96.55 E103.69252
G1 X100.18 Y96.57 E103.69512
G1 X100.31 Y96.60 E103.69779
G1 X100.40 Y96.64 E103.69990
G1 X100.61 Y96.78 E103.70520
G1 X100.69 Y96.85 E103.70742
G0 F9000 X100.61 Y97.02
