;Generated with Cura_SteamEngine 13.12
M140 S60.000000
M109 T0 S220.000000
T0
M190 S60.000000
;Sliced at: Sun 23-02-2014 20:51:22
;Basic settings: Layer height: 0.06 Walls: 1 Fill: 100
;Print time: #P_TIME#
;Filament used: #F_AMNT#m #F_WGHT#g
;Filament cost: #F_COST#
;M190 S60 ;Uncomment to add your own bed temperature line
;M109 S220 ;Uncomment to add your own temperature line
G21        ;metric values
G90        ;absolute positioning
M107       ;start with the fan off
G28 X0 Y0  ;move X/Y to min endstops
G28 Z0     ;move Z to min endstops
G1 Z15.0 F9000 ;move the platform down 15mm
G92 E0                  ;zero the extruded length
G1 F200 E3              ;extrude 3mm of feed stock
G92 E0                  ;zero the extruded length again
G1 F9000
;Put printing message on LCD screen
M117 Printing...

;Layer count: 82
;LAYER:0
M107
G0 F5400 X92.86 Y92.56 Z0.20
;TYPE:SKIRT
G1 F1200 E0.00000
G1 F1800 X98.36 Y92.56 E0.22862
G1 X98.36 Y91.36 E0.27851
G1 X107.86 Y91.36 E0.67348
G1 X107.86 Y92.56 E0.72337
G1 X113.26 Y92.56 E0.94791
G1 X113.26 Y114.46 E1.85841
G1 X107.86 Y114.46 E2.08296
G1 X107.86 Y115.85 E2.14112
G1 X98.36 Y115.85 E2.53609
G1 X98.36 Y114.46 E2.59425
G1 X92.86 Y114.46 E2.82287
G1 X92.86 Y92.56 E3.73337
G0 F5400 X93.36 Y93.06
G1 F1800 X98.86 Y93.06 E3.96199
G1 X98.86 Y91.86 E4.01188
G1 X107.36 Y91.86 E4.36527
G1 X107.36 Y93.06 E4.41516
G1 X112.76 Y93.06 E4.63971
G1 X112.76 Y113.96 E5.50863
G1 X107.36 Y113.96 E5.73317
G1 X107.36 Y115.35 E5.79134
G1 X98.86 Y115.35 E6.14473
G1 X98.86 Y113.96 E6.20289
G1 X93.36 Y113.96 E6.43151
G1 X93.36 Y93.06 E7.30043
G0 F5400 X93.86 Y93.56
G1 F1800 X99.36 Y93.56 E7.52906
G1 X99.36 Y92.36 E7.57895
G1 X106.86 Y92.36 E7.89076
G1 X106.86 Y93.56 E7.94065
G1 X112.26 Y93.56 E8.16520
G1 X112.26 Y98.45 E8.36892
G1 X106.86 Y98.45 E8.59346
G1 X106.86 Y98.56 E8.59762
G1 X112.26 Y98.56 E8.82217
G1 X112.26 Y103.46 E9.02589
G1 X106.86 Y103.46 E9.25043
G1 X106.86 Y103.56 E9.25459
G1 X112.26 Y103.56 E9.47914
G1 X112.26 Y108.46 E9.68286
G1 X106.86 Y108.46 E9.90740
G1 X106.86 Y108.56 E9.91156
G1 X112.26 Y108.56 E10.13611
G1 X112.26 Y113.46 E10.33983
G1 X106.86 Y113.46 E10.56438
G1 X106.86 Y114.85 E10.62254
G1 X99.36 Y114.85 E10.93435
G1 X99.36 Y113.46 E10.99252
G1 X93.86 Y113.46 E11.22114
G1 X93.86 Y108.56 E11.42486
G1 X99.36 Y108.56 E11.65348
G1 X99.36 Y108.46 E11.65764
G1 X93.86 Y108.46 E11.88626
G1 X93.86 Y103.56 E12.08998
G1 X99.36 Y103.56 E12.31860
G1 X99.36 Y103.46 E12.32276
G1 X93.86 Y103.46 E12.55138
G1 X93.86 Y98.56 E12.75510
G1 X99.36 Y98.56 E12.98372
G1 X99.36 Y98.45 E12.98787
G1 X93.86 Y98.45 E13.21650
G1 X93.86 Y93.56 E13.42022
G0 F5400 X94.36 Y94.06
G1 F1800 X99.86 Y94.06 E13.64884
G1 X99.86 Y92.86 E13.69873
G1 X106.36 Y92.86 E13.96897
G1 X106.36 Y94.06 E14.01886
G1 X111.76 Y94.06 E14.24340
G1 X111.76 Y97.95 E14.40555
G1 X106.36 Y97.95 E14.63009
G1 X106.36 Y99.06 E14.67583
G1 X111.76 Y99.06 E14.90037
G1 X111.76 Y102.96 E15.06252
G1 X106.36 Y102.96 E15.28706
G1 X106.36 Y104.06 E15.33280
G1 X111.76 Y104.06 E15.55735
G1 X111.76 Y107.96 E15.71949
G1 X106.36 Y107.96 E15.94404
G1 X106.36 Y109.06 E15.98977
G1 X111.76 Y109.06 E16.21432
G1 X111.76 Y112.96 E16.37646
G1 X106.36 Y112.96 E16.60101
G1 X106.36 Y114.35 E16.65917
G1 X99.86 Y114.35 E16.92941
G1 X99.86 Y112.96 E16.98757
G1 X94.36 Y112.96 E17.21619
G1 X94.36 Y109.06 E17.37834
G1 X99.86 Y109.06 E17.60696
G1 X99.86 Y107.96 E17.65269
G1 X94.36 Y107.96 E17.88131
G1 X94.36 Y104.06 E18.04346
G1 X99.86 Y104.06 E18.27208
G1 X99.86 Y102.96 E18.31781
G1 X94.36 Y102.96 E18.54643
G1 X94.36 Y99.06 E18.70858
G1 X99.86 Y99.06 E18.93720
G1 X99.86 Y97.95 E18.98293
G1 X94.36 Y97.95 E19.21155
G1 X94.36 Y94.06 E19.37370
G0 F5400 X94.86 Y94.56
G1 F1800 X100.36 Y94.56 E19.60232
G1 X100.36 Y93.36 E19.65221
G1 X105.86 Y93.36 E19.88087
G1 X105.86 Y94.56 E19.93076
G1 X111.26 Y94.56 E20.15531
G1 X111.26 Y97.45 E20.27588
G1 X105.86 Y97.45 E20.50042
G1 X105.86 Y99.56 E20.58773
G1 X111.26 Y99.56 E20.81228
G1 X111.26 Y102.46 E20.93285
G1 X105.86 Y102.46 E21.15740
G1 X105.86 Y104.56 E21.24470
G1 X111.26 Y104.56 E21.46925
G1 X111.26 Y107.46 E21.58982
G1 X105.86 Y107.46 E21.81437
G1 X105.86 Y109.56 E21.90167
G1 X111.26 Y109.56 E22.12622
G1 X111.26 Y112.46 E22.24679
G1 X105.86 Y112.46 E22.47134
G1 X105.86 Y113.85 E22.52950
G1 X100.36 Y113.85 E22.75816
G1 X100.36 Y112.46 E22.81633
G1 X94.86 Y112.46 E23.04495
G1 X94.86 Y109.56 E23.16552
G1 X100.36 Y109.56 E23.39414
G1 X100.36 Y107.46 E23.48145
G1 X94.86 Y107.46 E23.71007
G1 X94.86 Y104.56 E23.83064
G1 X100.36 Y104.56 E24.05926
G1 X100.36 Y102.46 E24.14657
G1 X94.86 Y102.46 E24.37519
G1 X94.86 Y99.56 E24.49576
G1 X100.36 Y99.56 E24.72438
G1 X100.36 Y97.45 E24.81169
G1 X94.86 Y97.45 E25.04031
G1 X94.86 Y94.56 E25.16088
G1 F1200 E22.66088
G0 F5400 X101.36 Y94.70
;TYPE:WALL-INNER
G1 F1200 E25.16088
G1 F1800 X101.36 Y94.36 E25.17543
G1 X101.69 Y94.36 E25.18940
G1 X101.44 Y94.59 E25.20381
G1 X101.36 Y94.70 E25.20965
G0 F5400 X101.36 Y97.52
G1 F1800 X101.47 Y97.65 E25.21674
G1 X101.67 Y97.84 E25.22844
G1 X101.90 Y98.01 E25.24028
G1 X102.15 Y98.14 E25.25206
G1 X102.41 Y98.25 E25.26370
G1 X102.69 Y98.32 E25.27555
G1 X102.97 Y98.35 E25.28732
G1 X103.25 Y98.35 E25.29896
G1 X103.53 Y98.32 E25.31074
G1 X103.83 Y98.24 E25.32352
G1 X104.30 Y98.02 E25.34508
G1 X104.56 Y97.83 E25.35876
G1 X104.86 Y97.51 E25.37671
G1 X104.86 Y99.69 E25.46742
G1 X104.73 Y99.55 E25.47548
G1 X104.51 Y99.34 E25.48810
G1 X104.08 Y99.07 E25.50896
G1 X103.78 Y98.96 E25.52235
G1 X103.53 Y98.89 E25.53317
G1 X103.25 Y98.86 E25.54512
G1 X102.92 Y98.86 E25.55871
G1 X102.41 Y98.96 E25.58040
G1 X101.91 Y99.20 E25.60335
G1 X101.67 Y99.37 E25.61546
G1 X101.44 Y99.59 E25.62873
G1 X101.36 Y99.70 E25.63463
G1 X101.36 Y97.52 E25.72563
G1 F1200 E23.22563
G0 F5400 X104.52 Y94.36
G1 F1200 E25.72563
G1 F1800 X104.86 Y94.36 E25.73960
G1 X104.86 Y94.69 E25.75374
G1 X104.73 Y94.55 E25.76173
G1 X104.52 Y94.36 E25.77365
G0 F5400 X104.86 Y102.51
G1 F1800 X104.86 Y104.69 E25.86441
G1 X104.73 Y104.55 E25.87241
G1 X104.51 Y104.34 E25.88506
G1 X104.08 Y104.07 E25.90597
G1 X103.78 Y103.96 E25.91937
G1 X103.53 Y103.89 E25.93019
G1 X103.25 Y103.86 E25.94213
G1 X102.92 Y103.86 E25.95573
G1 X102.41 Y103.96 E25.97742
G1 X101.91 Y104.20 E26.00036
G1 X101.67 Y104.37 E26.01254
G1 X101.44 Y104.59 E26.02583
G1 X101.36 Y104.70 E26.03167
G1 X101.36 Y102.51 E26.12272
G1 X101.47 Y102.65 E26.12980
G1 X101.67 Y102.84 E26.14151
G1 X101.90 Y103.01 E26.15335
G1 X102.15 Y103.14 E26.16513
G1 X102.41 Y103.25 E26.17677
G1 X102.69 Y103.32 E26.18862
G1 X102.97 Y103.35 E26.20039
G1 X103.25 Y103.35 E26.21203
G1 X103.53 Y103.32 E26.22381
G1 X103.83 Y103.24 E26.23659
G1 X104.30 Y103.02 E26.25815
G1 X104.56 Y102.83 E26.27183
G1 X104.86 Y102.51 E26.28977
G1 F1200 E23.78977
G0 F5400 X104.86 Y107.51
G1 F1200 E26.28977
G1 F1800 X104.86 Y109.69 E26.38053
G1 X104.73 Y109.55 E26.38853
G1 X104.51 Y109.34 E26.40118
G1 X104.08 Y109.07 E26.42210
G1 X103.78 Y108.96 E26.43549
G1 X103.53 Y108.89 E26.44631
G1 X103.25 Y108.86 E26.45825
G1 X102.92 Y108.86 E26.47185
G1 X102.41 Y108.96 E26.49354
G1 X101.91 Y109.20 E26.51649
G1 X101.67 Y109.37 E26.52866
G1 X101.44 Y109.59 E26.54195
G1 X101.36 Y109.70 E26.54779
G1 X101.36 Y107.51 E26.63884
G1 X101.47 Y107.65 E26.64593
G1 X101.67 Y107.84 E26.65763
G1 X101.90 Y108.01 E26.66947
G1 X102.15 Y108.14 E26.68125
G1 X102.41 Y108.25 E26.69289
G1 X102.69 Y108.32 E26.70474
G1 X102.97 Y108.35 E26.71651
G1 X103.25 Y108.35 E26.72815
G1 X103.53 Y108.32 E26.73993
G1 X103.83 Y108.24 E26.75271
G1 X104.30 Y108.02 E26.77427
G1 X104.56 Y107.83 E26.78796
G1 X104.86 Y107.51 E26.80590
G1 F1200 E24.30590
G0 F5400 X101.36 Y112.51
G1 F1200 E26.80590
G1 F1800 X101.47 Y112.65 E26.81298
G1 X101.69 Y112.85 E26.82581
G1 X101.36 Y112.85 E26.83978
G1 X101.36 Y112.51 E26.85391
G0 F5400 X104.52 Y112.85
G1 F1800 X104.56 Y112.83 E26.85597
G1 X104.86 Y112.51 E26.87391
G1 X104.86 Y112.85 E26.88817
G1 X104.52 Y112.85 E26.90214
G0 F5400 X104.23 Y112.45
;TYPE:WALL-OUTER
G1 F1800 X104.52 Y112.14 E26.91973
G1 X104.65 Y111.94 E26.92954
G1 X104.80 Y111.55 E26.94714
G1 X104.84 Y111.32 E26.95663
G1 X104.86 Y111.10 E26.96612
G1 X104.84 Y110.88 E26.97525
G1 X104.80 Y110.65 E26.98478
G1 X104.64 Y110.26 E27.00246
G1 X104.52 Y110.07 E27.01147
G1 X104.37 Y109.89 E27.02123
G1 X104.20 Y109.74 E27.03071
G1 X103.86 Y109.52 E27.04770
G1 X103.63 Y109.44 E27.05785
G1 X103.44 Y109.39 E27.06622
G1 X103.22 Y109.36 E27.07539
G1 X102.97 Y109.36 E27.08566
G1 X102.57 Y109.44 E27.10279
G1 X102.16 Y109.63 E27.12125
G1 X101.99 Y109.76 E27.13013
G1 X101.82 Y109.92 E27.14007
G1 X101.57 Y110.27 E27.15788
G1 X101.41 Y110.66 E27.17544
G1 X101.37 Y110.89 E27.18493
G1 X101.36 Y111.10 E27.19405
G1 X101.37 Y111.32 E27.20317
G1 X101.41 Y111.54 E27.21236
G1 X101.48 Y111.75 E27.22147
G1 X101.57 Y111.95 E27.23060
G1 X101.69 Y112.13 E27.23976
G1 X101.83 Y112.30 E27.24888
G1 X101.99 Y112.45 E27.25803
G1 X102.17 Y112.58 E27.26719
G1 X102.36 Y112.69 E27.27636
G1 X102.57 Y112.77 E27.28545
G1 X102.78 Y112.82 E27.29460
G1 X103.00 Y112.85 E27.30377
G1 X103.22 Y112.85 E27.31283
G1 X103.44 Y112.82 E27.32201
G1 X103.66 Y112.77 E27.33150
G1 X104.04 Y112.59 E27.34909
G1 X104.23 Y112.45 E27.35888
G0 F5400 X105.36 Y113.35
G1 F1800 X100.86 Y113.35 E27.54597
G1 X100.86 Y93.86 E28.35664
G1 X105.36 Y93.86 E28.54373
G1 X105.36 Y113.35 E29.35440
G1 F1200 E26.85440
G0 F5400 X103.66 Y107.77
G1 F1200 E29.35440
G1 F1800 X104.04 Y107.59 E29.37200
G1 X104.23 Y107.45 E29.38178
G1 X104.52 Y107.14 E29.39937
G1 X104.65 Y106.94 E29.40919
G1 X104.80 Y106.55 E29.42679
G1 X104.84 Y106.32 E29.43627
G1 X104.86 Y106.10 E29.44577
G1 X104.84 Y105.88 E29.45490
G1 X104.80 Y105.65 E29.46442
G1 X104.64 Y105.26 E29.48210
G1 X104.52 Y105.07 E29.49111
G1 X104.37 Y104.89 E29.50088
G1 X104.20 Y104.74 E29.51036
G1 X103.86 Y104.52 E29.52734
G1 X103.63 Y104.44 E29.53749
G1 X103.44 Y104.39 E29.54586
G1 X103.22 Y104.36 E29.55504
G1 X102.97 Y104.36 E29.56531
G1 X102.57 Y104.44 E29.58243
G1 X102.16 Y104.63 E29.60090
G1 X101.99 Y104.76 E29.60977
G1 X101.82 Y104.92 E29.61971
G1 X101.57 Y105.27 E29.63752
G1 X101.41 Y105.66 E29.65509
G1 X101.37 Y105.89 E29.66457
G1 X101.36 Y106.10 E29.67369
G1 X101.37 Y106.32 E29.68282
G1 X101.41 Y106.54 E29.69200
G1 X101.48 Y106.75 E29.70111
G1 X101.57 Y106.95 E29.71024
G1 X101.69 Y107.13 E29.71940
G1 X101.83 Y107.30 E29.72852
G1 X101.99 Y107.45 E29.73767
G1 X102.17 Y107.58 E29.74684
G1 X102.36 Y107.69 E29.75601
G1 X102.57 Y107.77 E29.76509
G1 X102.78 Y107.82 E29.77424
G1 X103.00 Y107.85 E29.78341
G1 X103.22 Y107.85 E29.79248
G1 X103.44 Y107.82 E29.80165
G1 X103.66 Y107.77 E29.81114
G1 F1200 E27.31114
G0 F5400 X103.22 Y102.85
G1 F1200 E29.81114
G1 F1800 X103.44 Y102.82 E29.82031
G1 X103.66 Y102.77 E29.82980
G1 X104.04 Y102.59 E29.84740
G1 X104.23 Y102.45 E29.85718
G1 X104.52 Y102.14 E29.87477
G1 X104.65 Y101.94 E29.88459
G1 X104.80 Y101.55 E29.90219
G1 X104.84 Y101.32 E29.91167
G1 X104.86 Y101.10 E29.92117
G1 X104.84 Y100.88 E29.93030
G1 X104.80 Y100.65 E29.93982
G1 X104.64 Y100.26 E29.95750
G1 X104.52 Y100.07 E29.96651
G1 X104.37 Y99.89 E29.97630
G1 X104.20 Y99.74 E29.98575
G1 X103.86 Y99.52 E30.00272
G1 X103.63 Y99.44 E30.01286
G1 X103.44 Y99.39 E30.02123
G1 X103.22 Y99.36 E30.03041
G1 X102.97 Y99.36 E30.04068
G1 X102.57 Y99.44 E30.05780
G1 X102.16 Y99.63 E30.07627
G1 X101.99 Y99.76 E30.08514
G1 X101.82 Y99.92 E30.09506
G1 X101.57 Y100.27 E30.11287
G1 X101.41 Y100.66 E30.13043
G1 X101.37 Y100.89 E30.13992
G1 X101.36 Y101.10 E30.14904
G1 X101.37 Y101.32 E30.15816
G1 X101.41 Y101.54 E30.16734
G1 X101.48 Y101.75 E30.17646
G1 X101.57 Y101.95 E30.18559
G1 X101.69 Y102.13 E30.19475
G1 X101.83 Y102.30 E30.20387
G1 X101.99 Y102.45 E30.21302
G1 X102.17 Y102.58 E30.22218
G1 X102.36 Y102.69 E30.23135
G1 X102.57 Y102.77 E30.24044
G1 X102.78 Y102.82 E30.24958
G1 X103.00 Y102.85 E30.25876
G1 X103.22 Y102.85 E30.26782
G1 F1200 E27.76782
G0 F5400 X103.22 Y97.85
G1 F1200 E30.26782
G1 F1800 X103.44 Y97.83 E30.27700
G1 X103.66 Y97.77 E30.28648
G1 X104.04 Y97.59 E30.30408
G1 X104.23 Y97.45 E30.31387
G1 X104.52 Y97.14 E30.33145
G1 X104.65 Y96.94 E30.34127
G1 X104.80 Y96.55 E30.35887
G1 X104.84 Y96.32 E30.36835
G1 X104.86 Y96.10 E30.37785
G1 X104.84 Y95.88 E30.38698
G1 X104.80 Y95.65 E30.39650
G1 X104.64 Y95.26 E30.41418
G1 X104.52 Y95.08 E30.42319
G1 X104.37 Y94.89 E30.43296
G1 X104.20 Y94.74 E30.44244
G1 X103.86 Y94.52 E30.45943
G1 X103.63 Y94.44 E30.46957
G1 X103.44 Y94.39 E30.47794
G1 X103.22 Y94.36 E30.48712
G1 X102.97 Y94.36 E30.49739
G1 X102.57 Y94.44 E30.51451
G1 X102.16 Y94.63 E30.53298
G1 X101.99 Y94.76 E30.54185
G1 X101.82 Y94.92 E30.55179
G1 X101.57 Y95.27 E30.56961
G1 X101.41 Y95.66 E30.58717
G1 X101.37 Y95.89 E30.59665
G1 X101.36 Y96.11 E30.60578
G1 X101.37 Y96.32 E30.61490
G1 X101.41 Y96.54 E30.62408
G1 X101.48 Y96.75 E30.63319
G1 X101.57 Y96.95 E30.64233
G1 X101.69 Y97.13 E30.65148
G1 X101.83 Y97.30 E30.66061
G1 X101.99 Y97.45 E30.66975
G1 X102.17 Y97.58 E30.67892
G1 X102.36 Y97.69 E30.68809
G1 X102.57 Y97.77 E30.69718
G1 X102.78 Y97.83 E30.70632
G1 X103.00 Y97.85 E30.71550
G1 X103.22 Y97.85 E30.72456
G0 F5400 X103.11 Y98.52
;TYPE:FILL
G1 F2520 X103.29 Y98.70 E30.73517
G1 X102.87 Y98.63 E30.74575
G1 X102.25 Y98.36 E30.76841
G1 X102.37 Y98.83 E30.79110
G1 X101.52 Y98.34 E30.82531
G1 X101.88 Y99.05 E30.85957
G1 X101.52 Y99.05 E30.86726
G1 X101.65 Y99.18 E30.87499
G0 F5400 X103.74 Y98.43
G1 F2520 X104.35 Y99.05 E30.91110
G1 X103.99 Y98.33 E30.94713
G1 X104.69 Y98.68 E30.97373
G1 X104.24 Y98.23 E31.00033
G1 F1200 E28.50033
G0 F5400 X104.27 Y103.21
G1 F1200 E31.00033
G1 F2520 X104.69 Y103.63 E31.02494
G1 X104.27 Y103.21 E31.04954
G0 F5400 X103.78 Y103.42
G1 F2520 X104.49 Y104.13 E31.09135
G0 F5400 X104.49 Y104.13
G1 F2520 X103.78 Y103.42 E31.13315
G0 F5400 X103.35 Y103.70
G1 F2520 X103.16 Y103.52 E31.14415
G1 X103.01 Y103.72 E31.15513
G1 X102.33 Y103.39 E31.17546
G1 X102.41 Y103.82 E31.19579
G1 X101.52 Y103.29 E31.23191
G1 X101.91 Y104.03 E31.26805
G1 X101.52 Y104.00 E31.27735
G1 X101.68 Y104.16 E31.28670
G1 F1200 E28.78670
G0 F5400 X101.52 Y108.24
G1 F1200 E31.28670
G1 F2520 X102.17 Y108.89 E31.32492
G1 X101.52 Y108.59 E31.36311
G1 X101.71 Y109.13 E31.37413
G1 X101.52 Y108.95 E31.38522
G0 F5400 X102.40 Y108.41
G1 F2520 X102.72 Y108.73 E31.40374
G1 X102.81 Y108.46 E31.42227
G1 X103.41 Y108.71 E31.43362
G1 X103.21 Y108.52 E31.44503
G0 F5400 X103.82 Y108.41
G1 F2520 X104.61 Y109.20 E31.49157
G0 F5400 X104.61 Y109.20
G1 F2520 X103.82 Y108.41 E31.53810
G0 F5400 X104.31 Y108.19
G1 F2520 X104.69 Y108.58 E31.56080
G1 X104.31 Y108.19 E31.58350
;LAYER:1
M106 S51
G0 F9000 X104.31 Y108.01 Z0.26
;TYPE:WALL-INNER
G1 F2100 X104.56 Y107.83 E31.58732
G1 X104.86 Y107.51 E31.59271
G1 X104.86 Y109.69 E31.61995
G1 X104.72 Y109.54 E31.62249
G1 X104.50 Y109.33 E31.62637
G1 X104.05 Y109.06 E31.63288
G1 X103.53 Y108.89 E31.63968
G1 X103.24 Y108.86 E31.64327
G1 X102.92 Y108.86 E31.64729
G1 X102.64 Y108.90 E31.65081
G1 X102.38 Y108.98 E31.65425
G1 X102.10 Y109.09 E31.65804
G1 X101.67 Y109.37 E31.66444
G1 X101.44 Y109.60 E31.66846
G1 X101.36 Y109.71 E31.67012
G1 X101.36 Y107.51 E31.69745
G1 X101.47 Y107.65 E31.69957
G1 X101.67 Y107.84 E31.70309
G1 X101.92 Y108.02 E31.70691
G1 X102.39 Y108.24 E31.71339
G1 X102.69 Y108.32 E31.71722
G1 X102.97 Y108.35 E31.72075
G1 X103.25 Y108.35 E31.72424
G1 X103.53 Y108.32 E31.72777
G1 X103.81 Y108.25 E31.73134
G1 X104.07 Y108.14 E31.73484
G1 X104.31 Y108.01 E31.73835
G1 F1200 E29.23835
G0 F9000 X104.86 Y104.69
G1 F1200 E31.73835
G1 F2100 X104.72 Y104.54 E31.74089
G1 X104.50 Y104.33 E31.74478
G1 X104.05 Y104.06 E31.75129
G1 X103.53 Y103.89 E31.75808
G1 X103.24 Y103.86 E31.76168
G1 X102.92 Y103.86 E31.76570
G1 X102.64 Y103.90 E31.76922
G1 X102.38 Y103.98 E31.77266
G1 X102.10 Y104.09 E31.77645
G1 X101.67 Y104.37 E31.78284
G1 X101.44 Y104.60 E31.78687
G1 X101.36 Y104.71 E31.78853
G1 X101.36 Y102.51 E31.81586
G1 X101.47 Y102.65 E31.81798
G1 X101.67 Y102.84 E31.82149
G1 X101.92 Y103.02 E31.82532
G1 X102.39 Y103.24 E31.83180
G1 X102.69 Y103.32 E31.83562
G1 X102.97 Y103.35 E31.83916
G1 X103.25 Y103.35 E31.84265
G1 X103.53 Y103.32 E31.84618
G1 X103.81 Y103.25 E31.84975
