;Generated with Cura_SteamEngine 13.12
M140 S90.000000
M109 T0 S251.000000
T0
M190 S90.000000
;Sliced at: Mon 24-02-2014 18:47:19
;Basic settings: Layer height: 0.1 Walls: 1 Fill: 20
;Print time: #P_TIME#
;Filament used: #F_AMNT#m #F_WGHT#g
;Filament cost: #F_COST#
;M190 S90 ;Uncomment to add your own bed temperature line
;M109 S251 ;Uncomment to add your own temperature line
G21        ;metric values
G90        ;absolute positioning
M107       ;start with the fan off
G28 X0 Y0  ;move X/Y to min endstops
G28 Z0     ;move Z to min endstops
G1 Z15.0 F9000 ;move the platform down 15mm
G92 E0                  ;zero the extruded length
G1 F200 E3              ;extrude 3mm of feed stock
G92 E0                  ;zero the extruded length again
G1 F9000
;Put printing message on LCD screen
M117 Printing...

;Layer count: 225
;LAYER:-2
;RAFT
G0 F9000 X84.65 Y90.85 Z0.20
;TYPE:SUPPORT
G1 F1200 E0.00000
G1 F1800 X95.35 Y90.85 E0.62285
G1 X95.35 Y94.18 E0.81685
G1 X95.95 Y93.99 E0.85361
G1 X96.72 Y93.84 E0.89899
G1 X97.50 Y93.79 E0.94460
G1 X98.28 Y93.84 E0.99034
G1 X99.20 Y94.01 E1.04454
G1 X99.98 Y94.32 E1.09337
G1 X100.06 Y94.28 E1.09856
G1 X100.95 Y93.99 E1.15333
G1 X101.72 Y93.84 E1.19877
G1 X102.50 Y93.79 E1.24450
G1 X103.28 Y93.84 E1.29012
G1 X104.20 Y94.01 E1.34426
G1 X104.64 Y94.19 E1.37217
G1 X104.63 Y90.85 E1.56658
G1 X115.35 Y90.85 E2.19048
G1 X115.35 Y109.15 E3.25563
G1 X104.65 Y109.15 E3.87849
G1 X104.65 Y105.82 E4.07249
G1 X104.05 Y106.01 E4.10924
G1 X103.28 Y106.16 E4.15462
G1 X102.50 Y106.21 E4.20024
G1 X101.72 Y106.16 E4.24597
G1 X100.80 Y105.99 E4.30017
G1 X100.01 Y105.67 E4.35007
G1 X99.79 Y105.77 E4.36408
G1 X99.05 Y106.01 E4.40923
G1 X98.28 Y106.16 E4.45467
G1 X97.50 Y106.21 E4.50040
G1 X96.72 Y106.16 E4.54602
G1 X95.80 Y105.99 E4.60016
G1 X95.35 Y105.81 E4.62846
G1 X95.35 Y109.15 E4.82304
G1 X84.65 Y109.15 E5.44589
G1 X84.65 Y90.85 E6.51105
G0 F9000 X84.83 Y90.73
G1 F1800 X84.83 Y109.27 E7.59006
G0 F9000 X85.17 Y109.27
G1 F1800 X85.17 Y90.73 E8.66907
G0 F9000 X85.51 Y90.73
G1 F1800 X85.51 Y109.27 E9.74807
G0 F9000 X85.85 Y109.27
G1 F1800 X85.85 Y90.73 E10.82708
G0 F9000 X86.19 Y90.73
G1 F1800 X86.19 Y109.27 E11.90609
G0 F9000 X86.53 Y109.27
G1 F1800 X86.53 Y90.73 E12.98510
G0 F9000 X86.87 Y90.73
G1 F1800 X86.87 Y109.27 E14.06411
G0 F9000 X87.21 Y109.27
G1 F1800 X87.21 Y90.73 E15.14312
G0 F9000 X87.55 Y90.73
G1 F1800 X87.55 Y109.27 E16.22213
G0 F9000 X87.89 Y109.27
G1 F1800 X87.89 Y90.73 E17.30114
G0 F9000 X88.23 Y90.73
G1 F1800 X88.23 Y109.27 E18.38014
G0 F9000 X88.57 Y109.27
G1 F1800 X88.57 Y90.73 E19.45915
G0 F9000 X88.91 Y90.73
G1 F1800 X88.91 Y109.27 E20.53816
G0 F9000 X89.25 Y109.27
G1 F1800 X89.25 Y90.73 E21.61717
G0 F9000 X89.59 Y90.73
G1 F1800 X89.59 Y109.27 E22.69618
G0 F9000 X89.93 Y109.27
G1 F1800 X89.93 Y90.73 E23.77519
G0 F9000 X90.27 Y90.73
G1 F1800 X90.27 Y109.27 E24.85420
G0 F9000 X90.61 Y109.27
G1 F1800 X90.61 Y90.73 E25.93320
G0 F9000 X90.95 Y90.73
G1 F1800 X90.95 Y109.27 E27.01221
G0 F9000 X91.29 Y109.27
G1 F1800 X91.29 Y90.73 E28.09122
G0 F9000 X91.63 Y90.73
G1 F1800 X91.63 Y109.27 E29.17023
G0 F9000 X91.97 Y109.27
G1 F1800 X91.97 Y90.73 E30.24924
G0 F9000 X92.31 Y90.73
G1 F1800 X92.31 Y109.27 E31.32825
G0 F9000 X92.65 Y109.27
G1 F1800 X92.65 Y90.73 E32.40726
G0 F9000 X92.99 Y90.73
G1 F1800 X92.99 Y109.27 E33.48627
G0 F9000 X93.33 Y109.27
G1 F1800 X93.33 Y90.73 E34.56527
G0 F9000 X93.67 Y90.73
G1 F1800 X93.67 Y109.27 E35.64428
G0 F9000 X94.01 Y109.27
G1 F1800 X94.01 Y90.73 E36.72329
G0 F9000 X94.35 Y90.73
G1 F1800 X94.35 Y109.27 E37.80230
G0 F9000 X94.69 Y109.27
G1 F1800 X94.69 Y90.73 E38.88131
G0 F9000 X95.03 Y90.73
G1 F1800 X95.03 Y109.27 E39.96032
G0 F9000 X95.37 Y109.27
G1 F1800 X95.37 Y90.73 E41.03933
G0 F9000 X96.05 Y93.85
G1 F1800 X96.05 Y106.15 E41.75566
G0 F9000 X96.39 Y106.22
G1 F1800 X96.39 Y93.78 E42.47950
G0 F9000 X96.73 Y93.72
G1 F1800 X96.73 Y106.28 E43.21038
G0 F9000 X97.07 Y106.30
G1 F1800 X97.07 Y93.70 E43.94394
G0 F9000 X97.41 Y93.67
G1 F1800 X97.41 Y106.32 E44.68018
G0 F9000 X97.75 Y106.31
G1 F1800 X97.75 Y93.69 E45.41514
G0 F9000 X98.09 Y93.71
G1 F1800 X98.09 Y106.29 E46.14742
G0 F9000 X98.43 Y106.25
G1 F1800 X98.43 Y93.75 E46.87527
G0 F9000 X98.77 Y93.81
G1 F1800 X98.77 Y106.19 E47.59556
G0 F9000 X99.11 Y106.12
G1 F1800 X99.11 Y93.88 E48.30817
G0 F9000 X99.45 Y93.99
G1 F1800 X99.45 Y106.01 E49.00791
G0 F9000 X99.79 Y105.90
G1 F1800 X99.79 Y94.12 E49.69340
G0 F9000 X100.13 Y94.13
G1 F1800 X100.13 Y105.85 E50.37545
G0 F9000 X100.47 Y105.98
G1 F1800 X100.47 Y94.02 E51.07181
G0 F9000 X100.81 Y93.91
G1 F1800 X100.81 Y106.11 E51.78198
G0 F9000 X101.15 Y106.17
G1 F1800 X101.15 Y93.83 E52.50052
G0 F9000 X101.49 Y93.76
G1 F1800 X101.49 Y106.24 E53.22657
G0 F9000 X101.83 Y106.29
G1 F1800 X101.83 Y93.71 E53.95827
G0 F9000 X102.17 Y93.69
G1 F1800 X102.17 Y106.31 E54.69265
G0 F9000 X102.51 Y106.33
G1 F1800 X102.51 Y93.67 E55.42947
G0 F9000 X102.85 Y93.69
G1 F1800 X102.85 Y106.31 E56.16361
G0 F9000 X103.19 Y106.29
G1 F1800 X103.19 Y93.72 E56.89519
G0 F9000 X103.53 Y93.77
G1 F1800 X103.53 Y106.23 E57.62083
G0 F9000 X103.87 Y106.17
G1 F1800 X103.87 Y93.83 E58.33891
G0 F9000 X104.21 Y93.90
G1 F1800 X104.21 Y106.09 E59.04849
G0 F9000 X104.55 Y109.27
G1 F1800 X104.55 Y90.73 E60.12750
G0 F9000 X104.89 Y90.73
G1 F1800 X104.89 Y109.27 E61.20651
G0 F9000 X105.23 Y109.27
G1 F1800 X105.23 Y90.73 E62.28552
G0 F9000 X105.57 Y90.73
G1 F1800 X105.57 Y109.27 E63.36453
G0 F9000 X105.91 Y109.27
G1 F1800 X105.91 Y90.73 E64.44354
G0 F9000 X106.25 Y90.73
G1 F1800 X106.25 Y109.27 E65.52254
G0 F9000 X106.59 Y109.27
G1 F1800 X106.59 Y90.73 E66.60155
G0 F9000 X106.93 Y90.73
G1 F1800 X106.93 Y109.27 E67.68056
G0 F9000 X107.27 Y109.27
G1 F1800 X107.27 Y90.73 E68.75957
G0 F9000 X107.61 Y90.73
G1 F1800 X107.61 Y109.27 E69.83858
G0 F9000 X107.95 Y109.27
G1 F1800 X107.95 Y90.73 E70.91759
G0 F9000 X108.29 Y90.73
G1 F1800 X108.29 Y109.27 E71.99660
G0 F9000 X108.63 Y109.27
G1 F1800 X108.63 Y90.73 E73.07560
G0 F9000 X108.97 Y90.73
G1 F1800 X108.97 Y109.27 E74.15461
G0 F9000 X109.31 Y109.27
G1 F1800 X109.31 Y90.73 E75.23362
G0 F9000 X109.65 Y90.73
G1 F1800 X109.65 Y109.27 E76.31263
G0 F9000 X109.99 Y109.27
G1 F1800 X109.99 Y90.73 E77.39164
G0 F9000 X110.33 Y90.73
G1 F1800 X110.33 Y109.27 E78.47065
G0 F9000 X110.67 Y109.27
G1 F1800 X110.67 Y90.73 E79.54966
G0 F9000 X111.01 Y90.73
G1 F1800 X111.01 Y109.27 E80.62867
G0 F9000 X111.35 Y109.27
G1 F1800 X111.35 Y90.73 E81.70767
G0 F9000 X111.69 Y90.73
G1 F1800 X111.69 Y109.27 E82.78668
G0 F9000 X112.03 Y109.27
G1 F1800 X112.03 Y90.73 E83.86569
G0 F9000 X112.37 Y90.73
G1 F1800 X112.37 Y109.27 E84.94470
G0 F9000 X112.71 Y109.27
G1 F1800 X112.71 Y90.73 E86.02371
G0 F9000 X113.05 Y90.73
G1 F1800 X113.05 Y109.27 E87.10272
G0 F9000 X113.39 Y109.27
G1 F1800 X113.39 Y90.73 E88.18173
G0 F9000 X113.73 Y90.73
G1 F1800 X113.73 Y109.27 E89.26073
G0 F9000 X114.07 Y109.27
G1 F1800 X114.07 Y90.73 E90.33974
G0 F9000 X114.41 Y90.73
G1 F1800 X114.41 Y109.27 E91.41875
G0 F9000 X114.75 Y109.27
G1 F1800 X114.75 Y90.73 E92.49776
G0 F9000 X115.09 Y90.73
G1 F1800 X115.09 Y109.27 E93.57677
G0 F9000 X115.43 Y109.27
G1 F1800 X115.43 Y90.73 E94.65578
G0 F9000 X95.71 Y93.94
G1 F1800 X95.71 Y106.08 E95.36222
;LAYER:-1
;RAFT
G0 F9000 X95.52 Y105.91 Z0.30
;TYPE:SUPPORT
G1 F1800 X99.47 Y105.91 E95.39509
G0 F9000 X100.52 Y105.91
G1 F1800 X104.47 Y105.91 E95.42795
G0 F9000 X104.61 Y105.91
G1 F1800 X115.38 Y105.91 E95.51750
G0 F9000 X115.38 Y106.25
G1 F1800 X104.61 Y106.25 E95.60704
G0 F9000 X104.61 Y106.59
G1 F1800 X115.38 Y106.59 E95.69659
G0 F9000 X115.38 Y106.93
G1 F1800 X104.61 Y106.93 E95.78613
G0 F9000 X104.61 Y107.27
G1 F1800 X115.38 Y107.27 E95.87568
G0 F9000 X115.38 Y107.61
G1 F1800 X104.61 Y107.61 E95.96522
G0 F9000 X104.61 Y107.95
G1 F1800 X115.38 Y107.95 E96.05477
G0 F9000 X115.38 Y108.29
G1 F1800 X104.61 Y108.29 E96.14431
G0 F9000 X104.61 Y108.63
G1 F1800 X115.38 Y108.63 E96.23386
G0 F9000 X115.38 Y108.97
G1 F1800 X104.61 Y108.97 E96.32340
G0 F9000 X95.38 Y108.97
G1 F1800 X84.61 Y108.97 E96.41294
G0 F9000 X84.61 Y108.63
G1 F1800 X95.38 Y108.63 E96.50249
G0 F9000 X95.38 Y108.29
G1 F1800 X84.61 Y108.29 E96.59203
G0 F9000 X84.61 Y107.95
G1 F1800 X95.38 Y107.95 E96.68158
G0 F9000 X95.38 Y107.61
G1 F1800 X84.61 Y107.61 E96.77112
G0 F9000 X84.61 Y107.27
G1 F1800 X95.38 Y107.27 E96.86067
G0 F9000 X95.38 Y106.93
G1 F1800 X84.61 Y106.93 E96.95021
G0 F9000 X84.61 Y106.59
G1 F1800 X95.38 Y106.59 E97.03976
G0 F9000 X95.38 Y106.25
G1 F1800 X84.61 Y106.25 E97.12930
G0 F9000 X84.61 Y105.91
G1 F1800 X95.38 Y105.91 E97.21885
G0 F9000 X84.61 Y105.57
G1 F1800 X115.38 Y105.57 E97.47468
G0 F9000 X115.38 Y105.23
G1 F1800 X84.61 Y105.23 E97.73052
G0 F9000 X84.61 Y104.89
G1 F1800 X115.38 Y104.89 E97.98636
G0 F9000 X115.38 Y104.55
G1 F1800 X84.61 Y104.55 E98.24219
G0 F9000 X84.61 Y104.21
G1 F1800 X115.38 Y104.21 E98.49803
G0 F9000 X115.38 Y103.87
G1 F1800 X84.61 Y103.87 E98.75387
G0 F9000 X84.61 Y103.53
G1 F1800 X115.38 Y103.53 E99.00970
G0 F9000 X115.38 Y103.19
G1 F1800 X84.61 Y103.19 E99.26554
G0 F9000 X84.61 Y102.85
G1 F1800 X115.38 Y102.85 E99.52138
G0 F9000 X115.38 Y102.51
G1 F1800 X84.61 Y102.51 E99.77722
G0 F9000 X84.61 Y102.17
G1 F1800 X115.38 Y102.17 E100.03305
G0 F9000 X115.38 Y101.83
G1 F1800 X84.61 Y101.83 E100.28889
G0 F9000 X84.61 Y101.49
G1 F1800 X115.38 Y101.49 E100.54473
G0 F9000 X115.38 Y101.15
G1 F1800 X84.61 Y101.15 E100.80056
G0 F9000 X84.61 Y100.81
G1 F1800 X115.38 Y100.81 E101.05640
G0 F9000 X115.38 Y100.47
G1 F1800 X84.61 Y100.47 E101.31224
G0 F9000 X84.61 Y100.13
G1 F1800 X115.38 Y100.13 E101.56807
G0 F9000 X115.38 Y99.79
G1 F1800 X84.61 Y99.79 E101.82391
G0 F9000 X84.61 Y99.45
G1 F1800 X115.38 Y99.45 E102.07975
G0 F9000 X115.38 Y99.11
G1 F1800 X84.61 Y99.11 E102.33559
G0 F9000 X84.61 Y98.77
G1 F1800 X115.38 Y98.77 E102.59142
G0 F9000 X115.38 Y98.43
G1 F1800 X84.61 Y98.43 E102.84726
G0 F9000 X84.61 Y98.09
G1 F1800 X115.38 Y98.09 E103.10310
G0 F9000 X115.38 Y97.75
G1 F1800 X84.61 Y97.75 E103.35893
G0 F9000 X84.61 Y97.41
G1 F1800 X115.38 Y97.41 E103.61477
G0 F9000 X115.38 Y97.07
G1 F1800 X84.61 Y97.07 E103.87061
G0 F9000 X84.61 Y96.73
G1 F1800 X115.38 Y96.73 E104.12644
G0 F9000 X115.38 Y96.39
G1 F1800 X84.61 Y96.39 E104.38228
G0 F9000 X84.61 Y96.05
G1 F1800 X115.38 Y96.05 E104.63812
G0 F9000 X115.38 Y95.71
G1 F1800 X84.61 Y95.71 E104.89395
G0 F9000 X84.61 Y95.37
G1 F1800 X115.38 Y95.37 E105.14979
G0 F9000 X115.38 Y95.03
G1 F1800 X84.61 Y95.03 E105.40563
G0 F9000 X84.61 Y94.69
G1 F1800 X115.38 Y94.69 E105.66147
G0 F9000 X115.38 Y94.35
G1 F1800 X84.61 Y94.35 E105.91730
G0 F9000 X84.61 Y94.01
G1 F1800 X95.38 Y94.01 E106.00685
G0 F9000 X95.38 Y93.67
G1 F1800 X84.61 Y93.67 E106.09639
G0 F9000 X84.61 Y93.33
G1 F1800 X95.38 Y93.33 E106.18594
G0 F9000 X95.38 Y92.99
G1 F1800 X84.61 Y92.99 E106.27548
G0 F9000 X84.61 Y92.65
G1 F1800 X95.38 Y92.65 E106.36503
G0 F9000 X95.38 Y92.31
G1 F1800 X84.61 Y92.31 E106.45457
G0 F9000 X84.61 Y91.97
G1 F1800 X95.38 Y91.97 E106.54411
G0 F9000 X95.38 Y91.63
G1 F1800 X84.61 Y91.63 E106.63366
G0 F9000 X84.61 Y91.29
G1 F1800 X95.38 Y91.29 E106.72320
G0 F9000 X95.38 Y90.95
G1 F1800 X84.61 Y90.95 E106.81275
G0 F9000 X95.77 Y94.01
G1 F1800 X99.28 Y94.01 E106.84200
G0 F9000 X100.76 Y94.01
G1 F1800 X104.28 Y94.01 E106.87125
G0 F9000 X104.61 Y94.01
G1 F1800 X115.38 Y94.01 E106.96086
G0 F9000 X115.38 Y93.67
G1 F1800 X104.61 Y93.67 E107.05047
G0 F9000 X104.61 Y93.33
G1 F1800 X115.38 Y93.33 E107.14009
G0 F9000 X115.38 Y92.99
G1 F1800 X104.60 Y92.99 E107.22972
G0 F9000 X104.60 Y92.65
G1 F1800 X115.38 Y92.65 E107.31937
G0 F9000 X115.38 Y92.31
G1 F1800 X104.60 Y92.31 E107.40902
G0 F9000 X104.60 Y91.97
G1 F1800 X115.38 Y91.97 E107.49868
G0 F9000 X115.38 Y91.63
G1 F1800 X104.60 Y91.63 E107.58836
G0 F9000 X104.60 Y91.29
G1 F1800 X115.38 Y91.29 E107.67804
G0 F9000 X115.38 Y90.95
G1 F1800 X104.60 Y90.95 E107.76774
;LAYER:0
M107
G1 F1200 E105.26774
G0 F5400 X109.90 Y96.10 Z0.50
;TYPE:WALL-OUTER
G1 F1200 E107.76774
G1 F600 X110.10 Y96.10 E107.77605
G1 X110.10 Y97.60 E107.83842
G1 X109.91 Y97.60 E107.84652
G1 X109.90 Y96.10 E107.90889
G1 F1200 E105.40889
G0 F5400 X107.71 Y99.61
;TYPE:WALL-INNER
G1 F1200 E107.90889
G1 F600 X107.80 Y99.68 E107.91358
G1 X107.89 Y99.78 E107.91931
G1 X107.94 Y99.92 E107.92517
G1 X107.95 Y100.03 E107.92983
G1 X107.93 Y100.11 E107.93350
G1 X107.86 Y100.27 E107.94051
G1 X107.72 Y100.39 E107.94823
G1 X107.55 Y100.44 E107.95561
G1 X107.50 Y100.45 E107.95778
G1 X107.41 Y100.44 E107.96159
G1 X107.29 Y100.39 E107.96704
G1 X107.20 Y100.32 E107.97174
G1 X107.11 Y100.22 E107.97747
G1 X107.06 Y100.08 E107.98361
G1 X107.05 Y99.97 E107.98811
G1 X107.06 Y99.94 E107.98928
G1 X107.11 Y99.78 E107.99620
G1 X107.22 Y99.65 E108.00346
G1 X107.39 Y99.56 E108.01141
G1 X107.50 Y99.55 E108.01594
G1 X107.59 Y99.56 E108.01971
G1 X107.71 Y99.61 E108.02516
G0 F5400 X107.96 Y99.17
;TYPE:WALL-OUTER
G1 F600 X108.15 Y99.31 E108.03504
G1 X108.31 Y99.50 E108.04535
G1 X108.40 Y99.71 E108.05498
G1 X108.43 Y99.82 E108.05965
G1 X108.45 Y99.94 E108.06477
G1 X108.45 Y100.06 E108.06967
G1 X108.43 Y100.18 E108.07479
G1 X108.41 Y100.29 E108.07924
G1 X108.30 Y100.51 E108.08972
G1 X108.24 Y100.60 E108.09409
G1 X108.05 Y100.77 E108.10459
G1 X107.85 Y100.88 E108.11424
G1 X107.61 Y100.94 E108.12433
G1 X107.50 Y100.95 E108.12904
G1 X107.39 Y100.94 E108.13379
G1 X107.27 Y100.92 E108.13882
G1 X107.04 Y100.83 E108.14884
G1 X106.85 Y100.69 E108.15872
G1 X106.69 Y100.50 E108.16903
G1 X106.60 Y100.29 E108.17866
G1 X106.55 Y100.06 E108.18826
G1 X106.55 Y99.94 E108.19341
G1 X106.57 Y99.83 E108.19786
G1 X106.65 Y99.58 E108.20875
G1 X106.69 Y99.50 E108.21282
G1 X106.86 Y99.30 E108.22339
G1 X106.94 Y99.24 E108.22779
G1 X107.15 Y99.12 E108.23801
G1 X107.27 Y99.08 E108.24286
G1 X107.39 Y99.06 E108.24798
G1 X107.50 Y99.05 E108.25273
G1 X107.61 Y99.06 E108.25744
G1 X107.73 Y99.08 E108.26247
G1 X107.96 Y99.17 E108.27249
G0 F5400 X107.74 Y99.81
G1 F1200 E105.77249
G0 F5400 X109.90 Y102.40
G1 F1200 E108.27249
G1 F600 X110.10 Y102.40 E108.28085
G1 X110.10 Y103.90 E108.34321
G1 X109.90 Y103.90 E108.35157
G1 X109.90 Y102.40 E108.41393
G1 F1200 E105.91393
G0 F5400 X102.93 Y100.11
;TYPE:WALL-INNER
G1 F1200 E108.41393
G1 F600 X102.86 Y100.27 E108.42094
G1 X102.72 Y100.39 E108.42865
G1 X102.55 Y100.44 E108.43604
G1 X102.50 Y100.45 E108.43821
G1 X102.41 Y100.44 E108.44202
G1 X102.29 Y100.39 E108.44747
G1 X102.20 Y100.32 E108.45217
G1 X102.09 Y100.19 E108.45907
G1 X102.06 Y100.08 E108.46404
G1 X102.05 Y99.97 E108.46854
G1 X102.06 Y99.94 E108.46972
G1 X102.11 Y99.78 E108.47663
G1 X102.22 Y99.65 E108.48389
G1 X102.39 Y99.56 E108.49185
G1 X102.50 Y99.55 E108.49637
G1 X102.59 Y99.56 E108.50014
G1 X102.71 Y99.61 E108.50559
G1 X102.80 Y99.68 E108.51029
G1 X102.89 Y99.78 E108.51602
G1 X102.94 Y99.92 E108.52187
G1 X102.95 Y100.03 E108.52654
G1 X102.93 Y100.11 E108.53021
G0 F5400 X103.41 Y100.29
;TYPE:WALL-OUTER
G1 F600 X103.30 Y100.51 E108.54068
G1 X103.24 Y100.60 E108.54505
G1 X103.05 Y100.77 E108.55555
G1 X102.85 Y100.88 E108.56521
G1 X102.61 Y100.94 E108.57529
G1 X102.50 Y100.95 E108.58000
G1 X102.39 Y100.94 E108.58475
G1 X102.27 Y100.92 E108.58979
G1 X102.04 Y100.83 E108.59981
G1 X101.85 Y100.69 E108.60969
G1 X101.69 Y100.50 E108.61999
G1 X101.60 Y100.29 E108.62963
G1 X101.55 Y100.06 E108.63922
G1 X101.55 Y99.94 E108.64438
G1 X101.57 Y99.83 E108.64882
G1 X101.65 Y99.58 E108.65971
G1 X101.69 Y99.50 E108.66379
G1 X101.86 Y99.30 E108.67435
G1 X101.94 Y99.24 E108.67875
G1 X102.15 Y99.12 E108.68897
G1 X102.27 Y99.08 E108.69382
G1 X102.39 Y99.06 E108.69894
G1 X102.50 Y99.05 E108.70369
G1 X102.61 Y99.06 E108.70840
G1 X102.73 Y99.08 E108.71344
G1 X102.96 Y99.17 E108.72346
G1 X103.15 Y99.31 E108.73334
G1 X103.31 Y99.50 E108.74364
G1 X103.40 Y99.71 E108.75328
G1 X103.43 Y99.82 E108.75794
G1 X103.45 Y99.94 E108.76306
G1 X103.45 Y100.06 E108.76797
G1 X103.43 Y100.18 E108.77308
G1 X103.41 Y100.29 E108.77754
G0 F5400 X102.78 Y100.14
G1 F1200 E106.27754
G0 F5400 X97.95 Y100.03
;TYPE:WALL-INNER
G1 F1200 E108.77754
G1 F600 X97.93 Y100.11 E108.78121
G1 X97.86 Y100.27 E108.78822
G1 X97.72 Y100.39 E108.79593
G1 X97.55 Y100.44 E108.80328
