;Generated with Cura_SteamEngine 13.12
M140 S60.000000
M109 T0 S230.000000
T0
M190 S60.000000
;Sliced at: Mon 24-02-2014 21:57:17
;Basic settings: Layer height: 0.1 Walls: 1 Fill: 20
;Print time: #P_TIME#
;Filament used: #F_AMNT#m #F_WGHT#g
;Filament cost: #F_COST#
;M190 S60 ;Uncomment to add your own bed temperature line
;M109 S230 ;Uncomment to add your own temperature line
G21        ;metric values
G90        ;absolute positioning
M107       ;start with the fan off
G28 X0 Y0  ;move X/Y to min endstops
G28 Z0     ;move Z to min endstops
G1 Z15.0 F9000 ;move the platform down 15mm
G92 E0                  ;zero the extruded length
G1 F200 E3              ;extrude 3mm of feed stock
G92 E0                  ;zero the extruded length again
G1 F9000
;Put printing message on LCD screen
M117 Printing...

;Layer count: 150
;LAYER:-2
;RAFT
G0 F9000 X84.38 Y96.50 Z0.20
;TYPE:SUPPORT
G1 F1200 E0.00000
G1 F1800 X95.08 Y96.50 E0.62280
G1 X95.08 Y99.83 E0.81674
G1 X95.68 Y99.63 E0.85384
G1 X96.46 Y99.49 E0.89987
G1 X97.23 Y99.44 E0.94454
G1 X97.99 Y99.49 E0.98932
G1 X98.93 Y99.66 E1.04464
G1 X99.72 Y99.98 E1.09438
G1 X99.94 Y99.88 E1.10828
G1 X100.68 Y99.63 E1.15384
G1 X101.46 Y99.49 E1.19987
G1 X102.22 Y99.44 E1.24453
G1 X102.99 Y99.49 E1.28931
G1 X103.93 Y99.66 E1.34463
G1 X104.37 Y99.84 E1.37238
G1 X104.36 Y96.50 E1.56673
G1 X106.48 Y96.50 E1.69018
G1 X106.48 Y96.31 E1.70153
G1 X117.18 Y96.31 E2.32433
G1 X117.18 Y99.64 E2.51827
G1 X117.78 Y99.44 E2.55521
G1 X118.57 Y99.29 E2.60158
G1 X119.33 Y99.25 E2.64613
G1 X120.10 Y99.29 E2.69085
G1 X121.03 Y99.47 E2.74594
G1 X121.82 Y99.78 E2.79590
G1 X122.04 Y99.68 E2.80954
G1 X122.78 Y99.44 E2.85525
G1 X123.57 Y99.29 E2.90162
G1 X124.33 Y99.25 E2.94617
G1 X125.10 Y99.29 E2.99089
G1 X126.03 Y99.47 E3.04598
G1 X126.47 Y99.64 E3.07397
G1 X126.46 Y96.31 E3.26837
G1 X137.18 Y96.31 E3.89222
G1 X137.18 Y114.61 E4.95737
G1 X126.48 Y114.61 E5.58017
G1 X126.48 Y111.27 E5.77417
G1 X125.87 Y111.47 E5.81127
G1 X125.11 Y111.61 E5.85635
G1 X124.33 Y111.67 E5.90203
G1 X123.55 Y111.61 E5.94753
G1 X122.63 Y111.44 E6.00189
G1 X121.85 Y111.13 E6.05069
G1 X121.77 Y111.18 E6.05609
G1 X120.87 Y111.47 E6.11107
G1 X120.11 Y111.61 E6.15615
G1 X119.33 Y111.67 E6.20182
G1 X118.55 Y111.61 E6.24732
G1 X117.63 Y111.44 E6.30168
G1 X117.18 Y111.26 E6.33000
G1 X117.18 Y114.61 E6.52458
G1 X115.08 Y114.61 E6.64699
G1 X115.08 Y114.80 E6.65834
G1 X104.38 Y114.80 E7.28113
G1 X104.38 Y111.47 E7.47519
G1 X103.78 Y111.66 E7.51197
G1 X103.01 Y111.81 E7.55740
G1 X102.22 Y111.86 E7.60313
G1 X101.44 Y111.81 E7.64875
G1 X100.53 Y111.64 E7.70289
G1 X99.73 Y111.32 E7.75280
G1 X99.52 Y111.42 E7.76636
G1 X98.78 Y111.66 E7.81196
G1 X98.01 Y111.81 E7.85739
G1 X97.23 Y111.86 E7.90312
G1 X96.44 Y111.81 E7.94874
G1 X95.53 Y111.64 E8.00288
G1 X95.08 Y111.46 E8.03123
G1 X95.08 Y114.80 E8.22582
G1 X84.38 Y114.80 E8.84861
G1 X84.38 Y96.50 E9.91377
G0 F9000 X84.49 Y96.38
G1 F1800 X84.49 Y114.92 E10.99278
G0 F9000 X84.83 Y114.92
G1 F1800 X84.83 Y96.38 E12.07178
G0 F9000 X85.17 Y96.38
G1 F1800 X85.17 Y114.92 E13.15079
G0 F9000 X85.51 Y114.92
G1 F1800 X85.51 Y96.38 E14.22980
G0 F9000 X85.85 Y96.38
G1 F1800 X85.85 Y114.92 E15.30881
G0 F9000 X86.19 Y114.92
G1 F1800 X86.19 Y96.38 E16.38782
G0 F9000 X86.53 Y96.38
G1 F1800 X86.53 Y114.92 E17.46683
G0 F9000 X86.87 Y114.92
G1 F1800 X86.87 Y96.38 E18.54584
G0 F9000 X87.21 Y96.38
G1 F1800 X87.21 Y114.92 E19.62484
G0 F9000 X87.55 Y114.92
G1 F1800 X87.55 Y96.38 E20.70385
G0 F9000 X87.89 Y96.38
G1 F1800 X87.89 Y114.92 E21.78286
G0 F9000 X88.23 Y114.92
G1 F1800 X88.23 Y96.38 E22.86187
G0 F9000 X88.57 Y96.38
G1 F1800 X88.57 Y114.92 E23.94088
G0 F9000 X88.91 Y114.92
G1 F1800 X88.91 Y96.38 E25.01989
G0 F9000 X89.25 Y96.38
G1 F1800 X89.25 Y114.92 E26.09890
G0 F9000 X89.59 Y114.92
G1 F1800 X89.59 Y96.38 E27.17791
G0 F9000 X89.93 Y96.38
G1 F1800 X89.93 Y114.92 E28.25691
G0 F9000 X90.27 Y114.92
G1 F1800 X90.27 Y96.38 E29.33592
G0 F9000 X90.61 Y96.38
G1 F1800 X90.61 Y114.92 E30.41493
G0 F9000 X90.95 Y114.92
G1 F1800 X90.95 Y96.38 E31.49394
G0 F9000 X91.29 Y96.38
G1 F1800 X91.29 Y114.92 E32.57295
G0 F9000 X91.63 Y114.92
G1 F1800 X91.63 Y96.38 E33.65196
G0 F9000 X91.97 Y96.38
G1 F1800 X91.97 Y114.92 E34.73097
G0 F9000 X92.31 Y114.92
G1 F1800 X92.31 Y96.38 E35.80998
G0 F9000 X92.65 Y96.38
G1 F1800 X92.65 Y114.92 E36.88898
G0 F9000 X92.99 Y114.92
G1 F1800 X92.99 Y96.38 E37.96799
G0 F9000 X93.33 Y96.38
G1 F1800 X93.33 Y114.92 E39.04700
G0 F9000 X93.67 Y114.92
G1 F1800 X93.67 Y96.38 E40.12601
G0 F9000 X94.01 Y96.38
G1 F1800 X94.01 Y114.92 E41.20502
G0 F9000 X94.35 Y114.92
G1 F1800 X94.35 Y96.38 E42.28403
G0 F9000 X94.69 Y96.38
G1 F1800 X94.69 Y114.92 E43.36304
G0 F9000 X95.03 Y114.92
G1 F1800 X95.03 Y96.38 E44.44204
G0 F9000 X95.71 Y99.51
G1 F1800 X95.71 Y111.79 E45.15698
G0 F9000 X96.05 Y111.86
G1 F1800 X96.05 Y99.44 E45.87942
G0 F9000 X96.39 Y99.38
G1 F1800 X96.39 Y111.92 E46.60932
G0 F9000 X96.73 Y111.95
G1 F1800 X96.73 Y99.35 E47.34247
G0 F9000 X97.07 Y99.33
G1 F1800 X97.07 Y111.97 E48.07807
G0 F9000 X97.41 Y111.97
G1 F1800 X97.41 Y99.33 E48.81343
G0 F9000 X97.75 Y99.35
G1 F1800 X97.75 Y111.95 E49.54635
G0 F9000 X98.09 Y111.92
G1 F1800 X98.09 Y99.39 E50.27566
G0 F9000 X98.43 Y99.45
G1 F1800 X98.43 Y111.85 E50.99753
G0 F9000 X98.77 Y111.79
G1 F1800 X98.77 Y99.51 E51.71194
G0 F9000 X99.11 Y99.61
G1 F1800 X99.11 Y111.68 E52.41459
G0 F9000 X99.45 Y111.57
G1 F1800 X99.45 Y99.74 E53.10287
G0 F9000 X99.79 Y99.81
G1 F1800 X99.79 Y111.47 E53.78131
G0 F9000 X100.13 Y111.61
G1 F1800 X100.13 Y99.69 E54.47500
G0 F9000 X100.47 Y99.58
G1 F1800 X100.47 Y111.74 E55.18295
G0 F9000 X100.81 Y111.81
G1 F1800 X100.81 Y99.49 E55.90015
G0 F9000 X101.15 Y99.42
G1 F1800 X101.15 Y111.87 E56.62481
G0 F9000 X101.49 Y111.93
G1 F1800 X101.49 Y99.37 E57.35616
G0 F9000 X101.83 Y99.34
G1 F1800 X101.83 Y111.95 E58.09001
G0 F9000 X102.17 Y111.98
G1 F1800 X102.17 Y99.33 E58.82636
G0 F9000 X102.51 Y99.34
G1 F1800 X102.51 Y111.96 E59.56103
G0 F9000 X102.85 Y111.94
G1 F1800 X102.85 Y99.36 E60.29319
G0 F9000 X103.19 Y99.40
G1 F1800 X103.19 Y111.90 E61.02029
G0 F9000 X103.53 Y111.83
G1 F1800 X103.53 Y99.47 E61.73994
G0 F9000 X103.87 Y99.53
G1 F1800 X103.87 Y111.76 E62.45156
G0 F9000 X104.21 Y111.65
G1 F1800 X104.21 Y99.65 E63.14991
G0 F9000 X104.55 Y96.38
G1 F1800 X104.55 Y114.92 E64.22891
G0 F9000 X104.89 Y114.92
G1 F1800 X104.89 Y96.38 E65.30792
G0 F9000 X105.23 Y96.38
G1 F1800 X105.23 Y114.92 E66.38693
G0 F9000 X105.57 Y114.92
G1 F1800 X105.57 Y96.38 E67.46594
G0 F9000 X105.91 Y96.38
G1 F1800 X105.91 Y114.92 E68.54495
G0 F9000 X106.25 Y114.92
G1 F1800 X106.25 Y96.38 E69.62396
G0 F9000 X106.59 Y96.19
G1 F1800 X106.59 Y114.92 E70.71432
G0 F9000 X106.93 Y114.92
G1 F1800 X106.93 Y96.19 E71.80468
G0 F9000 X107.27 Y96.19
G1 F1800 X107.27 Y114.92 E72.89503
G0 F9000 X107.61 Y114.92
G1 F1800 X107.61 Y96.19 E73.98539
G0 F9000 X107.95 Y96.19
G1 F1800 X107.95 Y114.92 E75.07575
G0 F9000 X108.29 Y114.92
G1 F1800 X108.29 Y96.19 E76.16611
G0 F9000 X108.63 Y96.19
G1 F1800 X108.63 Y114.92 E77.25647
G0 F9000 X108.97 Y114.92
G1 F1800 X108.97 Y96.19 E78.34683
G0 F9000 X109.31 Y96.19
G1 F1800 X109.31 Y114.92 E79.43719
G0 F9000 X109.65 Y114.92
G1 F1800 X109.65 Y96.19 E80.52754
G0 F9000 X109.99 Y96.19
G1 F1800 X109.99 Y114.92 E81.61790
G0 F9000 X110.33 Y114.92
G1 F1800 X110.33 Y96.19 E82.70826
G0 F9000 X110.67 Y96.19
G1 F1800 X110.67 Y114.92 E83.79862
G0 F9000 X111.01 Y114.92
G1 F1800 X111.01 Y96.19 E84.88898
G0 F9000 X111.35 Y96.19
G1 F1800 X111.35 Y114.92 E85.97934
G0 F9000 X111.69 Y114.92
G1 F1800 X111.69 Y96.19 E87.06970
G0 F9000 X112.03 Y96.19
G1 F1800 X112.03 Y114.92 E88.16006
G0 F9000 X112.37 Y114.92
G1 F1800 X112.37 Y96.19 E89.25041
G0 F9000 X112.71 Y96.19
G1 F1800 X112.71 Y114.92 E90.34077
G0 F9000 X113.05 Y114.92
G1 F1800 X113.05 Y96.19 E91.43113
G0 F9000 X113.39 Y96.19
G1 F1800 X113.39 Y114.92 E92.52149
G0 F9000 X113.73 Y114.92
G1 F1800 X113.73 Y96.19 E93.61185
G0 F9000 X114.07 Y96.19
G1 F1800 X114.07 Y114.92 E94.70221
G0 F9000 X114.41 Y114.92
G1 F1800 X114.41 Y96.19 E95.79257
G0 F9000 X114.75 Y96.19
G1 F1800 X114.75 Y114.92 E96.88293
G0 F9000 X115.09 Y114.92
G1 F1800 X115.09 Y96.19 E97.97328
G0 F9000 X115.43 Y96.19
G1 F1800 X115.43 Y114.72 E99.05229
G0 F9000 X115.77 Y114.72
G1 F1800 X115.77 Y96.19 E100.13130
G0 F9000 X116.11 Y96.19
G1 F1800 X116.11 Y114.72 E101.21031
G0 F9000 X116.45 Y114.72
G1 F1800 X116.45 Y96.19 E102.28932
G0 F9000 X116.79 Y96.19
G1 F1800 X116.79 Y114.72 E103.36833
G0 F9000 X117.13 Y114.72
G1 F1800 X117.13 Y96.19 E104.44734
G0 F9000 X117.81 Y99.31
G1 F1800 X117.81 Y111.60 E105.16233
G0 F9000 X118.15 Y111.66
G1 F1800 X118.15 Y99.25 E105.88477
G0 F9000 X118.49 Y99.19
G1 F1800 X118.49 Y111.72 E106.61455
G0 F9000 X118.83 Y111.75
G1 F1800 X118.83 Y99.16 E107.34759
G0 F9000 X119.17 Y99.14
G1 F1800 X119.17 Y111.77 E108.08318
G0 F9000 X119.51 Y111.77
G1 F1800 X119.51 Y99.14 E108.81861
G0 F9000 X119.85 Y99.16
G1 F1800 X119.85 Y111.75 E109.55153
G0 F9000 X120.19 Y111.72
G1 F1800 X120.19 Y99.19 E110.28096
G0 F9000 X120.53 Y99.25
G1 F1800 X120.53 Y111.66 E111.00288
G0 F9000 X120.87 Y111.59
G1 F1800 X120.87 Y99.32 E111.71734
G0 F9000 X121.21 Y99.41
G1 F1800 X121.21 Y111.49 E112.42006
G0 F9000 X121.55 Y111.38
G1 F1800 X121.55 Y99.55 E113.10845
G0 F9000 X121.89 Y99.62
G1 F1800 X121.89 Y111.28 E113.78677
G0 F9000 X122.23 Y111.41
G1 F1800 X122.23 Y99.49 E114.48035
G0 F9000 X122.57 Y99.38
G1 F1800 X122.57 Y111.55 E115.18830
G0 F9000 X122.91 Y111.61
G1 F1800 X122.91 Y99.29 E115.90550
G0 F9000 X123.25 Y99.23
G1 F1800 X123.25 Y111.68 E116.63004
G0 F9000 X123.59 Y111.74
G1 F1800 X123.59 Y99.17 E117.36133
G0 F9000 X123.93 Y99.15
G1 F1800 X123.93 Y111.76 E118.09513
G0 F9000 X124.27 Y111.78
G1 F1800 X124.27 Y99.13 E118.83148
G0 F9000 X124.61 Y99.14
G1 F1800 X124.61 Y111.77 E119.56620
G0 F9000 X124.95 Y111.74
G1 F1800 X124.95 Y99.17 E120.29837
G0 F9000 X125.29 Y99.21
G1 F1800 X125.29 Y111.70 E121.02558
G0 F9000 X125.63 Y111.64
G1 F1800 X125.63 Y99.27 E121.74529
G0 F9000 X125.97 Y99.34
G1 F1800 X125.97 Y111.56 E122.45697
G0 F9000 X126.31 Y111.45
G1 F1800 X126.31 Y99.45 E123.15543
G0 F9000 X126.65 Y96.19
G1 F1800 X126.65 Y114.72 E124.23444
G0 F9000 X126.99 Y114.72
G1 F1800 X126.99 Y96.19 E125.31345
G0 F9000 X127.33 Y96.19
G1 F1800 X127.33 Y114.72 E126.39246
G0 F9000 X127.67 Y114.72
G1 F1800 X127.67 Y96.19 E127.47146
G0 F9000 X128.01 Y96.19
G1 F1800 X128.01 Y114.72 E128.55047
G0 F9000 X128.35 Y114.72
G1 F1800 X128.35 Y96.19 E129.62948
G0 F9000 X128.69 Y96.19
G1 F1800 X128.69 Y114.72 E130.70849
G0 F9000 X129.03 Y114.72
G1 F1800 X129.03 Y96.19 E131.78750
G0 F9000 X129.37 Y96.19
G1 F1800 X129.37 Y114.72 E132.86651
G0 F9000 X129.71 Y114.72
G1 F1800 X129.71 Y96.19 E133.94552
G0 F9000 X130.05 Y96.19
G1 F1800 X130.05 Y114.72 E135.02453
G0 F9000 X130.39 Y114.72
G1 F1800 X130.39 Y96.19 E136.10353
G0 F9000 X130.73 Y96.19
G1 F1800 X130.73 Y114.72 E137.18254
G0 F9000 X131.07 Y114.72
G1 F1800 X131.07 Y96.19 E138.26155
G0 F9000 X131.41 Y96.19
G1 F1800 X131.41 Y114.72 E139.34056
G0 F9000 X131.75 Y114.72
G1 F1800 X131.75 Y96.19 E140.41957
G0 F9000 X132.09 Y96.19
G1 F1800 X132.09 Y114.72 E141.49858
G0 F9000 X132.43 Y114.72
G1 F1800 X132.43 Y96.19 E142.57759
G0 F9000 X132.77 Y96.19
G1 F1800 X132.77 Y114.72 E143.65659
G0 F9000 X133.11 Y114.72
G1 F1800 X133.11 Y96.19 E144.73560
G0 F9000 X133.45 Y96.19
G1 F1800 X133.45 Y114.72 E145.81461
G0 F9000 X133.79 Y114.72
G1 F1800 X133.79 Y96.19 E146.89362
G0 F9000 X134.13 Y96.19
G1 F1800 X134.13 Y114.72 E147.97263
G0 F9000 X134.47 Y114.72
G1 F1800 X134.47 Y96.19 E149.05164
G0 F9000 X134.81 Y96.19
G1 F1800 X134.81 Y114.72 E150.13065
G0 F9000 X135.15 Y114.72
G1 F1800 X135.15 Y96.19 E151.20966
G0 F9000 X135.49 Y96.19
G1 F1800 X135.49 Y114.72 E152.28866
G0 F9000 X135.83 Y114.72
G1 F1800 X135.83 Y96.19 E153.36767
G0 F9000 X136.17 Y96.19
G1 F1800 X136.17 Y114.72 E154.44668
G0 F9000 X136.51 Y114.72
G1 F1800 X136.51 Y96.19 E155.52569
G0 F9000 X136.85 Y96.19
G1 F1800 X136.85 Y114.72 E156.60470
G0 F9000 X137.19 Y114.72
G1 F1800 X137.19 Y96.19 E157.68371
G0 F9000 X117.47 Y99.42
G1 F1800 X117.47 Y111.51 E158.38741
G0 F9000 X95.37 Y111.70
G1 F1800 X95.37 Y99.61 E159.09105
;LAYER:-1
;RAFT
G0 F9000 X95.11 Y99.45 Z0.30
;TYPE:SUPPORT
G1 F1800 X84.34 Y99.45 E159.18059
G0 F9000 X84.34 Y99.79
G1 F1800 X99.34 Y99.79 E159.30532
G0 F9000 X100.09 Y99.79
G1 F1800 X137.21 Y99.79 E159.61399
G0 F9000 X137.21 Y100.13
G1 F1800 X84.34 Y100.13 E160.05361
G0 F9000 X84.34 Y100.47
G1 F1800 X137.21 Y100.47 E160.49322
G0 F9000 X137.21 Y100.81
G1 F1800 X84.34 Y100.81 E160.93284
G0 F9000 X84.34 Y101.15
G1 F1800 X137.21 Y101.15 E161.37246
G0 F9000 X137.21 Y101.49
G1 F1800 X84.34 Y101.49 E161.81207
G0 F9000 X84.34 Y101.83
G1 F1800 X137.21 Y101.83 E162.25169
G0 F9000 X137.21 Y102.17
G1 F1800 X84.34 Y102.17 E162.69130
G0 F9000 X84.34 Y102.51
G1 F1800 X137.21 Y102.51 E163.13092
G0 F9000 X137.21 Y102.85
G1 F1800 X84.34 Y102.85 E163.57054
G0 F9000 X84.34 Y103.19
G1 F1800 X137.21 Y103.19 E164.01015
G0 F9000 X137.21 Y103.53
G1 F1800 X84.34 Y103.53 E164.44977
G0 F9000 X84.34 Y103.87
G1 F1800 X137.21 Y103.87 E164.88938
G0 F9000 X137.21 Y104.21
G1 F1800 X84.34 Y104.21 E165.32900
G0 F9000 X84.34 Y104.55
G1 F1800 X137.21 Y104.55 E165.76861
G0 F9000 X137.21 Y104.89
G1 F1800 X84.34 Y104.89 E166.20823
G0 F9000 X84.34 Y105.23
G1 F1800 X137.21 Y105.23 E166.64785
G0 F9000 X137.21 Y105.57
G1 F1800 X84.34 Y105.57 E167.08746
G0 F9000 X84.34 Y105.91
G1 F1800 X137.21 Y105.91 E167.52708
G0 F9000 X137.21 Y106.25
G1 F1800 X84.34 Y106.25 E167.96669
G0 F9000 X84.34 Y106.59
G1 F1800 X137.21 Y106.59 E168.40631
G0 F9000 X137.21 Y106.93
G1 F1800 X84.34 Y106.93 E168.84593
G0 F9000 X84.34 Y107.27
G1 F1800 X137.21 Y107.27 E169.28554
G0 F9000 X137.21 Y107.61
G1 F1800 X84.34 Y107.61 E169.72516
G0 F9000 X84.34 Y107.95
G1 F1800 X137.21 Y107.95 E170.16477
G0 F9000 X137.21 Y108.29
G1 F1800 X84.34 Y108.29 E170.60439
G0 F9000 X84.34 Y108.63
G1 F1800 X137.21 Y108.63 E171.04400
G0 F9000 X137.21 Y108.97
G1 F1800 X84.34 Y108.97 E171.48362
G0 F9000 X84.34 Y109.31
G1 F1800 X137.21 Y109.31 E171.92324
G0 F9000 X137.21 Y109.65
G1 F1800 X84.34 Y109.65 E172.36285
G0 F9000 X84.34 Y109.99
G1 F1800 X137.21 Y109.99 E172.80247
G0 F9000 X137.21 Y110.33
G1 F1800 X84.34 Y110.33 E173.24208
G0 F9000 X84.34 Y110.67
G1 F1800 X137.21 Y110.67 E173.68170
G0 F9000 X137.21 Y111.01
G1 F1800 X84.34 Y111.01 E174.12132
G0 F9000 X84.34 Y111.35
G1 F1800 X117.21 Y111.35 E174.39463
G0 F9000 X117.31 Y111.35
G1 F1800 X121.35 Y111.35 E174.42821
G0 F9000 X122.31 Y111.35
G1 F1800 X126.35 Y111.35 E174.46177
G0 F9000 X126.44 Y111.35
G1 F1800 X137.21 Y111.35 E174.55131
G0 F9000 X137.21 Y111.69
G1 F1800 X126.44 Y111.69 E174.64085
G0 F9000 X126.44 Y112.03
G1 F1800 X137.21 Y112.03 E174.73038
G0 F9000 X137.21 Y112.37
G1 F1800 X126.44 Y112.37 E174.81992
G0 F9000 X126.44 Y112.71
G1 F1800 X137.21 Y112.71 E174.90946
G0 F9000 X137.21 Y113.05
G1 F1800 X126.44 Y113.05 E174.99899
G0 F9000 X126.44 Y113.39
G1 F1800 X137.21 Y113.39 E175.08853
G0 F9000 X137.21 Y113.73
G1 F1800 X126.44 Y113.73 E175.17806
G0 F9000 X126.44 Y114.07
G1 F1800 X137.21 Y114.07 E175.26760
G0 F9000 X137.21 Y114.41
G1 F1800 X126.44 Y114.41 E175.35714
G0 F9000 X124.46 Y111.69
G1 F1800 X124.19 Y111.69 E175.35940
G0 F9000 X119.46 Y111.69
G1 F1800 X119.19 Y111.69 E175.36166
G0 F9000 X117.21 Y111.69
G1 F1800 X104.34 Y111.69 E175.46868
G0 F9000 X104.34 Y112.03
G1 F1800 X117.21 Y112.03 E175.57571
G0 F9000 X117.21 Y112.37
G1 F1800 X104.34 Y112.37 E175.68273
G0 F9000 X104.34 Y112.71
G1 F1800 X117.21 Y112.71 E175.78975
G0 F9000 X117.21 Y113.05
G1 F1800 X104.34 Y113.05 E175.89677
G0 F9000 X104.34 Y113.39
G1 F1800 X117.21 Y113.39 E176.00380
G0 F9000 X117.21 Y113.73
G1 F1800 X104.34 Y113.73 E176.11082
G0 F9000 X104.34 Y114.07
G1 F1800 X117.21 Y114.07 E176.21784
G0 F9000 X117.21 Y114.41
G1 F1800 X104.34 Y114.41 E176.32487
G0 F9000 X104.34 Y114.75
G1 F1800 X115.11 Y114.75 E176.41440
G0 F9000 X103.80 Y111.69
G1 F1800 X100.63 Y111.69 E176.44074
G0 F9000 X98.80 Y111.69
G1 F1800 X95.64 Y111.69 E176.46708
G0 F9000 X95.11 Y111.69
G1 F1800 X84.34 Y111.69 E176.55661
G0 F9000 X84.34 Y112.03
G1 F1800 X95.11 Y112.03 E176.64615
