;Generated with Cura_SteamEngine 13.12
M140 S90.000000
M109 T0 S251.000000
T0
M190 S90.000000
;Sliced at: Mon 24-02-2014 19:52:36
;Basic settings: Layer height: 0.1 Walls: 1 Fill: 20
;Print time: #P_TIME#
;Filament used: #F_AMNT#m #F_WGHT#g
;Filament cost: #F_COST#
;M190 S90 ;Uncomment to add your own bed temperature line
;M109 S251 ;Uncomment to add your own temperature line
G21        ;metric values
G90        ;absolute positioning
M107       ;start with the fan off
G28 X0 Y0  ;move X/Y to min endstops
G28 Z0     ;move Z to min endstops
G1 Z15.0 F9000 ;move the platform down 15mm
G92 E0                  ;zero the extruded length
G1 F200 E3              ;extrude 3mm of feed stock
G92 E0                  ;zero the extruded length again
G1 F9000
;Put printing message on LCD screen
M117 Printing...

;Layer count: 200
;LAYER:-2
;RAFT
G0 F9000 X84.65 Y96.50 Z0.20
;TYPE:SUPPORT
G1 F1200 E0.00000
G1 F1800 X95.35 Y96.50 E0.62285
G1 X95.35 Y99.83 E0.81679
G1 X95.95 Y99.64 E0.85355
G1 X96.73 Y99.49 E0.89988
G1 X97.50 Y99.44 E0.94454
G1 X98.27 Y99.49 E0.98932
G1 X99.20 Y99.66 E1.04447
G1 X99.98 Y99.97 E1.09330
G1 X100.06 Y99.93 E1.09849
G1 X100.95 Y99.64 E1.15327
G1 X101.73 Y99.49 E1.19965
G1 X102.50 Y99.44 E1.24443
G1 X103.27 Y99.49 E1.28910
G1 X104.20 Y99.66 E1.34419
G1 X104.64 Y99.84 E1.37209
G1 X104.63 Y96.50 E1.56644
G1 X106.75 Y96.50 E1.68990
G1 X106.75 Y96.07 E1.71510
G1 X117.45 Y96.07 E2.33790
G1 X117.45 Y99.40 E2.53184
G1 X118.05 Y99.20 E2.56859
G1 X118.83 Y99.05 E2.61497
G1 X119.60 Y99.01 E2.65976
G1 X120.37 Y99.05 E2.70442
G1 X121.30 Y99.23 E2.75951
G1 X122.08 Y99.54 E2.80840
G1 X122.16 Y99.50 E2.81358
G1 X123.05 Y99.20 E2.86836
G1 X123.83 Y99.05 E2.91474
G1 X124.60 Y99.01 E2.95952
G1 X125.37 Y99.05 E3.00419
G1 X126.30 Y99.23 E3.05928
G1 X126.75 Y99.41 E3.08727
G1 X126.73 Y96.07 E3.28167
G1 X137.45 Y96.07 E3.90552
G1 X137.45 Y114.37 E4.97067
G1 X126.75 Y114.37 E5.59347
G1 X126.75 Y111.03 E5.78747
G1 X126.15 Y111.23 E5.82428
G1 X125.39 Y111.38 E5.86966
G1 X124.60 Y111.43 E5.91527
G1 X123.82 Y111.38 E5.96101
G1 X122.90 Y111.20 E6.01521
G1 X122.11 Y110.89 E6.06516
G1 X121.89 Y110.99 E6.07917
G1 X121.15 Y111.23 E6.12432
G1 X120.39 Y111.38 E6.16970
G1 X119.60 Y111.43 E6.21532
G1 X118.82 Y111.38 E6.26105
G1 X117.90 Y111.20 E6.31525
G1 X117.45 Y111.02 E6.34355
G1 X117.45 Y114.37 E6.53813
G1 X115.35 Y114.37 E6.66048
G1 X115.35 Y114.80 E6.68568
G1 X104.65 Y114.80 E7.30853
G1 X104.65 Y111.47 E7.50253
G1 X104.05 Y111.66 E7.53929
G1 X103.28 Y111.81 E7.58467
G1 X102.50 Y111.86 E7.63028
G1 X101.72 Y111.81 E7.67602
G1 X100.80 Y111.64 E7.73022
G1 X100.01 Y111.32 E7.78012
G1 X99.79 Y111.42 E7.79413
G1 X99.05 Y111.66 E7.83928
G1 X98.28 Y111.81 E7.88471
G1 X97.50 Y111.86 E7.93045
G1 X96.72 Y111.81 E7.97606
G1 X95.80 Y111.64 E8.03021
G1 X95.35 Y111.46 E8.05850
G1 X95.35 Y114.80 E8.25308
G1 X84.65 Y114.80 E8.87594
G1 X84.65 Y96.50 E9.94109
G0 F9000 X84.83 Y96.38
G1 F1800 X84.83 Y114.92 E11.02010
G0 F9000 X85.17 Y114.92
G1 F1800 X85.17 Y96.38 E12.09911
G0 F9000 X85.51 Y96.38
G1 F1800 X85.51 Y114.92 E13.17812
G0 F9000 X85.85 Y114.92
G1 F1800 X85.85 Y96.38 E14.25713
G0 F9000 X86.19 Y96.38
G1 F1800 X86.19 Y114.92 E15.33614
G0 F9000 X86.53 Y114.92
G1 F1800 X86.53 Y96.38 E16.41515
G0 F9000 X86.87 Y96.38
G1 F1800 X86.87 Y114.92 E17.49416
G0 F9000 X87.21 Y114.92
G1 F1800 X87.21 Y96.38 E18.57316
G0 F9000 X87.55 Y96.38
G1 F1800 X87.55 Y114.92 E19.65217
G0 F9000 X87.89 Y114.92
G1 F1800 X87.89 Y96.38 E20.73118
G0 F9000 X88.23 Y96.38
G1 F1800 X88.23 Y114.92 E21.81019
G0 F9000 X88.57 Y114.92
G1 F1800 X88.57 Y96.38 E22.88920
G0 F9000 X88.91 Y96.38
G1 F1800 X88.91 Y114.92 E23.96821
G0 F9000 X89.25 Y114.92
G1 F1800 X89.25 Y96.38 E25.04722
G0 F9000 X89.59 Y96.38
G1 F1800 X89.59 Y114.92 E26.12622
G0 F9000 X89.93 Y114.92
G1 F1800 X89.93 Y96.38 E27.20523
G0 F9000 X90.27 Y96.38
G1 F1800 X90.27 Y114.92 E28.28424
G0 F9000 X90.61 Y114.92
G1 F1800 X90.61 Y96.38 E29.36325
G0 F9000 X90.95 Y96.38
G1 F1800 X90.95 Y114.92 E30.44226
G0 F9000 X91.29 Y114.92
G1 F1800 X91.29 Y96.38 E31.52127
G0 F9000 X91.63 Y96.38
G1 F1800 X91.63 Y114.92 E32.60028
G0 F9000 X91.97 Y114.92
G1 F1800 X91.97 Y96.38 E33.67929
G0 F9000 X92.31 Y96.38
G1 F1800 X92.31 Y114.92 E34.75829
G0 F9000 X92.65 Y114.92
G1 F1800 X92.65 Y96.38 E35.83730
G0 F9000 X92.99 Y96.38
G1 F1800 X92.99 Y114.92 E36.91631
G0 F9000 X93.33 Y114.92
G1 F1800 X93.33 Y96.38 E37.99532
G0 F9000 X93.67 Y96.38
G1 F1800 X93.67 Y114.92 E39.07433
G0 F9000 X94.01 Y114.92
G1 F1800 X94.01 Y96.38 E40.15334
G0 F9000 X94.35 Y96.38
G1 F1800 X94.35 Y114.92 E41.23235
G0 F9000 X94.69 Y114.92
G1 F1800 X94.69 Y96.38 E42.31135
G0 F9000 X95.03 Y96.38
G1 F1800 X95.03 Y114.92 E43.39036
G0 F9000 X95.37 Y114.92
G1 F1800 X95.37 Y96.38 E44.46937
G0 F9000 X96.05 Y99.50
G1 F1800 X96.05 Y111.80 E45.18576
G0 F9000 X96.39 Y111.87
G1 F1800 X96.39 Y99.43 E45.90966
G0 F9000 X96.73 Y99.37
G1 F1800 X96.73 Y111.93 E46.64072
G0 F9000 X97.07 Y111.95
G1 F1800 X97.07 Y99.35 E47.37434
G0 F9000 X97.41 Y99.33
G1 F1800 X97.41 Y111.97 E48.11046
G0 F9000 X97.75 Y111.96
G1 F1800 X97.75 Y99.34 E48.84536
G0 F9000 X98.09 Y99.36
G1 F1800 X98.09 Y111.94 E49.57775
G0 F9000 X98.43 Y111.90
G1 F1800 X98.43 Y99.40 E50.30567
G0 F9000 X98.77 Y99.46
G1 F1800 X98.77 Y111.84 E51.02602
G0 F9000 X99.11 Y111.77
G1 F1800 X99.11 Y99.53 E51.73868
G0 F9000 X99.45 Y99.64
G1 F1800 X99.45 Y111.66 E52.43848
G0 F9000 X99.79 Y111.55
G1 F1800 X99.79 Y99.77 E53.12403
G0 F9000 X100.13 Y99.78
G1 F1800 X100.13 Y111.50 E53.80613
G0 F9000 X100.47 Y111.63
G1 F1800 X100.47 Y99.67 E54.50256
G0 F9000 X100.81 Y99.56
G1 F1800 X100.81 Y111.76 E55.21278
G0 F9000 X101.15 Y111.82
G1 F1800 X101.15 Y99.48 E55.93138
G0 F9000 X101.49 Y99.41
G1 F1800 X101.49 Y111.89 E56.65749
G0 F9000 X101.83 Y111.94
G1 F1800 X101.83 Y99.36 E57.38930
G0 F9000 X102.17 Y99.34
G1 F1800 X102.17 Y111.96 E58.12368
G0 F9000 X102.51 Y111.98
G1 F1800 X102.51 Y99.32 E58.86038
G0 F9000 X102.85 Y99.34
G1 F1800 X102.85 Y111.96 E59.59453
G0 F9000 X103.19 Y111.94
G1 F1800 X103.19 Y99.36 E60.32622
G0 F9000 X103.53 Y99.42
G1 F1800 X103.53 Y111.88 E61.05193
G0 F9000 X103.87 Y111.82
G1 F1800 X103.87 Y99.48 E61.77006
G0 F9000 X104.21 Y99.55
G1 F1800 X104.21 Y111.74 E62.47970
G0 F9000 X104.55 Y114.92
G1 F1800 X104.55 Y96.38 E63.55871
G0 F9000 X104.89 Y96.38
G1 F1800 X104.89 Y114.92 E64.63772
G0 F9000 X105.23 Y114.92
G1 F1800 X105.23 Y96.38 E65.71673
G0 F9000 X105.57 Y96.38
G1 F1800 X105.57 Y114.92 E66.79574
G0 F9000 X105.91 Y114.92
G1 F1800 X105.91 Y96.38 E67.87475
G0 F9000 X106.25 Y96.38
G1 F1800 X106.25 Y114.92 E68.95375
G0 F9000 X106.59 Y114.92
G1 F1800 X106.59 Y96.38 E70.03276
G0 F9000 X106.93 Y95.95
G1 F1800 X106.93 Y114.92 E71.13697
G0 F9000 X107.27 Y114.92
G1 F1800 X107.27 Y95.95 E72.24119
G0 F9000 X107.61 Y95.95
G1 F1800 X107.61 Y114.92 E73.34540
G0 F9000 X107.95 Y114.92
G1 F1800 X107.95 Y95.95 E74.44961
G0 F9000 X108.29 Y95.95
G1 F1800 X108.29 Y114.92 E75.55382
G0 F9000 X108.63 Y114.92
G1 F1800 X108.63 Y95.95 E76.65803
G0 F9000 X108.97 Y95.95
G1 F1800 X108.97 Y114.92 E77.76224
G0 F9000 X109.31 Y114.92
G1 F1800 X109.31 Y95.95 E78.86646
G0 F9000 X109.65 Y95.95
G1 F1800 X109.65 Y114.92 E79.97067
G0 F9000 X109.99 Y114.92
G1 F1800 X109.99 Y95.95 E81.07488
G0 F9000 X110.33 Y95.95
G1 F1800 X110.33 Y114.92 E82.17909
G0 F9000 X110.67 Y114.92
G1 F1800 X110.67 Y95.95 E83.28330
G0 F9000 X111.01 Y95.95
G1 F1800 X111.01 Y114.92 E84.38751
G0 F9000 X111.35 Y114.92
G1 F1800 X111.35 Y95.95 E85.49172
G0 F9000 X111.69 Y95.95
G1 F1800 X111.69 Y114.92 E86.59594
G0 F9000 X112.03 Y114.92
G1 F1800 X112.03 Y95.95 E87.70015
G0 F9000 X112.37 Y95.95
G1 F1800 X112.37 Y114.92 E88.80436
G0 F9000 X112.71 Y114.92
G1 F1800 X112.71 Y95.95 E89.90857
G0 F9000 X113.05 Y95.95
G1 F1800 X113.05 Y114.92 E91.01278
G0 F9000 X113.39 Y114.92
G1 F1800 X113.39 Y95.95 E92.11699
G0 F9000 X113.73 Y95.95
G1 F1800 X113.73 Y114.92 E93.22121
G0 F9000 X114.07 Y114.92
G1 F1800 X114.07 Y95.95 E94.32542
G0 F9000 X114.41 Y95.95
G1 F1800 X114.41 Y114.92 E95.42963
G0 F9000 X114.75 Y114.92
G1 F1800 X114.75 Y95.95 E96.53384
G0 F9000 X115.09 Y95.95
G1 F1800 X115.09 Y114.92 E97.63805
G0 F9000 X115.43 Y114.92
G1 F1800 X115.43 Y95.95 E98.74226
G0 F9000 X115.77 Y95.95
G1 F1800 X115.77 Y114.49 E99.82127
G0 F9000 X116.11 Y114.49
G1 F1800 X116.11 Y95.95 E100.90028
G0 F9000 X116.45 Y95.95
G1 F1800 X116.45 Y114.49 E101.97929
G0 F9000 X116.79 Y114.49
G1 F1800 X116.79 Y95.95 E103.05830
G0 F9000 X117.13 Y95.95
G1 F1800 X117.13 Y114.49 E104.13731
G0 F9000 X117.47 Y114.49
G1 F1800 X117.47 Y95.95 E105.21631
G0 F9000 X118.15 Y99.06
G1 F1800 X118.15 Y111.37 E105.93270
G0 F9000 X118.49 Y111.43
G1 F1800 X118.49 Y99.00 E106.65655
G0 F9000 X118.83 Y98.94
G1 F1800 X118.83 Y111.50 E107.38760
G0 F9000 X119.17 Y111.52
G1 F1800 X119.17 Y98.91 E108.12122
G0 F9000 X119.51 Y98.89
G1 F1800 X119.51 Y111.54 E108.85729
G0 F9000 X119.85 Y111.53
G1 F1800 X119.85 Y98.90 E109.59224
G0 F9000 X120.19 Y98.92
G1 F1800 X120.19 Y111.51 E110.32464
G0 F9000 X120.53 Y111.47
G1 F1800 X120.53 Y98.96 E111.05255
G0 F9000 X120.87 Y99.03
G1 F1800 X120.87 Y111.41 E111.77296
G0 F9000 X121.21 Y111.34
G1 F1800 X121.21 Y99.09 E112.48568
G0 F9000 X121.55 Y99.20
G1 F1800 X121.55 Y111.23 E113.18554
G0 F9000 X121.89 Y111.11
G1 F1800 X121.89 Y99.34 E113.87108
G0 F9000 X122.23 Y99.35
G1 F1800 X122.23 Y111.06 E114.55313
G0 F9000 X122.57 Y111.20
G1 F1800 X122.57 Y99.23 E115.24944
G0 F9000 X122.91 Y99.12
G1 F1800 X122.91 Y111.33 E115.95966
G0 F9000 X123.25 Y111.39
G1 F1800 X123.25 Y99.04 E116.67826
G0 F9000 X123.59 Y98.98
G1 F1800 X123.59 Y111.45 E117.40432
G0 F9000 X123.93 Y111.50
G1 F1800 X123.93 Y98.93 E118.13613
G0 F9000 X124.27 Y98.91
G1 F1800 X124.27 Y111.52 E118.87045
G0 F9000 X124.61 Y111.55
G1 F1800 X124.61 Y98.89 E119.60715
G0 F9000 X124.95 Y98.91
G1 F1800 X124.95 Y111.52 E120.34135
G0 F9000 X125.29 Y111.50
G1 F1800 X125.29 Y98.93 E121.07305
G0 F9000 X125.63 Y98.98
G1 F1800 X125.63 Y111.45 E121.79875
G0 F9000 X125.97 Y111.39
G1 F1800 X125.97 Y99.05 E122.51695
G0 F9000 X126.31 Y99.11
G1 F1800 X126.31 Y111.30 E123.22664
G0 F9000 X126.65 Y114.49
G1 F1800 X126.65 Y95.95 E124.30565
G0 F9000 X126.99 Y95.95
G1 F1800 X126.99 Y114.49 E125.38466
G0 F9000 X127.33 Y114.49
G1 F1800 X127.33 Y95.95 E126.46367
G0 F9000 X127.67 Y95.95
G1 F1800 X127.67 Y114.49 E127.54268
G0 F9000 X128.01 Y114.49
G1 F1800 X128.01 Y95.95 E128.62169
G0 F9000 X128.35 Y95.95
G1 F1800 X128.35 Y114.49 E129.70070
G0 F9000 X128.69 Y114.49
G1 F1800 X128.69 Y95.95 E130.77971
G0 F9000 X129.03 Y95.95
G1 F1800 X129.03 Y114.49 E131.85871
G0 F9000 X129.37 Y114.49
G1 F1800 X129.37 Y95.95 E132.93772
G0 F9000 X129.71 Y95.95
G1 F1800 X129.71 Y114.49 E134.01673
G0 F9000 X130.05 Y114.49
G1 F1800 X130.05 Y95.95 E135.09574
G0 F9000 X130.39 Y95.95
G1 F1800 X130.39 Y114.49 E136.17475
G0 F9000 X130.73 Y114.49
G1 F1800 X130.73 Y95.95 E137.25376
G0 F9000 X131.07 Y95.95
G1 F1800 X131.07 Y114.49 E138.33277
G0 F9000 X131.41 Y114.49
G1 F1800 X131.41 Y95.95 E139.41177
G0 F9000 X131.75 Y95.95
G1 F1800 X131.75 Y114.49 E140.49078
G0 F9000 X132.09 Y114.49
G1 F1800 X132.09 Y95.95 E141.56979
G0 F9000 X132.43 Y95.95
G1 F1800 X132.43 Y114.49 E142.64880
G0 F9000 X132.77 Y114.49
G1 F1800 X132.77 Y95.95 E143.72781
G0 F9000 X133.11 Y95.95
G1 F1800 X133.11 Y114.49 E144.80682
G0 F9000 X133.45 Y114.49
G1 F1800 X133.45 Y95.95 E145.88583
G0 F9000 X133.79 Y95.95
G1 F1800 X133.79 Y114.49 E146.96484
G0 F9000 X134.13 Y114.49
G1 F1800 X134.13 Y95.95 E148.04384
G0 F9000 X134.47 Y95.95
G1 F1800 X134.47 Y114.49 E149.12285
G0 F9000 X134.81 Y114.49
G1 F1800 X134.81 Y95.95 E150.20186
G0 F9000 X135.15 Y95.95
G1 F1800 X135.15 Y114.49 E151.28087
G0 F9000 X135.49 Y114.49
G1 F1800 X135.49 Y95.95 E152.35988
G0 F9000 X135.83 Y95.95
G1 F1800 X135.83 Y114.49 E153.43889
G0 F9000 X136.17 Y114.49
G1 F1800 X136.17 Y95.95 E154.51790
G0 F9000 X136.51 Y95.95
G1 F1800 X136.51 Y114.49 E155.59690
G0 F9000 X136.85 Y114.49
G1 F1800 X136.85 Y95.95 E156.67591
G0 F9000 X137.19 Y95.95
G1 F1800 X137.19 Y114.49 E157.75492
G0 F9000 X137.53 Y114.49
G1 F1800 X137.53 Y95.95 E158.83393
G0 F9000 X117.81 Y99.16
G1 F1800 X117.81 Y111.29 E159.54037
G0 F9000 X95.71 Y111.73
G1 F1800 X95.71 Y99.59 E160.24686
;LAYER:-1
;RAFT
G0 F9000 X95.38 Y99.45 Z0.30
;TYPE:SUPPORT
G1 F1800 X84.61 Y99.45 E160.33641
G0 F9000 X84.61 Y99.79
G1 F1800 X99.61 Y99.79 E160.46112
G0 F9000 X100.37 Y99.79
G1 F1800 X137.49 Y99.79 E160.76977
G0 F9000 X137.49 Y100.13
G1 F1800 X84.61 Y100.13 E161.20939
G0 F9000 X84.61 Y100.47
G1 F1800 X137.49 Y100.47 E161.64900
G0 F9000 X137.49 Y100.81
G1 F1800 X84.61 Y100.81 E162.08862
G0 F9000 X84.61 Y101.15
G1 F1800 X137.49 Y101.15 E162.52823
G0 F9000 X137.49 Y101.49
G1 F1800 X84.61 Y101.49 E162.96785
G0 F9000 X84.61 Y101.83
G1 F1800 X137.49 Y101.83 E163.40747
G0 F9000 X137.49 Y102.17
G1 F1800 X84.61 Y102.17 E163.84708
G0 F9000 X84.61 Y102.51
G1 F1800 X137.49 Y102.51 E164.28670
G0 F9000 X137.49 Y102.85
G1 F1800 X84.61 Y102.85 E164.72631
G0 F9000 X84.61 Y103.19
G1 F1800 X137.49 Y103.19 E165.16593
G0 F9000 X137.49 Y103.53
G1 F1800 X84.61 Y103.53 E165.60554
G0 F9000 X84.61 Y103.87
G1 F1800 X137.49 Y103.87 E166.04516
G0 F9000 X137.49 Y104.21
G1 F1800 X84.61 Y104.21 E166.48478
G0 F9000 X84.61 Y104.55
G1 F1800 X137.49 Y104.55 E166.92439
G0 F9000 X137.49 Y104.89
G1 F1800 X84.61 Y104.89 E167.36401
G0 F9000 X84.61 Y105.23
G1 F1800 X137.49 Y105.23 E167.80362
G0 F9000 X137.49 Y105.57
G1 F1800 X84.61 Y105.57 E168.24324
G0 F9000 X84.61 Y105.91
G1 F1800 X137.49 Y105.91 E168.68286
G0 F9000 X137.49 Y106.25
G1 F1800 X84.61 Y106.25 E169.12247
G0 F9000 X84.61 Y106.59
G1 F1800 X137.49 Y106.59 E169.56209
G0 F9000 X137.49 Y106.93
G1 F1800 X84.61 Y106.93 E170.00170
G0 F9000 X84.61 Y107.27
G1 F1800 X137.49 Y107.27 E170.44132
G0 F9000 X137.49 Y107.61
G1 F1800 X84.61 Y107.61 E170.88093
G0 F9000 X84.61 Y107.95
G1 F1800 X137.49 Y107.95 E171.32055
G0 F9000 X137.49 Y108.29
G1 F1800 X84.61 Y108.29 E171.76017
G0 F9000 X84.61 Y108.63
G1 F1800 X137.49 Y108.63 E172.19978
G0 F9000 X137.49 Y108.97
G1 F1800 X84.61 Y108.97 E172.63940
G0 F9000 X84.61 Y109.31
G1 F1800 X137.49 Y109.31 E173.07901
G0 F9000 X137.49 Y109.65
G1 F1800 X84.61 Y109.65 E173.51863
G0 F9000 X84.61 Y109.99
G1 F1800 X137.49 Y109.99 E173.95825
G0 F9000 X137.49 Y110.33
G1 F1800 X84.61 Y110.33 E174.39786
G0 F9000 X84.61 Y110.67
G1 F1800 X137.49 Y110.67 E174.83748
G0 F9000 X137.49 Y111.01
G1 F1800 X122.33 Y111.01 E174.96353
G0 F9000 X121.92 Y111.01
G1 F1800 X84.61 Y111.01 E175.27373
G0 F9000 X84.61 Y111.35
G1 F1800 X117.49 Y111.35 E175.54705
G0 F9000 X117.49 Y111.69
G1 F1800 X104.61 Y111.69 E175.65407
G0 F9000 X104.61 Y112.03
G1 F1800 X117.49 Y112.03 E175.76109
G0 F9000 X117.49 Y112.37
G1 F1800 X104.61 Y112.37 E175.86812
G0 F9000 X104.61 Y112.71
G1 F1800 X117.49 Y112.71 E175.97514
G0 F9000 X117.49 Y113.05
G1 F1800 X104.61 Y113.05 E176.08216
G0 F9000 X104.61 Y113.39
G1 F1800 X117.49 Y113.39 E176.18919
G0 F9000 X117.49 Y113.73
G1 F1800 X104.61 Y113.73 E176.29621
G0 F9000 X104.61 Y114.07
G1 F1800 X117.49 Y114.07 E176.40323
G0 F9000 X115.38 Y114.41
G1 F1800 X104.61 Y114.41 E176.49278
G0 F9000 X104.61 Y114.75
G1 F1800 X115.38 Y114.75 E176.58232
G0 F9000 X118.50 Y111.35
G1 F1800 X120.70 Y111.35 E176.60060
G0 F9000 X123.50 Y111.35
G1 F1800 X125.70 Y111.35 E176.61887
G0 F9000 X126.72 Y111.35
G1 F1800 X137.49 Y111.35 E176.70841
G0 F9000 X137.49 Y111.69
G1 F1800 X126.72 Y111.69 E176.79795
G0 F9000 X126.72 Y112.03
G1 F1800 X137.49 Y112.03 E176.88748
G0 F9000 X137.49 Y112.37
G1 F1800 X126.72 Y112.37 E176.97702
G0 F9000 X126.72 Y112.71
G1 F1800 X137.49 Y112.71 E177.06655
G0 F9000 X137.49 Y113.05
G1 F1800 X126.72 Y113.05 E177.15609
G0 F9000 X126.72 Y113.39
G1 F1800 X137.49 Y113.39 E177.24563
G0 F9000 X137.49 Y113.73
G1 F1800 X126.72 Y113.73 E177.33516
G0 F9000 X126.72 Y114.07
G1 F1800 X137.49 Y114.07 E177.42470
G0 F9000 X137.49 Y99.45
G1 F1800 X122.19 Y99.45 E177.55191
G0 F9000 X121.95 Y99.45
G1 F1800 X104.61 Y99.45 E177.69614
G0 F9000 X104.61 Y99.11
G1 F1800 X117.49 Y99.11 E177.80323
G0 F9000 X117.49 Y98.77
G1 F1800 X104.60 Y98.77 E177.91034
G0 F9000 X104.60 Y98.43
G1 F1800 X117.49 Y98.43 E178.01745
G0 F9000 X117.49 Y98.09
G1 F1800 X104.60 Y98.09 E178.12458
