;Generated with Cura_SteamEngine 13.12
M140 S60.000000
M109 T0 S230.000000
T0
M190 S60.000000
;Sliced at: Sun 23-02-2014 23:33:34
;Basic settings: Layer height: 0.06 Walls: 1 Fill: 100
;Print time: #P_TIME#
;Filament used: #F_AMNT#m #F_WGHT#g
;Filament cost: #F_COST#
;M190 S60 ;Uncomment to add your own bed temperature line
;M109 S230 ;Uncomment to add your own temperature line
G21        ;metric values
G90        ;absolute positioning
M107       ;start with the fan off
G28 X0 Y0  ;move X/Y to min endstops
G28 Z0     ;move Z to min endstops
G1 Z15.0 F9000 ;move the platform down 15mm
G92 E0                  ;zero the extruded length
G1 F200 E3              ;extrude 3mm of feed stock
G92 E0                  ;zero the extruded length again
G1 F9000
;Put printing message on LCD screen
M117 Printing...

;Layer count: 82
;LAYER:-2
;RAFT
G0 F9000 X82.15 Y80.00 Z0.30
;TYPE:SUPPORT
G1 F1200 E0.00000
G1 F1800 X117.85 Y80.00 E3.11672
G1 X117.85 Y120.00 E6.60903
G1 X82.15 Y120.00 E9.72575
G1 X82.15 Y80.00 E13.21806
G0 F9000 X82.50 Y79.88
G1 F1800 X82.50 Y120.12 E16.73115
G0 F9000 X83.50 Y120.12
G1 F1800 X83.50 Y79.88 E20.24425
G0 F9000 X84.50 Y79.88
G1 F1800 X84.50 Y120.12 E23.75734
G0 F9000 X85.50 Y120.12
G1 F1800 X85.50 Y79.88 E27.27043
G0 F9000 X86.50 Y79.88
G1 F1800 X86.50 Y120.12 E30.78353
G0 F9000 X87.50 Y120.12
G1 F1800 X87.50 Y79.88 E34.29662
G0 F9000 X88.50 Y79.88
G1 F1800 X88.50 Y120.12 E37.80971
G0 F9000 X89.50 Y120.12
G1 F1800 X89.50 Y79.88 E41.32281
G0 F9000 X90.50 Y79.88
G1 F1800 X90.50 Y120.12 E44.83590
G0 F9000 X91.50 Y120.12
G1 F1800 X91.50 Y79.88 E48.34899
G0 F9000 X92.50 Y79.88
G1 F1800 X92.50 Y120.12 E51.86209
G0 F9000 X93.50 Y120.12
G1 F1800 X93.50 Y79.88 E55.37518
G0 F9000 X94.50 Y79.88
G1 F1800 X94.50 Y120.12 E58.88827
G0 F9000 X95.50 Y120.12
G1 F1800 X95.50 Y79.88 E62.40137
G0 F9000 X96.50 Y79.88
G1 F1800 X96.50 Y120.12 E65.91446
G0 F9000 X97.50 Y120.12
G1 F1800 X97.50 Y79.88 E69.42756
G0 F9000 X98.50 Y79.88
G1 F1800 X98.50 Y120.12 E72.94065
G0 F9000 X99.50 Y120.12
G1 F1800 X99.50 Y79.88 E76.45374
G0 F9000 X100.50 Y79.88
G1 F1800 X100.50 Y120.12 E79.96684
G0 F9000 X101.50 Y120.12
G1 F1800 X101.50 Y79.88 E83.47993
G0 F9000 X102.50 Y79.88
G1 F1800 X102.50 Y120.12 E86.99302
G0 F9000 X103.50 Y120.12
G1 F1800 X103.50 Y79.88 E90.50612
G0 F9000 X104.50 Y79.88
G1 F1800 X104.50 Y120.12 E94.01921
G0 F9000 X105.50 Y120.12
G1 F1800 X105.50 Y79.88 E97.53230
G0 F9000 X106.50 Y79.88
G1 F1800 X106.50 Y120.12 E101.04540
G0 F9000 X107.50 Y120.12
G1 F1800 X107.50 Y79.88 E104.55849
G0 F9000 X108.50 Y79.88
G1 F1800 X108.50 Y120.12 E108.07158
G0 F9000 X109.50 Y120.12
G1 F1800 X109.50 Y79.88 E111.58468
G0 F9000 X110.50 Y79.88
G1 F1800 X110.50 Y120.12 E115.09777
G0 F9000 X111.50 Y120.12
G1 F1800 X111.50 Y79.88 E118.61086
G0 F9000 X112.50 Y79.88
G1 F1800 X112.50 Y120.12 E122.12396
G0 F9000 X113.50 Y120.12
G1 F1800 X113.50 Y79.88 E125.63705
G0 F9000 X114.50 Y79.88
G1 F1800 X114.50 Y120.12 E129.15014
G0 F9000 X115.50 Y120.12
G1 F1800 X115.50 Y79.88 E132.66324
G0 F9000 X116.50 Y79.88
G1 F1800 X116.50 Y120.12 E136.17633
G0 F9000 X117.50 Y120.12
G1 F1800 X117.50 Y79.88 E139.68942
;LAYER:-1
;RAFT
G0 F9000 X117.88 Y80.50 Z0.50
;TYPE:SUPPORT
G1 F1800 X82.12 Y80.50 E140.28422
G0 F9000 X82.12 Y81.50
G1 F1800 X117.88 Y81.50 E140.87901
G0 F9000 X117.88 Y82.50
G1 F1800 X82.12 Y82.50 E141.47380
G0 F9000 X82.12 Y83.50
G1 F1800 X117.88 Y83.50 E142.06859
G0 F9000 X117.88 Y84.50
G1 F1800 X82.12 Y84.50 E142.66338
G0 F9000 X82.12 Y85.50
G1 F1800 X117.88 Y85.50 E143.25817
G0 F9000 X117.88 Y86.50
G1 F1800 X82.12 Y86.50 E143.85296
G0 F9000 X82.12 Y87.50
G1 F1800 X117.88 Y87.50 E144.44775
G0 F9000 X117.88 Y88.50
G1 F1800 X82.12 Y88.50 E145.04254
G0 F9000 X82.12 Y89.50
G1 F1800 X117.88 Y89.50 E145.63733
G0 F9000 X117.88 Y90.50
G1 F1800 X82.12 Y90.50 E146.23213
G0 F9000 X82.12 Y91.50
G1 F1800 X117.88 Y91.50 E146.82692
G0 F9000 X117.88 Y92.50
G1 F1800 X82.12 Y92.50 E147.42171
G0 F9000 X82.12 Y93.50
G1 F1800 X117.88 Y93.50 E148.01650
G0 F9000 X117.88 Y94.50
G1 F1800 X82.12 Y94.50 E148.61129
G0 F9000 X82.12 Y95.50
G1 F1800 X117.88 Y95.50 E149.20608
G0 F9000 X117.88 Y96.50
G1 F1800 X82.12 Y96.50 E149.80087
G0 F9000 X82.12 Y97.50
G1 F1800 X117.88 Y97.50 E150.39566
G0 F9000 X117.88 Y98.50
G1 F1800 X82.12 Y98.50 E150.99045
G0 F9000 X82.12 Y99.50
G1 F1800 X117.88 Y99.50 E151.58524
G0 F9000 X117.88 Y100.50
G1 F1800 X82.12 Y100.50 E152.18004
G0 F9000 X82.12 Y101.50
G1 F1800 X117.88 Y101.50 E152.77483
G0 F9000 X117.88 Y102.50
G1 F1800 X82.12 Y102.50 E153.36962
G0 F9000 X82.12 Y103.50
G1 F1800 X117.88 Y103.50 E153.96441
G0 F9000 X117.88 Y104.50
G1 F1800 X82.12 Y104.50 E154.55920
G0 F9000 X82.12 Y105.50
G1 F1800 X117.88 Y105.50 E155.15399
G0 F9000 X117.88 Y106.50
G1 F1800 X82.12 Y106.50 E155.74878
G0 F9000 X82.12 Y107.50
G1 F1800 X117.88 Y107.50 E156.34357
G0 F9000 X117.88 Y108.50
G1 F1800 X82.12 Y108.50 E156.93836
G0 F9000 X82.12 Y109.50
G1 F1800 X117.88 Y109.50 E157.53315
G0 F9000 X117.88 Y110.50
G1 F1800 X82.12 Y110.50 E158.12794
G0 F9000 X82.12 Y111.50
G1 F1800 X117.88 Y111.50 E158.72274
G0 F9000 X117.88 Y112.50
G1 F1800 X82.12 Y112.50 E159.31753
G0 F9000 X82.12 Y113.50
G1 F1800 X117.88 Y113.50 E159.91232
G0 F9000 X117.88 Y114.50
G1 F1800 X82.12 Y114.50 E160.50711
G0 F9000 X82.12 Y115.50
G1 F1800 X117.88 Y115.50 E161.10190
G0 F9000 X117.88 Y116.50
G1 F1800 X82.12 Y116.50 E161.69669
G0 F9000 X82.12 Y117.50
G1 F1800 X117.88 Y117.50 E162.29148
G0 F9000 X117.88 Y118.50
G1 F1800 X82.12 Y118.50 E162.88627
G0 F9000 X82.12 Y119.50
G1 F1800 X117.88 Y119.50 E163.48106
;LAYER:0
M107
G1 F1200 E160.98106
G0 F5400 X107.60 Y109.75 Z0.70
;TYPE:WALL-OUTER
G1 F1200 E163.48106
G1 F1800 X107.40 Y109.75 E163.48934
G1 X107.40 Y90.25 E164.30005
G1 X107.60 Y90.25 E164.30833
G1 X107.60 Y109.75 E165.11904
G1 F1200 E162.61904
G0 F5400 X101.75 Y109.25
;TYPE:WALL-INNER
G1 F1200 E165.11904
G1 F1800 X101.41 Y109.25 E165.13305
G1 X101.64 Y109.04 E165.14594
G1 X101.75 Y108.91 E165.15303
G1 X101.75 Y109.25 E165.16720
G0 F5400 X101.75 Y106.09
G1 F1800 X101.46 Y105.78 E165.18494
G1 X101.37 Y105.72 E165.18951
G1 X100.97 Y105.47 E165.20892
G1 X100.68 Y105.35 E165.22227
G1 X100.42 Y105.29 E165.23306
G1 X100.14 Y105.25 E165.24504
G1 X99.81 Y105.26 E165.25864
G1 X99.30 Y105.36 E165.28033
G1 X98.80 Y105.60 E165.30338
G1 X98.53 Y105.79 E165.31710
G1 X98.25 Y106.10 E165.33446
G1 X98.25 Y103.91 E165.42542
G1 X98.36 Y104.04 E165.43251
G1 X98.56 Y104.23 E165.44427
G1 X98.79 Y104.40 E165.45579
G1 X99.04 Y104.54 E165.46781
G1 X99.31 Y104.64 E165.47957
G1 X99.58 Y104.71 E165.49125
G1 X99.86 Y104.75 E165.50302
G1 X100.14 Y104.75 E165.51483
G1 X100.45 Y104.71 E165.52757
G1 X100.94 Y104.55 E165.54908
G1 X101.21 Y104.40 E165.56181
G1 X101.44 Y104.23 E165.57357
G1 X101.64 Y104.04 E165.58534
G1 X101.75 Y103.91 E165.59242
G1 X101.75 Y106.09 E165.68326
G1 F1200 E163.18326
G0 F5400 X98.59 Y109.25
G1 F1200 E165.68326
G1 F1800 X98.25 Y109.25 E165.69727
G1 X98.25 Y108.91 E165.71145
G1 X98.36 Y109.04 E165.71854
G1 X98.59 Y109.25 E165.73142
G0 F5400 X98.25 Y101.10
G1 F1800 X98.25 Y98.91 E165.82235
G1 X98.36 Y99.04 E165.82943
G1 X98.56 Y99.23 E165.84120
G1 X98.79 Y99.40 E165.85271
G1 X99.04 Y99.54 E165.86474
G1 X99.31 Y99.64 E165.87649
G1 X99.58 Y99.71 E165.88817
G1 X99.86 Y99.75 E165.89995
G1 X100.14 Y99.75 E165.91176
G1 X100.45 Y99.71 E165.92450
G1 X100.94 Y99.55 E165.94601
G1 X101.21 Y99.40 E165.95874
G1 X101.44 Y99.23 E165.97050
G1 X101.64 Y99.04 E165.98226
G1 X101.75 Y98.91 E165.98935
G1 X101.75 Y101.09 E166.08015
G1 X101.46 Y100.78 E166.09788
G1 X101.37 Y100.72 E166.10245
G1 X100.97 Y100.47 E166.12187
G1 X100.68 Y100.35 E166.13521
G1 X100.42 Y100.29 E166.14600
G1 X100.14 Y100.25 E166.15798
G1 X99.81 Y100.26 E166.17158
G1 X99.30 Y100.36 E166.19327
G1 X98.80 Y100.60 E166.21633
G1 X98.53 Y100.79 E166.23004
G1 X98.25 Y101.10 E166.24740
G1 F1200 E163.74740
G0 F5400 X98.25 Y96.10
G1 F1200 E166.24740
G1 F1800 X98.25 Y93.91 E166.33837
G1 X98.36 Y94.04 E166.34545
G1 X98.56 Y94.23 E166.35721
G1 X98.79 Y94.40 E166.36873
G1 X99.04 Y94.54 E166.38075
G1 X99.31 Y94.64 E166.39251
G1 X99.58 Y94.71 E166.40419
G1 X99.86 Y94.75 E166.41597
G1 X100.14 Y94.75 E166.42777
G1 X100.45 Y94.71 E166.44052
G1 X100.94 Y94.55 E166.46203
G1 X101.21 Y94.40 E166.47475
G1 X101.44 Y94.23 E166.48651
G1 X101.64 Y94.04 E166.49828
G1 X101.75 Y93.91 E166.50536
G1 X101.75 Y96.09 E166.59620
G1 X101.46 Y95.78 E166.61394
G1 X101.37 Y95.72 E166.61851
G1 X100.97 Y95.47 E166.63793
G1 X100.68 Y95.36 E166.65127
G1 X100.42 Y95.29 E166.66206
G1 X100.14 Y95.25 E166.67404
G1 X99.81 Y95.26 E166.68764
G1 X99.30 Y95.36 E166.70933
G1 X98.80 Y95.60 E166.73239
G1 X98.53 Y95.79 E166.74610
G1 X98.25 Y96.10 E166.76346
G1 F1200 E164.26346
G0 F5400 X101.75 Y91.09
G1 F1200 E166.76346
G1 F1800 X101.46 Y90.78 E166.78119
G1 X101.41 Y90.75 E166.78354
G1 X101.75 Y90.75 E166.79755
G1 X101.75 Y91.09 E166.81189
G0 F5400 X98.59 Y90.75
G1 F1800 X98.53 Y90.79 E166.81478
G1 X98.25 Y91.10 E166.83214
G1 X98.25 Y90.75 E166.84661
G1 X98.59 Y90.75 E166.86070
G0 F5400 X98.87 Y91.17
;TYPE:WALL-OUTER
G1 F1800 X98.58 Y91.48 E166.87847
G1 X98.38 Y91.85 E166.89594
G1 X98.31 Y92.06 E166.90538
G1 X98.26 Y92.28 E166.91452
G1 X98.25 Y92.50 E166.92369
G1 X98.26 Y92.71 E166.93252
G1 X98.31 Y92.94 E166.94200
G1 X98.38 Y93.15 E166.95149
G1 X98.58 Y93.52 E166.96904
G1 X98.72 Y93.70 E166.97849
G1 X98.88 Y93.85 E166.98763
G1 X99.04 Y93.96 E166.99555
G1 X99.06 Y93.98 E166.99672
G1 X99.25 Y94.08 E167.00595
G1 X99.46 Y94.17 E167.01510
G1 X99.67 Y94.22 E167.02420
G1 X99.89 Y94.25 E167.03334
G1 X100.11 Y94.25 E167.04249
G1 X100.34 Y94.22 E167.05196
G1 X100.74 Y94.09 E167.06954
G1 X100.94 Y93.98 E167.07899
G1 X101.12 Y93.85 E167.08816
G1 X101.28 Y93.70 E167.09731
G1 X101.42 Y93.53 E167.10643
G1 X101.54 Y93.34 E167.11589
G1 X101.69 Y92.94 E167.13346
G1 X101.74 Y92.72 E167.14291
G1 X101.75 Y92.49 E167.15249
G1 X101.74 Y92.26 E167.16199
G1 X101.62 Y91.84 E167.17997
G1 X101.42 Y91.47 E167.19774
G1 X101.12 Y91.16 E167.21559
G1 X100.75 Y90.92 E167.23403
G1 X100.33 Y90.78 E167.25244
G1 X100.11 Y90.75 E167.26166
G1 X99.86 Y90.75 E167.27193
G1 X99.46 Y90.83 E167.28905
G1 X99.06 Y91.03 E167.30754
G1 X98.87 Y91.17 E167.31729
G0 F5400 X97.75 Y90.25
G1 F1800 X102.25 Y90.25 E167.50438
G1 X102.25 Y109.75 E168.31510
G1 X97.75 Y109.75 E168.50218
G1 X97.75 Y90.25 E169.31290
G1 F1200 E166.81290
G0 F5400 X99.46 Y95.83
G1 F1200 E169.31290
G1 F1800 X99.06 Y96.03 E169.33138
G1 X98.87 Y96.17 E169.34114
G1 X98.58 Y96.48 E169.35891
G1 X98.38 Y96.85 E169.37638
G1 X98.31 Y97.06 E169.38582
G1 X98.26 Y97.28 E169.39500
G1 X98.25 Y97.50 E169.40413
G1 X98.26 Y97.71 E169.41291
G1 X98.31 Y97.94 E169.42244
G1 X98.38 Y98.15 E169.43193
G1 X98.58 Y98.52 E169.44947
G1 X98.72 Y98.70 E169.45892
G1 X98.88 Y98.85 E169.46807
G1 X99.04 Y98.96 E169.47599
G1 X99.06 Y98.98 E169.47715
G1 X99.25 Y99.08 E169.48638
G1 X99.46 Y99.17 E169.49553
G1 X99.67 Y99.22 E169.50464
G1 X99.89 Y99.25 E169.51377
G1 X100.11 Y99.25 E169.52292
G1 X100.34 Y99.22 E169.53239
G1 X100.74 Y99.09 E169.54997
G1 X100.94 Y98.98 E169.55943
G1 X101.12 Y98.85 E169.56860
G1 X101.28 Y98.70 E169.57775
G1 X101.42 Y98.53 E169.58687
G1 X101.54 Y98.34 E169.59633
G1 X101.69 Y97.94 E169.61389
G1 X101.74 Y97.72 E169.62338
G1 X101.75 Y97.49 E169.63292
G1 X101.74 Y97.26 E169.64238
G1 X101.62 Y96.84 E169.66040
G1 X101.42 Y96.47 E169.67817
G1 X101.12 Y96.16 E169.69603
G1 X100.75 Y95.92 E169.71447
G1 X100.33 Y95.78 E169.73287
G1 X100.11 Y95.75 E169.74209
G1 X99.86 Y95.75 E169.75236
G1 X99.46 Y95.83 E169.76949
G1 F1200 E167.26949
G0 F5400 X99.86 Y100.75
G1 F1200 E169.76949
G1 F1800 X99.46 Y100.83 E169.78661
G1 X99.06 Y101.03 E169.80509
G1 X98.87 Y101.17 E169.81485
G1 X98.58 Y101.48 E169.83262
G1 X98.38 Y101.85 E169.85009
G1 X98.31 Y102.06 E169.85953
G1 X98.26 Y102.28 E169.86871
G1 X98.25 Y102.50 E169.87788
G1 X98.26 Y102.71 E169.88662
G1 X98.31 Y102.94 E169.89615
G1 X98.38 Y103.15 E169.90564
G1 X98.58 Y103.52 E169.92318
G1 X98.72 Y103.70 E169.93263
G1 X98.88 Y103.85 E169.94178
G1 X99.04 Y103.96 E169.94970
G1 X99.06 Y103.98 E169.95086
G1 X99.25 Y104.08 E169.96009
G1 X99.46 Y104.16 E169.96924
G1 X99.67 Y104.22 E169.97835
G1 X99.89 Y104.25 E169.98749
G1 X100.11 Y104.25 E169.99663
G1 X100.34 Y104.22 E170.00610
G1 X100.74 Y104.09 E170.02368
G1 X100.94 Y103.98 E170.03314
G1 X101.12 Y103.85 E170.04231
G1 X101.28 Y103.70 E170.05146
G1 X101.42 Y103.53 E170.06058
G1 X101.54 Y103.34 E170.07004
G1 X101.69 Y102.94 E170.08760
G1 X101.74 Y102.72 E170.09709
G1 X101.75 Y102.49 E170.10659
G1 X101.74 Y102.26 E170.11609
G1 X101.62 Y101.84 E170.13411
G1 X101.42 Y101.47 E170.15188
G1 X101.12 Y101.16 E170.16974
G1 X100.75 Y100.92 E170.18818
G1 X100.33 Y100.78 E170.20658
G1 X100.11 Y100.75 E170.21581
G1 X99.86 Y100.75 E170.22607
G1 F1200 E167.72607
G0 F5400 X99.86 Y105.75
G1 F1200 E170.22607
G1 F1800 X99.46 Y105.83 E170.24320
G1 X99.06 Y106.03 E170.26168
G1 X98.87 Y106.17 E170.27144
G1 X98.58 Y106.48 E170.28921
G1 X98.38 Y106.85 E170.30668
G1 X98.31 Y107.06 E170.31612
G1 X98.26 Y107.28 E170.32526
G1 X98.25 Y107.50 E170.33447
G1 X98.26 Y107.71 E170.34325
G1 X98.31 Y107.94 E170.35274
G1 X98.38 Y108.15 E170.36223
G1 X98.58 Y108.52 E170.37977
G1 X98.72 Y108.70 E170.38922
G1 X98.88 Y108.85 E170.39837
G1 X99.04 Y108.96 E170.40629
G1 X99.06 Y108.98 E170.40745
G1 X99.25 Y109.08 E170.41668
G1 X99.46 Y109.16 E170.42583
G1 X99.67 Y109.22 E170.43494
G1 X99.89 Y109.25 E170.44407
G1 X100.11 Y109.25 E170.45322
G1 X100.34 Y109.22 E170.46269
G1 X100.74 Y109.09 E170.48027
G1 X100.94 Y108.98 E170.48973
G1 X101.12 Y108.85 E170.49890
G1 X101.28 Y108.70 E170.50804
G1 X101.42 Y108.53 E170.51717
G1 X101.54 Y108.34 E170.52663
G1 X101.69 Y107.94 E170.54419
G1 X101.74 Y107.72 E170.55364
G1 X101.75 Y107.49 E170.56318
G1 X101.74 Y107.26 E170.57272
G1 X101.62 Y106.84 E170.59070
G1 X101.42 Y106.47 E170.60848
G1 X101.12 Y106.16 E170.62633
G1 X100.75 Y105.92 E170.64477
G1 X100.33 Y105.78 E170.66318
G1 X100.11 Y105.75 E170.67240
G1 X99.86 Y105.75 E170.68267
G0 F5400 X99.79 Y105.09
;TYPE:FILL
G1 F2520 X99.57 Y104.88 E170.69513
G1 X100.04 Y104.99 E170.70756
G1 X100.55 Y105.15 E170.72266
G1 X100.30 Y104.89 E170.73780
G0 F5400 X100.86 Y104.75
G1 F2520 X101.58 Y105.47 E170.78054
G0 F5400 X101.58 Y105.47
G1 F2520 X100.86 Y104.75 E170.82329
G0 F5400 X101.33 Y104.51
G1 F2520 X101.58 Y104.77 E170.83822
G1 X101.33 Y104.51 E170.85316
G0 F5400 X99.20 Y105.22
G1 F2520 X98.43 Y104.44 E170.89893
G0 F5400 X98.43 Y104.44
G1 F2520 X99.20 Y105.22 E170.94470
G0 F5400 X98.73 Y105.44
G1 F2520 X98.41 Y105.13 E170.96316
G1 X98.73 Y105.44 E170.98163
G1 F1200 E168.48163
G0 F5400 X98.69 Y100.46
G1 F1200 E170.98163
G1 F2520 X98.42 Y100.18 E170.99812
G1 X98.69 Y100.46 E171.01461
G0 F5400 X99.17 Y100.23
G1 F2520 X98.42 Y99.47 E171.05909
G0 F5400 X98.42 Y99.47
G1 F2520 X99.17 Y100.23 E171.10357
G0 F5400 X99.51 Y99.87
G1 F2520 X99.74 Y100.10 E171.11721
G1 X99.88 Y99.88 E171.13083
G1 X100.49 Y100.13 E171.14446
G1 X100.25 Y99.90 E171.15813
G0 F5400 X100.82 Y99.76
G1 F2520 X101.58 Y100.52 E171.20302
G0 F5400 X101.58 Y100.52
G1 F2520 X100.82 Y99.76 E171.24791
G0 F5400 X101.30 Y99.53
G1 F2520 X101.58 Y99.82 E171.26449
G1 X101.30 Y99.53 E171.28107
G1 F1200 E168.78107
G0 F5400 X101.57 Y95.56
G1 F1200 E171.28107
G1 F2520 X100.78 Y94.77 E171.32737
G0 F5400 X100.78 Y94.77
G1 F2520 X101.57 Y95.56 E171.37367
G0 F5400 X101.58 Y94.87
G1 F2520 X101.27 Y94.55 E171.39208
G1 X101.58 Y94.87 E171.41048
G0 F5400 X100.43 Y95.12
G1 F2520 X100.21 Y94.91 E171.42318
G1 X100.06 Y95.11 E171.43587
G1 X99.45 Y94.85 E171.45097
G1 X99.70 Y95.11 E171.46614
G0 F5400 X99.14 Y95.25
G1 F2520 X98.41 Y94.53 E171.50871
G0 F5400 X98.41 Y94.53
G1 F2520 X99.14 Y95.25 E171.55128
G0 F5400 X98.67 Y95.49
G1 F2520 X98.41 Y95.23 E171.56621
G1 X98.67 Y95.49 E171.58114
G1 F1200 E169.08114
G0 F5400 X92.60 Y90.25
;TYPE:WALL-OUTER
G1 F1200 E171.58114
G1 F1800 X92.60 Y109.75 E172.39186
G1 X92.40 Y109.75 E172.40013
G1 X92.40 Y90.25 E173.21085
G1 X92.60 Y90.25 E173.21912
;LAYER:1
M106 S51
G0 F9000 X92.60 Y90.25 Z0.76
;TYPE:WALL-OUTER
G1 F2100 X92.60 Y109.75 E173.46234
G1 X92.40 Y109.75 E173.46482
G1 X92.40 Y90.25 E173.70803
