;Generated with Cura_SteamEngine 13.12
M140 S100.000000
M109 T0 S255.000000
T0
M190 S100.000000
;Sliced at: Sun 09-03-2014 21:16:20
;Basic settings: Layer height: 0.24 Walls: 1 Fill: 20
;Print time: #P_TIME#
;Filament used: #F_AMNT#m #F_WGHT#g
;Filament cost: #F_COST#
;M190 S100 ;Uncomment to add your own bed temperature line
;M109 S255 ;Uncomment to add your own temperature line
G21        ;metric values
G90        ;absolute positioning
M107       ;start with the fan off
G28 X0 Y0  ;move X/Y to min endstops
G28 Z0     ;move Z to min endstops
G1 Z15.0 F9000 ;move the platform down 15mm
G92 E0                  ;zero the extruded length
G1 F200 E3              ;extrude 3mm of feed stock
G92 E0                  ;zero the extruded length again
G1 F9000
;Put printing message on LCD screen
M117 Printing...

;Layer count: 42
;LAYER:0
M107
G0 F9000 X183.97 Y182.42 Z0.20
;TYPE:SKIRT
G1 F1200 E0.00000
G1 F3000 X184.63 Y181.80 E0.03791
G1 X185.37 Y181.26 E0.07581
G1 X186.17 Y180.82 E0.11373
G1 X187.02 Y180.49 E0.15164
G1 X187.90 Y180.26 E0.18945
G1 X188.81 Y180.15 E0.22734
G1 X189.72 Y180.15 E0.26525
G1 X190.62 Y180.26 E0.30310
G1 X191.50 Y180.49 E0.34095
G1 X192.35 Y180.82 E0.37882
G1 X193.15 Y181.26 E0.41675
G1 X193.89 Y181.80 E0.45464
G1 X194.55 Y182.42 E0.49249
G1 X195.13 Y183.12 E0.53038
G1 X195.62 Y183.89 E0.56828
G1 X196.01 Y184.71 E0.60605
G1 X196.29 Y185.58 E0.64397
G1 X196.46 Y186.48 E0.68189
G1 X196.52 Y187.39 E0.71980
G1 X196.46 Y188.30 E0.75792
G1 X196.29 Y189.20 E0.79579
G1 X196.00 Y190.07 E0.83378
G1 X195.61 Y190.89 E0.87161
G1 X195.12 Y191.66 E0.90942
G1 X194.54 Y192.36 E0.94731
G1 X193.88 Y192.98 E0.98513
G1 X193.14 Y193.51 E1.02300
G1 X192.34 Y193.95 E1.06088
G1 X191.50 Y194.29 E1.09849
G1 X190.62 Y194.51 E1.13634
G1 X189.72 Y194.63 E1.17418
G1 X188.80 Y194.63 E1.21243
G1 X187.89 Y194.51 E1.25041
G1 X187.01 Y194.28 E1.28820
G1 X186.17 Y193.95 E1.32601
G1 X185.37 Y193.51 E1.36397
G1 X184.63 Y192.97 E1.40188
G1 X183.97 Y192.34 E1.43976
G1 X183.39 Y191.64 E1.47763
G1 X182.90 Y190.88 E1.51534
G1 X182.51 Y190.06 E1.55302
G1 X182.23 Y189.18 E1.59112
G1 X182.06 Y188.29 E1.62871
G1 X182.01 Y187.39 E1.66658
G1 X182.06 Y186.48 E1.70444
G1 X182.24 Y185.58 E1.74237
G1 X182.52 Y184.72 E1.78022
G1 X182.90 Y183.89 E1.81813
G1 X183.39 Y183.12 E1.85596
G1 X183.97 Y182.42 E1.89376
G0 F9000 X184.34 Y182.76
G1 F3000 X184.96 Y182.18 E1.92905
G1 X185.64 Y181.68 E1.96429
G1 X186.39 Y181.27 E1.99965
G1 X187.18 Y180.96 E2.03492
G1 X188.00 Y180.75 E2.07011
G1 X188.84 Y180.65 E2.10536
G1 X189.69 Y180.65 E2.14070
G1 X190.53 Y180.75 E2.17591
G1 X191.35 Y180.96 E2.21118
G1 X192.14 Y181.28 E2.24643
G1 X192.88 Y181.68 E2.28173
G1 X193.57 Y182.18 E2.31697
G1 X194.18 Y182.76 E2.35220
G1 X194.72 Y183.42 E2.38746
G1 X195.18 Y184.13 E2.42276
G1 X195.54 Y184.90 E2.45795
G1 X195.80 Y185.71 E2.49324
G1 X195.96 Y186.54 E2.52850
G1 X196.01 Y187.39 E2.56383
G1 X195.96 Y188.24 E2.59932
G1 X195.80 Y189.07 E2.63457
G1 X195.54 Y189.88 E2.66993
G1 X195.17 Y190.65 E2.70515
G1 X194.72 Y191.36 E2.74035
G1 X194.18 Y192.01 E2.77564
G1 X193.56 Y192.59 E2.81085
G1 X192.87 Y193.09 E2.84609
G1 X192.13 Y193.50 E2.88137
G1 X191.35 Y193.81 E2.91634
G1 X190.53 Y194.02 E2.95161
G1 X189.69 Y194.13 E2.98682
G1 X188.83 Y194.13 E3.02245
G1 X187.99 Y194.02 E3.05778
G1 X187.17 Y193.81 E3.09295
G1 X186.38 Y193.49 E3.12821
G1 X185.63 Y193.08 E3.16350
G1 X184.95 Y192.58 E3.19882
G1 X184.33 Y192.00 E3.23409
G1 X183.79 Y191.35 E3.26933
G1 X183.34 Y190.63 E3.30448
G1 X182.98 Y189.87 E3.33954
G1 X182.72 Y189.06 E3.37501
G1 X182.56 Y188.23 E3.40998
G1 X182.51 Y187.39 E3.44522
G1 X182.56 Y186.54 E3.48050
G1 X182.72 Y185.71 E3.51577
G1 X182.98 Y184.90 E3.55100
G1 X183.34 Y184.13 E3.58628
G1 X183.80 Y183.42 E3.62155
G1 X184.34 Y182.76 E3.65672
G0 F9000 X184.70 Y183.11
G1 F3000 X185.27 Y182.57 E3.68937
G1 X185.91 Y182.11 E3.72203
G1 X186.60 Y181.73 E3.75472
G1 X187.33 Y181.44 E3.78736
G1 X188.09 Y181.24 E3.81998
G1 X188.87 Y181.15 E3.85263
G1 X189.65 Y181.15 E3.88531
G1 X190.43 Y181.24 E3.91792
G1 X191.19 Y181.44 E3.95058
G1 X191.92 Y181.73 E3.98318
G1 X192.61 Y182.11 E4.01587
G1 X193.25 Y182.57 E4.04853
G1 X193.82 Y183.11 E4.08115
G1 X194.32 Y183.71 E4.11381
G1 X194.74 Y184.37 E4.14646
G1 X195.07 Y185.08 E4.17902
G1 X195.32 Y185.83 E4.21169
G1 X195.46 Y186.60 E4.24437
G1 X195.51 Y187.39 E4.27707
G1 X195.46 Y188.18 E4.30994
G1 X195.32 Y188.95 E4.34257
G1 X195.07 Y189.69 E4.37527
G1 X194.74 Y190.40 E4.40789
G1 X194.31 Y191.07 E4.44049
G1 X193.81 Y191.67 E4.47315
G1 X193.24 Y192.21 E4.50577
G1 X192.60 Y192.67 E4.53843
G1 X191.92 Y193.04 E4.57104
G1 X191.19 Y193.33 E4.60342
G1 X190.43 Y193.53 E4.63608
G1 X189.65 Y193.63 E4.66869
G1 X188.86 Y193.63 E4.70166
G1 X188.08 Y193.53 E4.73435
G1 X187.32 Y193.33 E4.76694
G1 X186.59 Y193.04 E4.79956
G1 X185.90 Y192.66 E4.83225
G1 X185.27 Y192.20 E4.86493
G1 X184.70 Y191.66 E4.89757
G1 X184.20 Y191.05 E4.93018
G1 X183.78 Y190.39 E4.96278
G1 X183.45 Y189.69 E4.99521
G1 X183.20 Y188.93 E5.02807
G1 X183.06 Y188.17 E5.06046
G1 X183.01 Y187.39 E5.09307
G1 X183.06 Y186.60 E5.12573
G1 X183.21 Y185.83 E5.15841
G1 X183.45 Y185.08 E5.19101
G1 X183.78 Y184.37 E5.22369
G1 X184.20 Y183.71 E5.25631
G1 X184.70 Y183.11 E5.28891
G0 F9000 X185.07 Y183.45
G1 F3000 X185.59 Y182.95 E5.31894
G1 X186.18 Y182.53 E5.34895
G1 X186.81 Y182.18 E5.37903
G1 X187.48 Y181.91 E5.40908
G1 X188.18 Y181.74 E5.43908
G1 X188.90 Y181.65 E5.46913
G1 X189.62 Y181.65 E5.49915
G1 X190.34 Y181.74 E5.52915
G1 X191.04 Y181.91 E5.55919
G1 X191.71 Y182.18 E5.58920
G1 X192.34 Y182.53 E5.61929
G1 X192.93 Y182.95 E5.64929
G1 X193.45 Y183.45 E5.67932
G1 X193.91 Y184.01 E5.70935
G1 X194.30 Y184.62 E5.73939
G1 X194.61 Y185.27 E5.76939
G1 X194.83 Y185.96 E5.79943
G1 X194.97 Y186.66 E5.82947
G1 X195.01 Y187.39 E5.85951
G1 X194.97 Y188.11 E5.88980
G1 X194.83 Y188.82 E5.91980
G1 X194.60 Y189.51 E5.94987
G1 X194.30 Y190.16 E5.97989
G1 X193.91 Y190.77 E6.00987
G1 X193.45 Y191.33 E6.03993
G1 X192.92 Y191.82 E6.06990
G1 X192.34 Y192.25 E6.09997
G1 X191.70 Y192.59 E6.12998
G1 X191.04 Y192.86 E6.15976
G1 X190.34 Y193.04 E6.18980
G1 X189.62 Y193.13 E6.21981
G1 X188.89 Y193.13 E6.25012
G1 X188.18 Y193.03 E6.28017
G1 X187.48 Y192.85 E6.31015
G1 X186.81 Y192.59 E6.34016
G1 X186.17 Y192.24 E6.37025
G1 X185.59 Y191.81 E6.40030
G1 X185.06 Y191.32 E6.43033
G1 X184.60 Y190.76 E6.46034
G1 X184.22 Y190.15 E6.49032
G1 X183.91 Y189.50 E6.52013
G1 X183.69 Y188.81 E6.55037
G1 X183.55 Y188.11 E6.58017
G1 X183.51 Y187.39 E6.61016
G1 X183.55 Y186.66 E6.64019
G1 X183.69 Y185.96 E6.67025
G1 X183.91 Y185.27 E6.70028
G1 X184.22 Y184.62 E6.73029
G1 X184.61 Y184.01 E6.76033
G1 X185.07 Y183.45 E6.79033
G0 F9000 X185.43 Y183.79
G1 F3000 X185.91 Y183.34 E6.81774
G1 X186.45 Y182.95 E6.84516
G1 X187.03 Y182.63 E6.87261
G1 X187.64 Y182.39 E6.90004
G1 X188.28 Y182.23 E6.92743
G1 X188.93 Y182.15 E6.95484
G1 X189.59 Y182.15 E6.98228
G1 X190.24 Y182.23 E7.00965
G1 X190.88 Y182.39 E7.03707
G1 X191.50 Y182.63 E7.06447
G1 X192.07 Y182.95 E7.09192
G1 X192.61 Y183.34 E7.11934
G1 X193.09 Y183.79 E7.14675
G1 X193.51 Y184.30 E7.17418
G1 X193.86 Y184.86 E7.20156
G1 X194.14 Y185.45 E7.22898
G1 X194.35 Y186.08 E7.25640
G1 X194.47 Y186.73 E7.28382
G1 X194.51 Y187.39 E7.31124
G1 X194.47 Y188.05 E7.33890
G1 X194.35 Y188.70 E7.36628
G1 X194.14 Y189.32 E7.39371
G1 X193.86 Y189.92 E7.42113
G1 X193.50 Y190.47 E7.44850
G1 X193.08 Y190.98 E7.47596
G1 X192.60 Y191.43 E7.50331
G1 X192.07 Y191.82 E7.53075
G1 X191.49 Y192.14 E7.55816
G1 X190.88 Y192.38 E7.58534
G1 X190.24 Y192.54 E7.61277
G1 X189.59 Y192.63 E7.64013
G1 X188.93 Y192.63 E7.66782
G1 X188.27 Y192.54 E7.69523
G1 X187.63 Y192.38 E7.72263
G1 X187.02 Y192.13 E7.75005
G1 X186.44 Y191.82 E7.77749
G1 X185.91 Y191.43 E7.80490
G1 X185.43 Y190.97 E7.83232
G1 X185.01 Y190.47 E7.85972
G1 X184.66 Y189.91 E7.88711
G1 X184.38 Y189.32 E7.91430
G1 X184.17 Y188.69 E7.94196
G1 X184.05 Y188.04 E7.96914
G1 X184.01 Y187.39 E7.99650
G1 X184.05 Y186.73 E8.02391
G1 X184.18 Y186.08 E8.05134
G1 X184.38 Y185.45 E8.07875
G1 X184.66 Y184.86 E8.10618
G1 X185.01 Y184.30 E8.13356
G1 X185.43 Y183.79 E8.16097
G0 F9000 X187.03 Y185.30
G1 F3000 X186.79 Y185.60 E8.17698
G1 X186.59 Y185.91 E8.19247
G1 X186.42 Y186.27 E8.20861
G1 X186.31 Y186.63 E8.22435
G1 X186.24 Y187.00 E8.24021
G1 X186.21 Y187.38 E8.25609
G1 X186.24 Y187.77 E8.27225
G1 X186.31 Y188.15 E8.28812
G1 X186.43 Y188.51 E8.30398
G1 X186.59 Y188.85 E8.31994
G1 X186.79 Y189.17 E8.33558
G1 X187.04 Y189.48 E8.35189
G1 X187.31 Y189.73 E8.36745
G1 X187.63 Y189.96 E8.38364
G1 X187.96 Y190.15 E8.39956
G1 X188.32 Y190.29 E8.41541
G1 X188.69 Y190.38 E8.43133
G1 X189.07 Y190.43 E8.44725
G1 X189.45 Y190.43 E8.46326
G1 X189.83 Y190.38 E8.47918
G1 X190.20 Y190.29 E8.49512
G1 X190.56 Y190.15 E8.51098
G1 X190.89 Y189.96 E8.52687
G1 X191.21 Y189.74 E8.54285
G1 X191.48 Y189.48 E8.55847
G1 X191.73 Y189.18 E8.57466
G1 X191.93 Y188.86 E8.59035
G1 X192.10 Y188.51 E8.60651
G1 X192.21 Y188.15 E8.62234
G1 X192.29 Y187.77 E8.63834
G1 X192.31 Y187.38 E8.65442
G1 X192.29 Y186.99 E8.67083
G1 X192.22 Y186.63 E8.68604
G1 X192.10 Y186.26 E8.70217
G1 X191.93 Y185.91 E8.71815
G1 X191.72 Y185.59 E8.73405
G1 X191.48 Y185.29 E8.74999
G1 X191.20 Y185.03 E8.76585
G1 X190.89 Y184.81 E8.78181
G1 X190.56 Y184.63 E8.79770
G1 X190.20 Y184.49 E8.81356
G1 X189.83 Y184.39 E8.82936
G1 X189.45 Y184.34 E8.84529
G1 X189.07 Y184.34 E8.86142
G1 X188.68 Y184.39 E8.87743
G1 X188.31 Y184.49 E8.89327
G1 X187.96 Y184.63 E8.90908
G1 X187.62 Y184.81 E8.92506
G1 X187.32 Y185.04 E8.94080
G1 X187.03 Y185.30 E8.95704
G0 F9000 X186.30 Y184.62
;TYPE:WALL-INNER
G1 F3000 X185.98 Y185.01 E8.97812
G1 X185.71 Y185.44 E8.99924
G1 X185.49 Y185.90 E9.02039
G1 X185.34 Y186.38 E9.04145
G1 X185.24 Y186.88 E9.06257
G1 X185.21 Y187.39 E9.08373
G1 X185.24 Y187.89 E9.10484
G1 X185.34 Y188.39 E9.12596
G1 X185.49 Y188.88 E9.14716
G1 X185.71 Y189.34 E9.16832
G1 X185.98 Y189.76 E9.18921
G1 X186.31 Y190.16 E9.21062
G1 X186.67 Y190.50 E9.23156
G1 X187.09 Y190.81 E9.25296
G1 X187.54 Y191.05 E9.27409
G1 X188.01 Y191.24 E9.29522
G1 X188.50 Y191.37 E9.31637
G1 X189.01 Y191.43 E9.33754
G1 X189.51 Y191.43 E9.35870
G1 X190.02 Y191.37 E9.37986
G1 X190.51 Y191.24 E9.40098
G1 X190.99 Y191.05 E9.42218
G1 X191.43 Y190.81 E9.44331
G1 X191.84 Y190.51 E9.46447
G1 X192.21 Y190.16 E9.48535
G1 X192.54 Y189.77 E9.50675
G1 X192.81 Y189.34 E9.52767
G1 X193.03 Y188.88 E9.54901
G1 X193.19 Y188.39 E9.57022
G1 X193.28 Y187.89 E9.59139
G1 X193.31 Y187.38 E9.61267
G1 X193.28 Y186.87 E9.63392
G1 X193.18 Y186.37 E9.65501
G1 X193.03 Y185.89 E9.67617
G1 X192.81 Y185.43 E9.69733
G1 X192.54 Y185.00 E9.71851
G1 X192.21 Y184.61 E9.73961
G1 X191.84 Y184.26 E9.76073
G1 X191.43 Y183.96 E9.78189
G1 X190.98 Y183.72 E9.80303
G1 X190.51 Y183.53 E9.82423
G1 X190.02 Y183.41 E9.84517
G1 X189.51 Y183.34 E9.86634
G1 X189.00 Y183.34 E9.88771
G1 X188.50 Y183.41 E9.90888
G1 X188.01 Y183.53 E9.92996
G1 X187.53 Y183.72 E9.95107
G1 X187.09 Y183.97 E9.97228
G1 X186.67 Y184.27 E9.99350
G1 X186.30 Y184.62 E10.01465
G0 F9000 X186.16 Y184.48
G1 F3000 X186.55 Y184.11 E10.03662
G1 X186.99 Y183.80 E10.05912
G1 X187.45 Y183.54 E10.08113
G1 X187.95 Y183.34 E10.10336
G1 X188.46 Y183.21 E10.12533
G1 X188.99 Y183.15 E10.14767
G1 X189.53 Y183.15 E10.16987
G1 X190.05 Y183.21 E10.19184
G1 X190.58 Y183.35 E10.21449
G1 X191.07 Y183.54 E10.23637
G1 X191.53 Y183.80 E10.25838
G1 X191.97 Y184.11 E10.28088
G1 X192.36 Y184.48 E10.30285
G1 X192.70 Y184.89 E10.32520
G1 X192.98 Y185.34 E10.34716
G1 X193.21 Y185.82 E10.36954
G1 X193.38 Y186.33 E10.39166
G1 X193.48 Y186.86 E10.41405
G1 X193.51 Y187.38 E10.43588
G1 X193.47 Y187.92 E10.45825
G1 X193.38 Y188.44 E10.48047
G1 X193.21 Y188.96 E10.50295
G1 X192.98 Y189.43 E10.52471
G1 X192.69 Y189.89 E10.54721
G1 X192.35 Y190.30 E10.56936
G1 X191.97 Y190.66 E10.59136
G1 X191.53 Y190.98 E10.61375
G1 X191.06 Y191.23 E10.63598
G1 X190.58 Y191.42 E10.65754
G1 X190.05 Y191.56 E10.68019
G1 X189.53 Y191.63 E10.70216
G1 X188.99 Y191.63 E10.72453
G1 X188.46 Y191.56 E10.74678
G1 X187.94 Y191.43 E10.76886
G1 X187.44 Y191.23 E10.79123
G1 X186.98 Y190.97 E10.81318
G1 X186.55 Y190.66 E10.83553
G1 X186.16 Y190.29 E10.85773
G1 X185.82 Y189.88 E10.87971
G1 X185.54 Y189.43 E10.90195
G1 X185.31 Y188.95 E10.92391
G1 X185.15 Y188.44 E10.94642
G1 X185.05 Y187.92 E10.96830
G1 X185.01 Y187.38 E10.99067
G1 X185.05 Y186.85 E11.01275
G1 X185.15 Y186.32 E11.03506
G1 X185.31 Y185.82 E11.05692
G1 X185.54 Y185.34 E11.07934
G1 X185.82 Y184.89 E11.10135
G1 X186.16 Y184.48 E11.12368
G0 F9000 X185.80 Y184.13
;TYPE:WALL-OUTER
G1 F3000 X186.23 Y183.73 E11.14833
G1 X186.72 Y183.38 E11.17318
G1 X187.24 Y183.09 E11.19804
G1 X187.79 Y182.87 E11.22268
G1 X188.37 Y182.72 E11.24753
G1 X188.96 Y182.65 E11.27234
G1 X189.56 Y182.65 E11.29720
G1 X190.15 Y182.72 E11.32197
G1 X190.73 Y182.87 E11.34687
G1 X191.28 Y183.09 E11.37147
G1 X191.81 Y183.38 E11.39633
G1 X192.29 Y183.73 E11.42118
G1 X192.72 Y184.13 E11.44583
G1 X193.10 Y184.60 E11.47081
G1 X193.42 Y185.10 E11.49567
G1 X193.67 Y185.63 E11.52007
G1 X193.86 Y186.21 E11.54517
G1 X193.97 Y186.80 E11.57026
G1 X194.01 Y187.38 E11.59459
G1 X193.97 Y187.98 E11.61946
G1 X193.86 Y188.57 E11.64451
G1 X193.67 Y189.14 E11.66945
G1 X193.42 Y189.68 E11.69419
G1 X193.10 Y190.18 E11.71888
G1 X192.72 Y190.64 E11.74383
G1 X192.28 Y191.05 E11.76851
G1 X191.80 Y191.40 E11.79336
G1 X191.28 Y191.69 E11.81817
G1 X190.73 Y191.90 E11.84258
G1 X190.15 Y192.05 E11.86747
G1 X189.56 Y192.13 E11.89224
G1 X188.96 Y192.13 E11.91731
G1 X188.37 Y192.05 E11.94213
G1 X187.79 Y191.90 E11.96703
G1 X187.23 Y191.68 E11.99178
G1 X186.71 Y191.39 E12.01651
G1 X186.23 Y191.04 E12.04147
G1 X185.80 Y190.63 E12.06597
G1 X185.41 Y190.17 E12.09096
G1 X185.10 Y189.67 E12.11581
G1 X184.85 Y189.14 E12.14008
G1 X184.66 Y188.56 E12.16520
G1 X184.55 Y187.98 E12.18984
G1 X184.51 Y187.38 E12.21479
G1 X184.55 Y186.79 E12.23945
G1 X184.66 Y186.20 E12.26433
G1 X184.85 Y185.63 E12.28921
G1 X185.10 Y185.10 E12.31370
G1 X185.42 Y184.60 E12.33858
G1 X185.80 Y184.13 E12.36354
G0 F9000 X186.67 Y184.96
G1 F3000 X186.39 Y185.30 E12.38205
G1 X186.15 Y185.68 E12.40055
G1 X185.96 Y186.08 E12.41911
G1 X185.82 Y186.50 E12.43752
G1 X185.74 Y186.94 E12.45605
G1 X185.71 Y187.39 E12.47459
G1 X185.74 Y187.83 E12.49308
G1 X185.82 Y188.27 E12.51162
G1 X185.96 Y188.69 E12.53015
G1 X186.15 Y189.10 E12.54873
G1 X186.38 Y189.47 E12.56703
G1 X186.67 Y189.82 E12.58578
G1 X186.99 Y190.12 E12.60410
G1 X187.36 Y190.38 E12.62288
G1 X187.75 Y190.60 E12.64141
G1 X188.16 Y190.76 E12.65992
G1 X188.60 Y190.87 E12.67847
G1 X189.04 Y190.93 E12.69699
G1 X189.48 Y190.93 E12.71558
G1 X189.93 Y190.87 E12.73410
G1 X190.36 Y190.76 E12.75260
G1 X190.77 Y190.60 E12.77119
G1 X191.16 Y190.38 E12.78969
G1 X191.52 Y190.12 E12.80826
G1 X191.84 Y189.82 E12.82652
G1 X192.13 Y189.47 E12.84533
G1 X192.37 Y189.10 E12.86362
G1 X192.56 Y188.69 E12.88237
G1 X192.70 Y188.27 E12.90095
G1 X192.78 Y187.83 E12.91949
G1 X192.81 Y187.38 E12.93815
G1 X192.78 Y186.94 E12.95673
G1 X192.70 Y186.50 E12.97523
G1 X192.56 Y186.07 E12.99376
G1 X192.37 Y185.67 E13.01232
G1 X192.13 Y185.29 E13.03088
G1 X191.85 Y184.95 E13.04939
G1 X191.52 Y184.65 E13.06789
G1 X191.16 Y184.39 E13.08643
G1 X190.77 Y184.17 E13.10496
G1 X190.35 Y184.01 E13.12355
G1 X189.93 Y183.90 E13.14188
G1 X189.48 Y183.84 E13.16041
G1 X189.03 Y183.84 E13.17916
G1 X188.59 Y183.90 E13.19769
G1 X188.16 Y184.01 E13.21619
G1 X187.75 Y184.17 E13.23470
G1 X187.35 Y184.39 E13.25327
G1 X186.99 Y184.65 E13.27182
G1 X186.67 Y184.96 E13.29038
;LAYER:1
M106 S127
G0 F9000 X186.30 Y184.62 Z0.44
;TYPE:WALL-INNER
G1 F3000 X185.98 Y185.01 E13.31507
G1 X185.70 Y185.45 E13.34119
G1 X185.49 Y185.91 E13.36661
G1 X185.33 Y186.39 E13.39191
G1 X185.24 Y186.88 E13.41654
G1 X185.21 Y187.39 E13.44194
G1 X185.24 Y187.89 E13.46728
G1 X185.34 Y188.39 E13.49262
G1 X185.49 Y188.88 E13.51805
G1 X185.71 Y189.34 E13.54345
G1 X185.98 Y189.77 E13.56879
G1 X186.31 Y190.16 E13.59420
G1 X186.68 Y190.51 E13.61958
G1 X187.09 Y190.81 E13.64501
G1 X187.54 Y191.05 E13.67037
G1 X188.01 Y191.24 E13.69572
G1 X188.50 Y191.37 E13.72110
G1 X189.01 Y191.43 E13.74650
G1 X189.51 Y191.43 E13.77189
