;Generated with Cura_SteamEngine 13.12
M140 S100.000000
M109 T0 S255.000000
T0
M190 S100.000000
;Sliced at: Mon 10-03-2014 01:17:36
;Basic settings: Layer height: 0.2 Walls: 1 Fill: 20
;Print time: #P_TIME#
;Filament used: #F_AMNT#m #F_WGHT#g
;Filament cost: #F_COST#
;M190 S100 ;Uncomment to add your own bed temperature line
;M109 S255 ;Uncomment to add your own temperature line
G21        ;metric values
G90        ;absolute positioning
M107       ;start with the fan off
G28 X0 Y0  ;move X/Y to min endstops
G28 Z0     ;move Z to min endstops
G1 Z15.0 F9000 ;move the platform down 15mm
G92 E0                  ;zero the extruded length
G1 F200 E3              ;extrude 3mm of feed stock
G92 E0                  ;zero the extruded length again
G1 F9000
;Put printing message on LCD screen
M117 Printing...

;Layer count: 100
;LAYER:0
M107
G0 F9000 X120.02 Y110.28 Z0.20
;TYPE:SKIRT
G1 F1200 E0.00000
G1 F3000 X194.52 Y110.28 E3.09735
G1 X194.52 Y194.78 E6.61045
G1 X120.02 Y194.78 E9.70780
G1 X120.02 Y110.28 E13.22090
G0 F9000 X120.52 Y110.78
G1 F3000 X194.02 Y110.78 E16.27668
G1 X194.02 Y194.28 E19.74821
G1 X120.52 Y194.28 E22.80398
G1 X120.52 Y110.78 E26.27551
G0 F9000 X121.02 Y111.28
G1 F3000 X193.52 Y111.28 E29.28971
G1 X193.52 Y193.78 E32.71966
G1 X121.02 Y193.78 E35.73386
G1 X121.02 Y111.28 E39.16381
G0 F9000 X121.52 Y111.78
G1 F3000 X193.02 Y111.78 E42.13643
G1 X193.02 Y127.28 E42.78085
G1 X170.76 Y127.28 E43.70631
G1 X170.82 Y126.33 E43.74594
G1 X170.78 Y125.83 E43.76681
G1 X170.65 Y125.33 E43.78844
G1 X170.44 Y124.85 E43.80992
G1 X170.16 Y124.40 E43.83236
G1 X169.79 Y123.96 E43.85604
G1 X169.35 Y123.57 E43.88057
G1 X168.83 Y123.22 E43.90640
G1 X168.26 Y122.93 E43.93294
G1 X167.63 Y122.69 E43.96116
G1 X166.96 Y122.51 E43.98995
G1 X166.25 Y122.41 E44.01980
G1 X165.54 Y122.37 E44.04956
G1 X164.81 Y122.41 E44.07970
G1 X164.08 Y122.52 E44.11038
G1 X163.38 Y122.69 E44.14030
G1 X162.71 Y122.93 E44.17015
G1 X162.08 Y123.24 E44.19918
G1 X161.49 Y123.60 E44.22783
G1 X160.98 Y124.00 E44.25489
G1 X160.54 Y124.44 E44.28064
G1 X160.17 Y124.93 E44.30602
G1 X159.89 Y125.41 E44.32936
G1 X159.69 Y125.93 E44.35254
G1 X159.57 Y126.43 E44.37393
G1 X159.50 Y127.28 E44.40945
G1 X121.52 Y127.28 E45.98860
G1 X121.52 Y111.78 E46.63302
G0 F9000 X122.02 Y112.28
G1 F3000 X192.52 Y112.28 E49.56406
G1 X192.52 Y126.78 E50.16690
G1 X171.29 Y126.78 E51.04938
G1 X171.33 Y126.33 E51.06842
G1 X171.27 Y125.74 E51.09276
G1 X171.13 Y125.17 E51.11749
G1 X170.89 Y124.62 E51.14212
G1 X170.56 Y124.09 E51.16811
G1 X170.15 Y123.61 E51.19424
G1 X169.66 Y123.18 E51.22169
G1 X169.09 Y122.79 E51.25018
G1 X168.46 Y122.47 E51.27943
G1 X167.78 Y122.21 E51.30961
G1 X167.06 Y122.02 E51.34088
G1 X166.31 Y121.91 E51.37225
G1 X165.54 Y121.87 E51.40451
G1 X164.75 Y121.91 E51.43702
G1 X163.99 Y122.03 E51.46930
G1 X163.24 Y122.21 E51.50149
G1 X162.51 Y122.47 E51.53337
G1 X161.84 Y122.79 E51.56429
G1 X161.20 Y123.19 E51.59554
G1 X160.65 Y123.63 E51.62497
G1 X160.16 Y124.11 E51.65355
G1 X159.76 Y124.64 E51.68118
G1 X159.44 Y125.19 E51.70774
G1 X159.21 Y125.78 E51.73370
G1 X159.07 Y126.36 E51.75854
G1 X159.04 Y126.78 E51.77626
G1 X122.02 Y126.78 E53.31533
G1 X122.02 Y112.28 E53.91817
G0 F9000 X121.52 Y127.78
G1 F3000 X159.63 Y127.78 E55.50243
G1 X159.91 Y128.43 E55.53181
G1 X160.19 Y128.88 E55.55414
G1 X160.56 Y129.31 E55.57747
G1 X161.01 Y129.71 E55.60227
G1 X161.51 Y130.06 E55.62781
G1 X162.09 Y130.35 E55.65477
G1 X162.72 Y130.59 E55.68265
G1 X163.39 Y130.77 E55.71166
G1 X164.10 Y130.88 E55.74139
G1 X164.82 Y130.91 E55.77128
G1 X165.55 Y130.87 E55.80196
G1 X166.28 Y130.77 E55.83251
G1 X166.98 Y130.59 E55.86266
G1 X167.65 Y130.35 E55.89223
G1 X168.28 Y130.04 E55.92133
G1 X168.86 Y129.68 E55.94967
G1 X169.38 Y129.28 E55.97696
G1 X169.82 Y128.83 E56.00295
G1 X170.19 Y128.35 E56.02822
G1 X170.51 Y127.78 E56.05552
G1 X193.02 Y127.78 E56.99129
G1 X193.02 Y152.28 E58.00988
G1 X164.52 Y152.28 E59.19481
G1 X164.33 Y150.80 E59.25699
G1 X164.04 Y149.69 E59.30488
G1 X163.59 Y148.60 E59.35366
G1 X163.02 Y147.58 E59.40223
G1 X162.32 Y146.65 E59.45054
G1 X161.50 Y145.80 E59.49979
G1 X160.58 Y145.06 E59.54885
G1 X159.57 Y144.43 E59.59817
G1 X158.49 Y143.93 E59.64784
G1 X157.35 Y143.57 E59.69735
G1 X156.19 Y143.36 E59.74669
G1 X154.99 Y143.28 E59.79672
G1 X153.78 Y143.36 E59.84699
G1 X152.61 Y143.57 E59.89625
G1 X151.47 Y143.94 E59.94625
G1 X150.40 Y144.43 E59.99521
G1 X149.38 Y145.06 E60.04489
G1 X148.46 Y145.80 E60.09391
G1 X147.65 Y146.65 E60.14287
G1 X146.95 Y147.59 E60.19148
G1 X146.37 Y148.61 E60.24014
G1 X145.93 Y149.69 E60.28865
G1 X145.64 Y150.80 E60.33658
G1 X145.45 Y152.28 E60.39862
G1 X121.52 Y152.28 E61.39351
G1 X121.52 Y127.78 E62.41210
G0 F9000 X122.02 Y128.28
G1 F3000 X159.30 Y128.28 E63.96198
G1 X159.47 Y128.66 E63.97924
G1 X159.79 Y129.18 E64.00468
G1 X160.20 Y129.66 E64.03093
G1 X160.70 Y130.10 E64.05858
G1 X161.26 Y130.48 E64.08665
G1 X161.88 Y130.81 E64.11601
G1 X162.57 Y131.07 E64.14652
G1 X163.29 Y131.26 E64.17759
G1 X164.04 Y131.37 E64.20896
G1 X164.82 Y131.41 E64.24134
G1 X165.61 Y131.37 E64.27440
G1 X166.38 Y131.26 E64.30667
G1 X167.12 Y131.07 E64.33870
G1 X167.85 Y130.81 E64.37098
G1 X168.52 Y130.48 E64.40175
G1 X169.15 Y130.10 E64.43228
G1 X169.71 Y129.65 E64.46223
G1 X170.19 Y129.16 E64.49081
G1 X170.60 Y128.63 E64.51886
G1 X170.80 Y128.28 E64.53540
G1 X192.52 Y128.28 E65.43833
G1 X192.52 Y151.78 E66.41535
G1 X164.96 Y151.78 E67.56124
G1 X164.82 Y150.71 E67.60627
G1 X164.51 Y149.52 E67.65729
G1 X164.04 Y148.38 E67.70837
G1 X163.44 Y147.31 E67.75985
G1 X162.71 Y146.33 E67.81059
G1 X161.84 Y145.43 E67.86249
G1 X160.87 Y144.65 E67.91412
G1 X159.80 Y143.99 E67.96643
G1 X158.67 Y143.47 E68.01820
G1 X157.48 Y143.09 E68.07010
G1 X156.24 Y142.86 E68.12253
G1 X154.99 Y142.78 E68.17489
G1 X153.72 Y142.86 E68.22754
G1 X152.48 Y143.09 E68.27985
G1 X151.29 Y143.47 E68.33193
G1 X150.16 Y143.99 E68.38363
G1 X149.09 Y144.65 E68.43593
G1 X148.12 Y145.43 E68.48779
G1 X147.27 Y146.32 E68.53893
G1 X146.53 Y147.31 E68.59016
G1 X145.92 Y148.39 E68.64165
G1 X145.46 Y149.53 E68.69275
G1 X145.15 Y150.71 E68.74369
G1 X145.01 Y151.78 E68.78854
G1 X122.02 Y151.78 E69.74435
G1 X122.02 Y128.28 E70.72137
G0 F9000 X121.52 Y152.78
G1 F3000 X145.45 Y152.78 E71.71614
G1 X145.64 Y154.27 E71.77837
G1 X145.94 Y155.38 E71.82642
G1 X146.38 Y156.47 E71.87519
G1 X146.95 Y157.48 E71.92359
G1 X147.65 Y158.42 E71.97227
G1 X148.47 Y159.27 E72.02132
G1 X149.39 Y160.01 E72.07031
G1 X150.40 Y160.63 E72.11952
G1 X151.48 Y161.13 E72.16916
G1 X152.62 Y161.49 E72.21891
G1 X153.79 Y161.71 E72.26804
G1 X154.99 Y161.78 E72.31807
G1 X156.19 Y161.71 E72.36805
G1 X157.35 Y161.49 E72.41740
G1 X158.49 Y161.13 E72.46690
G1 X159.57 Y160.63 E72.51657
G1 X160.58 Y160.01 E72.56589
G1 X161.50 Y159.27 E72.61498
G1 X162.32 Y158.41 E72.66420
G1 X163.02 Y157.48 E72.71251
G1 X163.59 Y156.47 E72.76108
G1 X164.04 Y155.38 E72.80986
G1 X164.33 Y154.27 E72.85771
G1 X164.52 Y152.79 E72.91972
G1 X193.02 Y152.78 E74.10465
G1 X193.02 Y177.28 E75.12324
G1 X170.52 Y177.28 E76.05885
G1 X170.18 Y176.71 E76.08650
G1 X169.81 Y176.22 E76.11182
G1 X169.38 Y175.79 E76.13757
G1 X168.86 Y175.38 E76.16478
G1 X168.28 Y175.02 E76.19331
G1 X167.66 Y174.72 E76.22189
G1 X166.98 Y174.47 E76.25207
G1 X166.28 Y174.30 E76.28200
G1 X165.55 Y174.19 E76.31256
G1 X164.82 Y174.15 E76.34282
G1 X164.10 Y174.19 E76.37304
G1 X163.39 Y174.30 E76.40277
G1 X162.71 Y174.47 E76.43195
G1 X162.10 Y174.71 E76.45933
G1 X161.51 Y175.01 E76.48678
G1 X161.01 Y175.36 E76.51215
G1 X160.56 Y175.75 E76.53695
G1 X160.20 Y176.17 E76.56001
G1 X159.91 Y176.64 E76.58284
G1 X159.63 Y177.28 E76.61199
G1 X121.52 Y177.28 E78.19630
G1 X121.52 Y152.78 E79.21489
G0 F9000 X122.02 Y153.28
G1 F3000 X145.01 Y153.28 E80.17062
G1 X145.15 Y154.36 E80.21570
G1 X145.46 Y155.55 E80.26690
G1 X145.93 Y156.69 E80.31799
G1 X146.53 Y157.76 E80.36926
G1 X147.27 Y158.75 E80.42042
G1 X148.13 Y159.64 E80.47208
G1 X149.10 Y160.42 E80.52370
G1 X150.17 Y161.08 E80.57584
G1 X151.30 Y161.60 E80.62762
G1 X152.49 Y161.97 E80.67972
G1 X153.73 Y162.20 E80.73194
G1 X154.99 Y162.28 E80.78430
G1 X156.24 Y162.20 E80.83662
G1 X157.48 Y161.97 E80.88905
G1 X158.67 Y161.60 E80.94095
G1 X159.80 Y161.08 E80.99272
G1 X160.87 Y160.42 E81.04500
G1 X161.84 Y159.64 E81.09668
G1 X162.71 Y158.74 E81.14867
G1 X163.44 Y157.76 E81.19930
G1 X164.04 Y156.68 E81.25077
G1 X164.51 Y155.54 E81.30185
G1 X164.82 Y154.36 E81.35288
G1 X164.96 Y153.29 E81.39770
G1 X192.52 Y153.28 E82.54359
G1 X192.52 Y176.78 E83.52061
G1 X170.81 Y176.78 E84.42345
G1 X170.60 Y176.43 E84.44055
G1 X170.19 Y175.90 E84.46824
G1 X169.71 Y175.41 E84.49682
G1 X169.15 Y174.97 E84.52657
G1 X168.53 Y174.58 E84.55694
G1 X167.85 Y174.25 E84.58832
G1 X167.12 Y173.99 E84.62027
G1 X166.38 Y173.81 E84.65230
G1 X165.61 Y173.69 E84.68458
G1 X164.82 Y173.65 E84.71721
G1 X164.04 Y173.69 E84.74997
G1 X163.29 Y173.81 E84.78130
G1 X162.57 Y174.00 E84.81237
G1 X161.88 Y174.26 E84.84287
G1 X161.26 Y174.58 E84.87223
G1 X160.70 Y174.96 E84.90032
G1 X160.20 Y175.40 E84.92795
G1 X159.79 Y175.88 E84.95393
G1 X159.47 Y176.41 E84.97981
G1 X159.30 Y176.78 E84.99690
G1 X122.02 Y176.78 E86.54683
G1 X122.02 Y153.28 E87.52384
G0 F9000 X121.52 Y177.78
G1 F3000 X159.50 Y177.78 E89.10283
G1 X159.57 Y178.63 E89.13836
G1 X159.69 Y179.14 E89.15979
G1 X159.89 Y179.65 E89.18293
G1 X160.17 Y180.14 E89.20640
G1 X160.54 Y180.62 E89.23166
G1 X160.98 Y181.06 E89.25735
G1 X161.50 Y181.47 E89.28485
G1 X162.07 Y181.82 E89.31278
G1 X162.71 Y182.13 E89.34201
G1 X163.39 Y182.37 E89.37218
G1 X164.08 Y182.55 E89.40194
G1 X164.81 Y182.66 E89.43258
G1 X165.53 Y182.69 E89.46267
G1 X166.25 Y182.66 E89.49243
G1 X166.96 Y182.55 E89.52228
G1 X167.63 Y182.37 E89.55128
G1 X168.25 Y182.14 E89.57877
G1 X168.84 Y181.84 E89.60612
G1 X169.35 Y181.49 E89.63165
G1 X169.79 Y181.10 E89.65618
G1 X170.16 Y180.66 E89.68001
G1 X170.44 Y180.21 E89.70211
G1 X170.65 Y179.73 E89.72410
G1 X170.78 Y179.24 E89.74527
G1 X170.82 Y178.74 E89.76618
G1 X170.75 Y177.78 E89.80592
G1 X193.02 Y177.78 E90.73184
G1 X193.02 Y193.28 E91.37626
G1 X121.52 Y193.28 E94.34888
G1 X121.52 Y177.78 E94.99330
G0 F9000 X122.02 Y178.28
G1 F3000 X159.04 Y178.28 E96.53233
G1 X159.07 Y178.71 E96.55005
G1 X159.21 Y179.29 E96.57493
G1 X159.44 Y179.87 E96.60085
G1 X159.76 Y180.42 E96.62730
G1 X160.17 Y180.95 E96.65522
G1 X160.65 Y181.43 E96.68350
G1 X161.21 Y181.88 E96.71349
G1 X161.84 Y182.27 E96.74396
G1 X162.51 Y182.59 E96.77509
G1 X163.24 Y182.85 E96.80725
G1 X163.99 Y183.04 E96.83931
G1 X164.76 Y183.15 E96.87159
G1 X165.54 Y183.19 E96.90405
G1 X166.31 Y183.15 E96.93627
G1 X167.06 Y183.04 E96.96764
G1 X167.78 Y182.85 E96.99874
G1 X168.47 Y182.59 E97.02924
G1 X169.09 Y182.27 E97.05834
G1 X169.66 Y181.88 E97.08695
G1 X170.15 Y181.45 E97.11437
G1 X170.56 Y180.96 E97.14079
G1 X170.88 Y180.45 E97.16605
G1 X171.13 Y179.90 E97.19113
G1 X171.27 Y179.32 E97.21578
G1 X171.33 Y178.74 E97.24024
G1 X171.29 Y178.28 E97.25913
G1 X192.52 Y178.28 E98.14177
G1 X192.52 Y192.78 E98.74461
G1 X122.02 Y192.78 E101.67566
G1 X122.02 Y178.28 E102.27850
G0 F9000 X160.00 Y177.69
G1 F3000 X160.06 Y178.56 E102.31445
G1 X160.16 Y178.99 E102.33298
G1 X160.34 Y179.43 E102.35275
G1 X160.59 Y179.86 E102.37354
G1 X160.92 Y180.29 E102.39580
G1 X161.32 Y180.69 E102.41920
G1 X161.79 Y181.06 E102.44436
G1 X162.31 Y181.39 E102.47000
G1 X162.90 Y181.67 E102.49717
G1 X163.53 Y181.90 E102.52482
G1 X164.19 Y182.06 E102.55294
G1 X164.85 Y182.16 E102.58081
G1 X165.54 Y182.19 E102.60973
G1 X166.20 Y182.16 E102.63704
G1 X166.85 Y182.06 E102.66458
G1 X167.48 Y181.90 E102.69131
G1 X168.06 Y181.68 E102.71717
G1 X168.58 Y181.41 E102.74140
G1 X169.04 Y181.10 E102.76468
G1 X169.43 Y180.75 E102.78650
G1 X169.75 Y180.37 E102.80700
G1 X170.00 Y179.97 E102.82647
G1 X170.18 Y179.57 E102.84487
G1 X170.29 Y179.15 E102.86282
G1 X170.32 Y178.73 E102.88039
G1 X170.25 Y177.78 E102.91992
G1 X170.23 Y177.78 E102.92075
G1 X169.77 Y176.99 E102.95896
G1 X169.44 Y176.56 E102.98141
G1 X169.04 Y176.16 E103.00510
G1 X168.58 Y175.79 E103.02940
G1 X168.04 Y175.46 E103.05564
G1 X167.45 Y175.18 E103.08284
G1 X166.84 Y174.95 E103.11009
G1 X166.17 Y174.79 E103.13857
G1 X165.51 Y174.69 E103.16660
G1 X164.82 Y174.65 E103.19491
G1 X164.15 Y174.69 E103.22309
G1 X163.49 Y174.79 E103.25089
G1 X162.88 Y174.95 E103.27718
G1 X162.29 Y175.17 E103.30316
G1 X161.77 Y175.44 E103.32737
G1 X161.31 Y175.75 E103.35053
G1 X160.92 Y176.10 E103.37241
G1 X160.60 Y176.47 E103.39285
G1 X160.35 Y176.87 E103.41236
G1 X160.00 Y177.69 E103.44955
G0 F9000 X160.50 Y177.78
G1 F3000 X160.56 Y178.47 E103.47853
G1 X160.64 Y178.84 E103.49416
G1 X160.79 Y179.21 E103.51080
G1 X161.01 Y179.58 E103.52851
G1 X161.30 Y179.96 E103.54846
G1 X161.65 Y180.31 E103.56916
G1 X162.08 Y180.65 E103.59183
G1 X162.55 Y180.95 E103.61512
G1 X163.09 Y181.21 E103.64005
G1 X163.68 Y181.42 E103.66586
G1 X164.28 Y181.57 E103.69162
G1 X164.91 Y181.66 E103.71797
G1 X165.53 Y181.69 E103.74403
G1 X166.16 Y181.66 E103.77009
G1 X166.75 Y181.57 E103.79502
G1 X167.33 Y181.42 E103.81981
G1 X167.85 Y181.22 E103.84280
G1 X168.33 Y180.97 E103.86533
G1 X168.73 Y180.70 E103.88571
G1 X169.07 Y180.40 E103.90450
G1 X169.35 Y180.07 E103.92234
G1 X169.56 Y179.74 E103.93849
G1 X169.70 Y179.40 E103.95394
G1 X169.79 Y179.07 E103.96837
G1 X169.82 Y178.73 E103.98248
G1 X169.76 Y177.97 E104.01397
G1 X169.35 Y177.26 E104.04819
G1 X169.06 Y176.89 E104.06770
G1 X168.71 Y176.53 E104.08869
G1 X168.28 Y176.20 E104.11118
G1 X167.80 Y175.90 E104.13467
G1 X167.27 Y175.64 E104.15942
G1 X166.69 Y175.43 E104.18491
G1 X166.07 Y175.28 E104.21124
G1 X165.46 Y175.19 E104.23721
G1 X164.82 Y175.15 E104.26352
G1 X164.19 Y175.19 E104.29000
G1 X163.60 Y175.28 E104.31498
G1 X163.02 Y175.43 E104.33972
G1 X162.50 Y175.62 E104.36280
G1 X162.03 Y175.87 E104.38478
G1 X161.62 Y176.15 E104.40537
G1 X161.28 Y176.45 E104.42454
G1 X161.00 Y176.78 E104.44220
G1 X160.80 Y177.10 E104.45813
G1 X160.50 Y177.78 E104.48887
G0 F9000 X161.01 Y177.86
G1 F3000 X161.06 Y178.40 E104.51135
G1 X161.12 Y178.69 E104.52356
G1 X161.25 Y179.00 E104.53740
G1 X161.42 Y179.30 E104.55213
G1 X161.67 Y179.63 E104.56933
G1 X161.98 Y179.94 E104.58756
G1 X162.36 Y180.24 E104.60771
G1 X162.79 Y180.51 E104.62879
G1 X163.28 Y180.74 E104.65110
G1 X163.83 Y180.94 E104.67531
G1 X164.37 Y181.07 E104.69876
G1 X164.96 Y181.16 E104.72352
G1 X165.53 Y181.19 E104.74720
G1 X166.10 Y181.16 E104.77076
G1 X166.66 Y181.08 E104.79418
G1 X167.17 Y180.94 E104.81636
G1 X167.65 Y180.76 E104.83766
G1 X168.07 Y180.55 E104.85705
G1 X168.42 Y180.31 E104.87495
G1 X168.72 Y180.04 E104.89132
G1 X168.94 Y179.78 E104.90598
G1 X169.11 Y179.51 E104.91906
G1 X169.23 Y179.24 E104.93138
G1 X169.30 Y178.98 E104.94242
G1 X169.32 Y178.72 E104.95314
G1 X169.27 Y178.13 E104.97804
G1 X168.94 Y177.54 E105.00602
G1 X168.68 Y177.22 E105.02327
G1 X168.37 Y176.91 E105.04141
G1 X167.99 Y176.61 E105.06157
G1 X167.56 Y176.34 E105.08285
G1 X167.07 Y176.10 E105.10524
G1 X166.54 Y175.91 E105.12896
G1 X165.99 Y175.77 E105.15246
G1 X165.40 Y175.68 E105.17722
G1 X164.82 Y175.66 E105.20115
G1 X164.25 Y175.68 E105.22513
G1 X163.69 Y175.77 E105.24847
G1 X163.17 Y175.90 E105.27081
G1 X162.70 Y176.08 E105.29176
G1 X162.28 Y176.30 E105.31153
G1 X161.93 Y176.54 E105.32900
G1 X161.63 Y176.81 E105.34582
G1 X161.41 Y177.07 E105.35997
G1 X161.24 Y177.34 E105.37331
G1 X161.01 Y177.86 E105.39707
G0 F9000 X156.99 Y160.03
G1 F3000 X157.95 Y159.73 E105.43901
G1 X158.86 Y159.31 E105.48046
G1 X159.72 Y158.78 E105.52250
G1 X160.49 Y158.16 E105.56374
G1 X161.18 Y157.45 E105.60473
G1 X161.76 Y156.66 E105.64553
G1 X162.24 Y155.81 E105.68605
G1 X162.61 Y154.91 E105.72645
G1 X162.85 Y153.97 E105.76690
G1 X163.04 Y152.54 E105.82698
G1 X162.85 Y151.09 E105.88747
G1 X162.61 Y150.15 E105.92793
G1 X162.24 Y149.25 E105.96832
G1 X161.76 Y148.40 E106.00885
G1 X161.18 Y147.62 E106.04944
G1 X160.49 Y146.90 E106.09084
G1 X159.72 Y146.28 E106.13194
G1 X158.86 Y145.75 E106.17392
G1 X157.95 Y145.34 E106.21537
G1 X156.99 Y145.03 E106.25731
G1 X156.00 Y144.85 E106.29922
G1 X154.99 Y144.79 E106.34141
G1 X153.96 Y144.85 E106.38398
G1 X152.97 Y145.03 E106.42597
